P3
160 120
255
255 255 255
255 255 255
187 187 187
255 255 255
255 255 255
255 255 255
187 187 187
255 255 255
255 255 255
255 255 255
187 187 187
255 255 255
255 255 255
255 255 255
187 187 187
255 255 255
255 255 255
255 255 255
187 187 187
255 255 255
255 255 255
255 255 255
187 187 187
255 255 255
255 255 255
255 255 255
187 187 187
255 255 255
255 255 255
255 255 255
187 187 187
255 255 255
255 255 255
255 255 255
187 187 187
255 255 255
255 255 255
255 255 255
187 187 187
255 255 255
255 255 255
255 255 255
187 187 187
255 255 255
255 255 255
255 255 255
187 187 187
255 255 255
255 255 255
255 255 255
187 187 187
255 255 255
255 255 255
255 255 255
187 187 187
255 255 255
255 255 255
255 255 255
187 187 187
255 255 255
255 255 255
255 255 255
187 187 187
255 255 255
255 255 255
255 255 255
187 187 187
255 255 255
255 255 255
255 255 255
187 187 187
255 255 255
255 255 255
255 255 255
187 187 187
255 255 255
255 255 255
255 255 255
187 187 187
255 255 255
255 255 255
255 255 255
187 187 187
255 255 255
255 255 255
255 255 255
187 187 187
255 255 255
255 255 255
255 255 255
187 187 187
255 255 255
255 255 255
255 255 255
187 187 187
255 255 255
255 255 255
255 255 255
187 187 187
255 255 255
255 255 255
255 255 255
187 187 187
255 255 255
255 255 255
255 255 255
187 187 187
255 255 255
255 255 255
255 255 255
187 187 187
255 255 255
255 255 255
255 255 255
187 187 187
255 255 255
255 255 255
255 255 255
187 187 187
255 255 255
255 255 255
255 255 255
187 187 187
255 255 255
255 255 255
255 255 255
187 187 187
255 255 255
255 255 255
255 255 255
187 187 187
255 255 255
255 255 255
255 255 255
187 187 187
255 255 255
255 255 255
255 255 255
187 187 187
255 255 255
255 255 255
255 255 255
187 187 187
255 255 255
255 255 255
255 255 255
187 187 187
255 255 255
255 255 255
255 255 255
187 187 187
255 255 255
255 255 255
255 255 255
187 187 187
255 255 255
255 255 255
255 255 255
187 187 187
255 255 255
255 255 255
255 255 255
187 187 187
255 255 255
255 255 255
255 255 255
187 187 187
255 255 255
255 255 255
255 255 255
187 187 187
255 255 255
255 255 255
255 255 255
187 187 187
255 255 255
255 255 255
255 255 255
187 187 187
255 255 255
255 255 255
255 255 255
187 187 187
255 255 255
255 255 255
255 255 255
187 187 187
255 255 255
255 255 255
255 255 255
187 187 187
255 255 255
255 255 255
255 255 255
187 187 187
255 255 255
255 255 255
255 255 255
187 187 187
255 255 255
255 255 255
255 255 255
187 187 187
255 255 255
255 255 255
255 255 255
187 187 187
255 255 255
255 255 255
255 255 255
187 187 187
255 255 255
255 255 255
255 255 255
187 187 187
255 255 255
255 255 255
255 255 255
187 187 187
255 255 255
255 255 255
255 255 255
187 187 187
255 255 255
255 255 255
255 255 255
187 187 187
255 255 255
255 255 255
255 255 255
187 187 187
255 255 255
255 255 255
255 255 255
187 187 187
255 255 255
255 255 255
255 255 255
187 187 187
255 255 255
255 255 255
255 255 255
187 187 187
255 255 255
255 255 255
255 255 255
187 187 187
255 255 255
255 255 255
255 255 255
187 187 187
255 255 255
255 255 255
255 255 255
187 187 187
255 255 255
255 255 255
255 255 255
187 187 187
255 255 255
255 255 255
255 255 255
187 187 187
255 255 255
255 255 255
255 255 255
187 187 187
255 255 255
255 255 255
255 255 255
187 187 187
255 255 255
255 255 255
255 255 255
187 187 187
255 255 255
255 255 255
255 255 255
187 187 187
255 255 255
255 255 255
255 255 255
187 187 187
255 255 255
255 255 255
255 255 255
187 187 187
255 255 255
255 255 255
255 255 255
187 187 187
255 255 255
255 255 255
255 255 255
187 187 187
255 255 255
255 255 255
255 255 255
187 187 187
255 255 255
255 255 255
255 255 255
187 187 187
255 255 255
255 255 255
255 255 255
187 187 187
255 255 255
255 255 255
255 255 255
187 187 187
255 255 255
255 255 255
255 255 255
187 187 187
255 255 255
255 255 255
255 255 255
187 187 187
255 255 255
255 255 255
255 255 255
187 187 187
255 255 255
255 255 255
255 255 255
187 187 187
255 255 255
255 255 255
255 255 255
187 187 187
255 255 255
255 255 255
255 255 255
187 187 187
255 255 255
255 255 255
255 255 255
187 187 187
255 255 255
255 255 255
255 255 255
187 187 187
255 255 255
255 255 255
255 255 255
187 187 187
255 255 255
255 255 255
255 255 255
187 187 187
255 255 255
255 255 255
255 255 255
187 187 187
255 255 255
255 255 255
255 255 255
187 187 187
255 255 255
255 255 255
255 255 255
187 187 187
255 255 255
255 255 255
255 255 255
187 187 187
255 255 255
255 255 255
255 255 255
187 187 187
255 255 255
255 255 255
255 255 255
187 187 187
255 255 255
255 255 255
255 255 255
187 187 187
255 255 255
255 255 255
255 255 255
187 187 187
255 255 255
255 255 255
255 255 255
187 187 187
255 255 255
255 255 255
255 255 255
187 187 187
255 255 255
255 255 255
255 255 255
187 187 187
255 255 255
255 255 255
255 255 255
187 187 187
255 255 255
255 255 255
255 255 255
187 187 187
255 255 255
255 255 255
255 255 255
187 187 187
255 255 255
255 255 255
255 255 255
187 187 187
255 255 255
255 255 255
255 255 255
187 187 187
255 255 255
255 255 255
255 255 255
187 187 187
255 255 255
255 255 255
255 255 255
187 187 187
255 255 255
255 255 255
255 255 255
187 187 187
255 255 255
255 255 255
255 255 255
187 187 187
255 255 255
255 255 255
255 255 255
187 187 187
255 255 255
255 255 255
255 255 255
187 187 187
255 255 255
255 255 255
255 255 255
187 187 187
255 255 255
255 255 255
255 255 255
187 187 187
255 255 255
255 255 255
255 255 255
187 187 187
255 255 255
255 255 255
255 255 255
187 187 187
255 255 255
255 255 255
255 255 255
187 187 187
255 255 255
255 255 255
255 255 255
187 187 187
255 255 255
255 255 255
255 255 255
187 187 187
255 255 255
255 255 255
255 255 255
187 187 187
255 255 255
255 255 255
255 255 255
187 187 187
255 255 255
255 255 255
255 255 255
187 187 187
255 255 255
255 255 255
255 255 255
187 187 187
255 255 255
255 255 255
255 255 255
187 187 187
255 255 255
255 255 255
255 255 255
187 187 187
255 255 255
255 255 255
255 255 255
187 187 187
255 255 255
255 255 255
255 255 255
187 187 187
255 255 255
255 255 255
255 255 255
187 187 187
255 255 255
255 255 255
255 255 255
187 187 187
255 255 255
255 255 255
255 255 255
187 187 187
255 255 255
255 255 255
255 255 255
187 187 187
255 255 255
255 255 255
255 255 255
187 187 187
255 255 255
255 255 255
255 255 255
187 187 187
255 255 255
255 255 255
255 255 255
187 187 187
255 255 255
255 255 255
255 255 255
187 187 187
255 255 255
255 255 255
255 255 255
187 187 187
255 255 255
255 255 255
255 255 255
187 187 187
255 255 255
255 255 255
255 255 255
187 187 187
255 255 255
255 255 255
255 255 255
187 187 187
255 255 255
255 255 255
255 255 255
187 187 187
255 255 255
255 255 255
255 255 255
187 187 187
255 255 255
255 255 255
255 255 255
187 187 187
255 255 255
255 255 255
255 255 255
187 187 187
255 255 255
255 255 255
255 255 255
187 187 187
255 255 255
255 255 255
255 255 255
187 187 187
255 255 255
255 255 255
255 255 255
187 187 187
255 255 255
255 255 255
255 255 255
187 187 187
255 255 255
255 255 255
255 255 255
187 187 187
255 255 255
255 255 255
255 255 255
187 187 187
255 255 255
255 255 255
255 255 255
187 187 187
255 255 255
255 255 255
255 255 255
187 187 187
255 255 255
255 255 255
255 255 255
187 187 187
255 255 255
255 255 255
255 255 255
187 187 187
255 255 255
255 255 255
255 255 255
187 187 187
255 255 255
255 255 255
255 255 255
187 187 187
255 255 255
255 255 255
255 255 255
187 187 187
255 255 255
255 255 255
255 255 255
187 187 187
255 255 255
255 255 255
255 255 255
187 187 187
255 255 255
255 255 255
255 255 255
187 187 187
255 255 255
255 255 255
255 255 255
187 187 187
255 255 255
255 255 255
255 255 255
187 187 187
255 255 255
255 255 255
255 255 255
187 187 187
255 255 255
255 255 255
255 255 255
187 187 187
255 255 255
255 255 255
255 255 255
187 187 187
255 255 255
255 255 255
255 255 255
187 187 187
255 255 255
255 255 255
255 255 255
187 187 187
255 255 255
255 255 255
255 255 255
187 187 187
255 255 255
255 255 255
255 255 255
187 187 187
255 255 255
255 255 255
255 255 255
187 187 187
255 255 255
255 255 255
255 255 255
187 187 187
255 255 255
255 255 255
255 255 255
187 187 187
255 255 255
255 255 255
255 255 255
187 187 187
255 255 255
255 255 255
255 255 255
187 187 187
255 255 255
255 255 255
255 255 255
187 187 187
255 255 255
255 255 255
255 255 255
187 187 187
255 255 255
255 255 255
255 255 255
187 187 187
255 255 255
255 255 255
255 255 255
187 187 187
255 255 255
255 255 255
255 255 255
187 187 187
255 255 255
255 255 255
255 255 255
187 187 187
255 255 255
255 255 255
255 255 255
187 187 187
255 255 255
255 255 255
255 255 255
187 187 187
255 255 255
255 255 255
255 255 255
187 187 187
255 255 255
255 255 255
255 255 255
187 187 187
255 255 255
255 255 255
255 255 255
187 187 187
255 255 255
255 255 255
255 255 255
187 187 187
255 255 255
255 255 255
255 255 255
187 187 187
255 255 255
255 255 255
255 255 255
187 187 187
255 255 255
255 255 255
255 255 255
187 187 187
255 255 255
255 255 255
255 255 255
187 187 187
255 255 255
255 255 255
255 255 255
187 187 187
255 255 255
255 255 255
255 255 255
187 187 187
255 255 255
255 255 255
255 255 255
187 187 187
255 255 255
255 255 255
255 255 255
187 187 187
255 255 255
255 255 255
255 255 255
187 187 187
255 255 255
255 255 255
255 255 255
187 187 187
255 255 255
255 255 255
255 255 255
187 187 187
255 255 255
255 255 255
255 255 255
187 187 187
255 255 255
255 255 255
255 255 255
187 187 187
255 255 255
255 255 255
255 255 255
187 187 187
255 255 255
255 255 255
255 255 255
187 187 187
255 255 255
255 255 255
255 255 255
187 187 187
255 255 255
255 255 255
255 255 255
187 187 187
255 255 255
255 255 255
255 255 255
187 187 187
255 255 255
255 255 255
255 255 255
187 187 187
255 255 255
255 255 255
255 255 255
187 187 187
255 255 255
255 255 255
255 255 255
187 187 187
255 255 255
255 255 255
255 255 255
187 187 187
255 255 255
255 255 255
255 255 255
187 187 187
255 255 255
255 255 255
255 255 255
187 187 187
255 255 255
255 255 255
255 255 255
187 187 187
255 255 255
255 255 255
255 255 255
187 187 187
255 255 255
255 255 255
255 255 255
187 187 187
255 255 255
255 255 255
255 255 255
187 187 187
255 255 255
255 255 255
255 255 255
187 187 187
255 255 255
255 255 255
255 255 255
187 187 187
255 255 255
255 255 255
255 255 255
187 187 187
255 255 255
255 255 255
255 255 255
187 187 187
255 255 255
255 255 255
255 255 255
187 187 187
255 255 255
255 255 255
255 255 255
187 187 187
255 255 255
255 255 255
255 255 255
187 187 187
255 255 255
255 255 255
255 255 255
187 187 187
255 255 255
255 255 255
255 255 255
187 187 187
255 255 255
255 255 255
255 255 255
187 187 187
255 255 255
255 255 255
255 255 255
187 187 187
255 255 255
255 255 255
255 255 255
187 187 187
255 255 255
255 255 255
255 255 255
187 187 187
255 255 255
255 255 255
255 255 255
187 187 187
255 255 255
255 255 255
255 255 255
187 187 187
255 255 255
255 255 255
255 255 255
187 187 187
255 255 255
255 255 255
255 255 255
187 187 187
255 255 255
255 255 255
255 255 255
187 187 187
255 255 255
255 255 255
255 255 255
187 187 187
255 255 255
255 255 255
255 255 255
187 187 187
255 255 255
255 255 255
255 255 255
187 187 187
255 255 255
255 255 255
255 255 255
187 187 187
255 255 255
255 255 255
255 255 255
187 187 187
255 255 255
255 255 255
255 255 255
187 187 187
255 255 255
255 255 255
255 255 255
187 187 187
255 255 255
255 255 255
255 255 255
187 187 187
255 255 255
255 255 255
255 255 255
187 187 187
255 255 255
255 255 255
255 255 255
187 187 187
255 255 255
255 255 255
255 255 255
187 187 187
255 255 255
255 255 255
255 255 255
187 187 187
255 255 255
255 255 255
255 255 255
187 187 187
255 255 255
255 255 255
255 255 255
187 187 187
255 255 255
255 255 255
255 255 255
187 187 187
255 255 255
255 255 255
255 255 255
187 187 187
255 255 255
255 255 255
255 255 255
187 187 187
255 255 255
255 255 255
255 255 255
187 187 187
255 255 255
255 255 255
255 255 255
187 187 187
255 255 255
255 255 255
255 255 255
187 187 187
255 255 255
255 255 255
255 255 255
187 187 187
255 255 255
255 255 255
255 255 255
187 187 187
255 255 255
255 255 255
255 255 255
187 187 187
255 255 255
255 255 255
255 255 255
187 187 187
255 255 255
255 255 255
255 255 255
187 187 187
255 255 255
255 255 255
255 255 255
187 187 187
255 255 255
255 255 255
255 255 255
187 187 187
255 255 255
255 255 255
255 255 255
187 187 187
255 255 255
255 255 255
255 255 255
187 187 187
255 255 255
255 255 255
255 255 255
187 187 187
255 255 255
255 255 255
255 255 255
187 187 187
255 255 255
255 255 255
255 255 255
187 187 187
255 255 255
255 255 255
255 255 255
187 187 187
255 255 255
255 255 255
255 255 255
187 187 187
255 255 255
255 255 255
255 255 255
187 187 187
255 255 255
255 255 255
255 255 255
187 187 187
255 255 255
255 255 255
255 255 255
187 187 187
255 255 255
255 255 255
255 255 255
187 187 187
255 255 255
255 255 255
255 255 255
187 187 187
255 255 255
255 255 255
255 255 255
187 187 187
255 255 255
255 255 255
255 255 255
187 187 187
255 255 255
255 255 255
255 255 255
187 187 187
255 255 255
255 255 255
255 255 255
187 187 187
255 255 255
255 255 255
255 255 255
187 187 187
255 255 255
255 255 255
255 255 255
187 187 187
255 255 255
255 255 255
255 255 255
187 187 187
255 255 255
255 255 255
255 255 255
187 187 187
255 255 255
255 255 255
255 255 255
187 187 187
255 255 255
255 255 255
255 255 255
187 187 187
255 255 255
255 255 255
255 255 255
187 187 187
255 255 255
255 255 255
255 255 255
187 187 187
255 255 255
255 255 255
255 255 255
187 187 187
255 255 255
255 255 255
255 255 255
187 187 187
255 255 255
255 255 255
255 255 255
187 187 187
255 255 255
255 255 255
255 255 255
187 187 187
255 255 255
255 255 255
255 255 255
187 187 187
255 255 255
255 255 255
255 255 255
187 187 187
255 255 255
255 255 255
255 255 255
187 187 187
255 255 255
255 255 255
255 255 255
187 187 187
255 255 255
255 255 255
255 255 255
187 187 187
255 255 255
255 255 255
255 255 255
187 187 187
255 255 255
255 255 255
255 255 255
187 187 187
255 255 255
255 255 255
255 255 255
187 187 187
255 255 255
255 255 255
255 255 255
187 187 187
255 255 255
255 255 255
255 255 255
187 187 187
255 255 255
255 255 255
255 255 255
187 187 187
255 255 255
255 255 255
255 255 255
187 187 187
255 255 255
255 255 255
255 255 255
187 187 187
255 255 255
255 255 255
255 255 255
187 187 187
255 255 255
255 255 255
255 255 255
187 187 187
255 255 255
255 255 255
255 255 255
187 187 187
255 255 255
255 255 255
255 255 255
187 187 187
255 255 255
255 255 255
255 255 255
187 187 187
255 255 255
255 255 255
255 255 255
187 187 187
255 255 255
255 255 255
255 255 255
187 187 187
255 255 255
255 255 255
255 255 255
187 187 187
255 255 255
255 255 255
255 255 255
187 187 187
255 255 255
255 255 255
255 255 255
187 187 187
255 255 255
255 255 255
255 255 255
187 187 187
255 255 255
255 255 255
255 255 255
187 187 187
255 255 255
255 255 255
255 255 255
187 187 187
255 255 255
255 255 255
255 255 255
187 187 187
255 255 255
255 255 255
255 255 255
187 187 187
255 255 255
255 255 255
255 255 255
187 187 187
255 255 255
255 255 255
255 255 255
187 187 187
255 255 255
255 255 255
255 255 255
187 187 187
255 255 255
255 255 255
255 255 255
187 187 187
255 255 255
255 255 255
255 255 255
187 187 187
255 255 255
255 255 255
255 255 255
187 187 187
255 255 255
255 255 255
255 255 255
187 187 187
255 255 255
255 255 255
255 255 255
187 187 187
255 255 255
255 255 255
255 255 255
187 187 187
255 255 255
255 255 255
255 255 255
187 187 187
255 255 255
255 255 255
255 255 255
187 187 187
255 255 255
255 255 255
255 255 255
187 187 187
255 255 255
255 255 255
255 255 255
187 187 187
255 255 255
255 255 255
255 255 255
187 187 187
255 255 255
255 255 255
255 255 255
187 187 187
255 255 255
255 255 255
255 255 255
187 187 187
255 255 255
255 255 255
255 255 255
187 187 187
255 255 255
255 255 255
255 255 255
187 187 187
255 255 255
255 255 255
255 255 255
187 187 187
255 255 255
255 255 255
255 255 255
187 187 187
255 255 255
255 255 255
255 255 255
187 187 187
255 255 255
255 255 255
255 255 255
187 187 187
255 255 255
255 255 255
255 255 255
187 187 187
255 255 255
255 255 255
255 255 255
187 187 187
255 255 255
255 255 255
255 255 255
187 187 187
255 255 255
255 255 255
255 255 255
187 187 187
255 255 255
255 255 255
255 255 255
187 187 187
255 255 255
255 255 255
255 255 255
187 187 187
255 255 255
255 255 255
255 255 255
187 187 187
255 255 255
255 255 255
255 255 255
187 187 187
255 255 255
255 255 255
255 255 255
187 187 187
255 255 255
255 255 255
255 255 255
187 187 187
255 255 255
255 255 255
255 255 255
187 187 187
255 255 255
255 255 255
255 255 255
187 187 187
255 255 255
255 255 255
255 255 255
187 187 187
255 255 255
255 255 255
255 255 255
187 187 187
255 255 255
255 255 255
255 255 255
187 187 187
255 255 255
255 255 255
255 255 255
187 187 187
255 255 255
255 255 255
255 255 255
187 187 187
255 255 255
255 255 255
255 255 255
187 187 187
255 255 255
255 255 255
255 255 255
187 187 187
255 255 255
255 255 255
255 255 255
187 187 187
255 255 255
255 255 255
255 255 255
187 187 187
255 255 255
255 255 255
255 255 255
187 187 187
255 255 255
255 255 255
255 255 255
187 187 187
255 255 255
255 255 255
255 255 255
187 187 187
255 255 255
255 255 255
255 255 255
187 187 187
255 255 255
255 255 255
255 255 255
187 187 187
255 255 255
255 255 255
255 255 255
187 187 187
255 255 255
255 255 255
255 255 255
187 187 187
255 255 255
255 255 255
255 255 255
187 187 187
255 255 255
255 255 255
255 255 255
187 187 187
255 255 255
255 255 255
255 255 255
187 187 187
255 255 255
255 255 255
255 255 255
187 187 187
255 255 255
255 255 255
255 255 255
187 187 187
255 255 255
255 255 255
255 255 255
187 187 187
255 255 255
255 255 255
255 255 255
187 187 187
255 255 255
255 255 255
255 255 255
187 187 187
255 255 255
255 255 255
255 255 255
187 187 187
255 255 255
255 255 255
255 255 255
187 187 187
255 255 255
255 255 255
255 255 255
187 187 187
255 255 255
255 255 255
255 255 255
187 187 187
255 255 255
255 255 255
255 255 255
187 187 187
255 255 255
255 255 255
255 255 255
187 187 187
255 255 255
255 255 255
255 255 255
187 187 187
255 255 255
255 255 255
255 255 255
187 187 187
255 255 255
255 255 255
255 255 255
187 187 187
255 255 255
255 255 255
255 255 255
187 187 187
255 255 255
255 255 255
255 255 255
187 187 187
255 255 255
255 255 255
255 255 255
187 187 187
255 255 255
255 255 255
255 255 255
187 187 187
255 255 255
255 255 255
255 255 255
187 187 187
255 255 255
255 255 255
255 255 255
187 187 187
255 255 255
255 255 255
255 255 255
187 187 187
255 255 255
255 255 255
255 255 255
187 187 187
255 255 255
255 255 255
255 255 255
187 187 187
255 255 255
255 255 255
255 255 255
187 187 187
255 255 255
255 255 255
255 255 255
187 187 187
255 255 255
255 255 255
255 255 255
187 187 187
255 255 255
255 255 255
255 255 255
187 187 187
255 255 255
255 255 255
255 255 255
187 187 187
255 255 255
255 255 255
255 255 255
187 187 187
255 255 255
255 255 255
255 255 255
187 187 187
255 255 255
255 255 255
255 255 255
187 187 187
255 255 255
255 255 255
255 255 255
187 187 187
255 255 255
255 255 255
255 255 255
187 187 187
255 255 255
255 255 255
255 255 255
187 187 187
255 255 255
255 255 255
255 255 255
187 187 187
255 255 255
255 255 255
255 255 255
187 187 187
255 255 255
255 255 255
255 255 255
187 187 187
255 255 255
255 255 255
255 255 255
187 187 187
255 255 255
255 255 255
255 255 255
187 187 187
255 255 255
255 255 255
255 255 255
187 187 187
255 255 255
255 255 255
255 255 255
187 187 187
255 255 255
255 255 255
255 255 255
187 187 187
255 255 255
255 255 255
255 255 255
187 187 187
255 255 255
255 255 255
255 255 255
187 187 187
255 255 255
255 255 255
255 255 255
187 187 187
255 255 255
255 255 255
255 255 255
187 187 187
255 255 255
255 255 255
255 255 255
187 187 187
255 255 255
255 255 255
255 255 255
187 187 187
255 255 255
255 255 255
255 255 255
187 187 187
255 255 255
255 255 255
255 255 255
187 187 187
255 255 255
255 255 255
255 255 255
187 187 187
255 255 255
255 255 255
255 255 255
187 187 187
255 255 255
255 255 255
255 255 255
187 187 187
255 255 255
255 255 255
255 255 255
187 187 187
255 255 255
255 255 255
255 255 255
187 187 187
255 255 255
255 255 255
255 255 255
187 187 187
255 255 255
255 255 255
255 255 255
187 187 187
255 255 255
255 255 255
255 255 255
187 187 187
255 255 255
255 255 255
255 255 255
187 187 187
255 255 255
255 255 255
255 255 255
187 187 187
255 255 255
255 255 255
255 255 255
187 187 187
255 255 255
255 255 255
255 255 255
187 187 187
255 255 255
255 255 255
255 255 255
187 187 187
255 255 255
255 255 255
255 255 255
187 187 187
255 255 255
255 255 255
255 255 255
187 187 187
255 255 255
255 255 255
255 255 255
187 187 187
255 255 255
255 255 255
255 255 255
187 187 187
255 255 255
255 255 255
255 255 255
187 187 187
255 255 255
255 255 255
255 255 255
187 187 187
255 255 255
255 255 255
255 255 255
187 187 187
255 255 255
255 255 255
255 255 255
187 187 187
255 255 255
255 255 255
255 255 255
187 187 187
255 255 255
255 255 255
255 255 255
187 187 187
255 255 255
255 255 255
255 255 255
187 187 187
255 255 255
255 255 255
255 255 255
187 187 187
255 255 255
255 255 255
255 255 255
187 187 187
255 255 255
255 255 255
255 255 255
187 187 187
255 255 255
255 255 255
255 255 255
187 187 187
255 255 255
255 255 255
255 255 255
187 187 187
255 255 255
255 255 255
255 255 255
187 187 187
255 255 255
255 255 255
255 255 255
187 187 187
255 255 255
255 255 255
255 255 255
187 187 187
255 255 255
255 255 255
255 255 255
187 187 187
255 255 255
255 255 255
255 255 255
187 187 187
255 255 255
255 255 255
255 255 255
187 187 187
255 255 255
255 255 255
255 255 255
187 187 187
255 255 255
255 255 255
255 255 255
187 187 187
255 255 255
255 255 255
255 255 255
187 187 187
255 255 255
255 255 255
255 255 255
187 187 187
255 255 255
255 255 255
255 255 255
187 187 187
255 255 255
255 255 255
255 255 255
187 187 187
255 255 255
255 255 255
255 255 255
187 187 187
255 255 255
255 255 255
255 255 255
187 187 187
255 255 255
255 255 255
255 255 255
187 187 187
255 255 255
255 255 255
255 255 255
187 187 187
255 255 255
255 255 255
255 255 255
187 187 187
255 255 255
255 255 255
255 255 255
187 187 187
255 255 255
255 255 255
255 255 255
187 187 187
255 255 255
255 255 255
255 255 255
187 187 187
255 255 255
255 255 255
255 255 255
187 187 187
255 255 255
255 255 255
255 255 255
187 187 187
255 255 255
255 255 255
255 255 255
187 187 187
255 255 255
255 255 255
255 255 255
187 187 187
255 255 255
255 255 255
255 255 255
187 187 187
255 255 255
255 255 255
255 255 255
187 187 187
255 255 255
255 255 255
255 255 255
187 187 187
255 255 255
255 255 255
255 255 255
187 187 187
255 255 255
255 255 255
255 255 255
187 187 187
255 255 255
255 255 255
255 255 255
187 187 187
255 255 255
255 255 255
255 255 255
187 187 187
255 255 255
255 255 255
255 255 255
187 187 187
255 255 255
255 255 255
255 255 255
187 187 187
255 255 255
255 255 255
255 255 255
187 187 187
255 255 255
255 255 255
255 255 255
187 187 187
255 255 255
255 255 255
255 255 255
187 187 187
255 255 255
255 255 255
255 255 255
187 187 187
255 255 255
255 255 255
255 255 255
187 187 187
255 255 255
255 255 255
255 255 255
187 187 187
255 255 255
255 255 255
255 255 255
187 187 187
255 255 255
255 255 255
255 255 255
187 187 187
255 255 255
255 255 255
255 255 255
187 187 187
255 255 255
255 255 255
255 255 255
187 187 187
255 255 255
255 255 255
255 255 255
187 187 187
255 255 255
255 255 255
255 255 255
187 187 187
255 255 255
255 255 255
255 255 255
187 187 187
255 255 255
255 255 255
255 255 255
187 187 187
255 255 255
255 255 255
255 255 255
187 187 187
255 255 255
255 255 255
255 255 255
187 187 187
255 255 255
255 255 255
255 255 255
187 187 187
255 255 255
255 255 255
255 255 255
187 187 187
255 255 255
255 255 255
255 255 255
187 187 187
255 255 255
255 255 255
255 255 255
187 187 187
255 255 255
255 255 255
255 255 255
187 187 187
255 255 255
255 255 255
255 255 255
187 187 187
255 255 255
255 255 255
255 255 255
187 187 187
255 255 255
255 255 255
255 255 255
187 187 187
255 255 255
255 255 255
255 255 255
187 187 187
255 255 255
255 255 255
255 255 255
187 187 187
255 255 255
255 255 255
255 255 255
187 187 187
255 255 255
255 255 255
255 255 255
187 187 187
255 255 255
255 255 255
255 255 255
187 187 187
255 255 255
255 255 255
255 255 255
187 187 187
255 255 255
255 255 255
255 255 255
187 187 187
255 255 255
255 255 255
255 255 255
187 187 187
255 255 255
255 255 255
255 255 255
187 187 187
255 255 255
255 255 255
255 255 255
187 187 187
255 255 255
255 255 255
255 255 255
187 187 187
255 255 255
255 255 255
255 255 255
187 187 187
255 255 255
255 255 255
255 255 255
187 187 187
255 255 255
255 255 255
255 255 255
187 187 187
255 255 255
255 255 255
255 255 255
187 187 187
255 255 255
255 255 255
255 255 255
187 187 187
255 255 255
255 255 255
255 255 255
187 187 187
255 255 255
255 255 255
255 255 255
187 187 187
255 255 255
255 255 255
255 255 255
187 187 187
255 255 255
255 255 255
255 255 255
187 187 187
255 255 255
255 255 255
255 255 255
187 187 187
255 255 255
255 255 255
255 255 255
187 187 187
255 255 255
255 255 255
255 255 255
187 187 187
255 255 255
255 255 255
255 255 255
187 187 187
255 255 255
255 255 255
255 255 255
187 187 187
255 255 255
255 255 255
255 255 255
187 187 187
255 255 255
255 255 255
255 255 255
187 187 187
255 255 255
255 255 255
255 255 255
187 187 187
255 255 255
255 255 255
255 255 255
187 187 187
255 255 255
255 255 255
255 255 255
187 187 187
255 255 255
255 255 255
255 255 255
187 187 187
255 255 255
255 255 255
255 255 255
187 187 187
255 255 255
255 255 255
255 255 255
187 187 187
255 255 255
255 255 255
255 255 255
187 187 187
255 255 255
255 255 255
255 255 255
187 187 187
255 255 255
255 255 255
255 255 255
187 187 187
255 255 255
255 255 255
255 255 255
187 187 187
255 255 255
255 255 255
255 255 255
187 187 187
255 255 255
255 255 255
255 255 255
187 187 187
255 255 255
255 255 255
255 255 255
187 187 187
255 255 255
255 255 255
255 255 255
187 187 187
255 255 255
255 255 255
255 255 255
187 187 187
255 255 255
255 255 255
255 255 255
187 187 187
255 255 255
255 255 255
255 255 255
187 187 187
255 255 255
255 255 255
255 255 255
187 187 187
255 255 255
255 255 255
255 255 255
187 187 187
255 255 255
255 255 255
255 255 255
187 187 187
255 255 255
255 255 255
255 255 255
187 187 187
255 255 255
255 255 255
255 255 255
187 187 187
255 255 255
255 255 255
255 255 255
187 187 187
255 255 255
255 255 255
255 255 255
187 187 187
255 255 255
255 255 255
255 255 255
187 187 187
255 255 255
255 255 255
255 255 255
187 187 187
255 255 255
255 255 255
255 255 255
187 187 187
255 255 255
255 255 255
255 255 255
187 187 187
255 255 255
255 255 255
255 255 255
187 187 187
255 255 255
255 255 255
255 255 255
187 187 187
255 255 255
255 255 255
255 255 255
187 187 187
255 255 255
255 255 255
255 255 255
187 187 187
255 255 255
255 255 255
255 255 255
187 187 187
255 255 255
255 255 255
255 255 255
187 187 187
255 255 255
255 255 255
255 255 255
187 187 187
255 255 255
255 255 255
255 255 255
187 187 187
255 255 255
255 255 255
255 255 255
187 187 187
255 255 255
255 255 255
255 255 255
187 187 187
255 255 255
255 255 255
255 255 255
187 187 187
255 255 255
255 255 255
255 255 255
187 187 187
255 255 255
255 255 255
255 255 255
187 187 187
255 255 255
255 255 255
255 255 255
187 187 187
255 255 255
255 255 255
255 255 255
187 187 187
255 255 255
255 255 255
255 255 255
187 187 187
255 255 255
255 255 255
255 255 255
187 187 187
255 255 255
255 255 255
255 255 255
187 187 187
255 255 255
255 255 255
255 255 255
187 187 187
255 255 255
255 255 255
255 255 255
187 187 187
255 255 255
255 255 255
255 255 255
187 187 187
255 255 255
255 255 255
255 255 255
187 187 187
255 255 255
255 255 255
255 255 255
187 187 187
255 255 255
255 255 255
255 255 255
187 187 187
255 255 255
255 255 255
255 255 255
187 187 187
255 255 255
255 255 255
255 255 255
187 187 187
255 255 255
255 255 255
255 255 255
187 187 187
255 255 255
255 255 255
255 255 255
187 187 187
255 255 255
255 255 255
255 255 255
187 187 187
255 255 255
255 255 255
255 255 255
187 187 187
255 255 255
255 255 255
255 255 255
187 187 187
255 255 255
255 255 255
255 255 255
187 187 187
255 255 255
255 255 255
255 255 255
187 187 187
255 255 255
255 255 255
255 255 255
187 187 187
255 255 255
255 255 255
255 255 255
187 187 187
255 255 255
255 255 255
255 255 255
187 187 187
255 255 255
255 255 255
255 255 255
187 187 187
255 255 255
255 255 255
255 255 255
187 187 187
255 255 255
255 255 255
255 255 255
187 187 187
255 255 255
255 255 255
255 255 255
187 187 187
255 255 255
255 255 255
255 255 255
187 187 187
255 255 255
255 255 255
255 255 255
187 187 187
255 255 255
255 255 255
255 255 255
187 187 187
255 255 255
255 255 255
255 255 255
187 187 187
255 255 255
255 255 255
255 255 255
187 187 187
255 255 255
255 255 255
255 255 255
187 187 187
255 255 255
255 255 255
255 255 255
187 187 187
255 255 255
255 255 255
255 255 255
187 187 187
255 255 255
255 255 255
255 255 255
187 187 187
255 255 255
255 255 255
255 255 255
187 187 187
255 255 255
255 255 255
255 255 255
187 187 187
255 255 255
255 255 255
255 255 255
187 187 187
255 255 255
255 255 255
255 255 255
187 187 187
255 255 255
255 255 255
255 255 255
187 187 187
255 255 255
255 255 255
255 255 255
187 187 187
255 255 255
255 255 255
255 255 255
187 187 187
255 255 255
255 255 255
255 255 255
187 187 187
255 255 255
255 255 255
255 255 255
187 187 187
255 255 255
255 255 255
255 255 255
187 187 187
255 255 255
255 255 255
255 255 255
187 187 187
255 255 255
255 255 255
255 255 255
187 187 187
255 255 255
255 255 255
255 255 255
187 187 187
255 255 255
255 255 255
255 255 255
187 187 187
255 255 255
255 255 255
255 255 255
187 187 187
255 255 255
255 255 255
255 255 255
187 187 187
255 255 255
255 255 255
255 255 255
187 187 187
255 255 255
255 255 255
255 255 255
187 187 187
255 255 255
255 255 255
255 255 255
187 187 187
255 255 255
255 255 255
255 255 255
187 187 187
255 255 255
255 255 255
255 255 255
187 187 187
255 255 255
255 255 255
255 255 255
187 187 187
255 255 255
255 255 255
255 255 255
187 187 187
255 255 255
255 255 255
255 255 255
187 187 187
255 255 255
255 255 255
255 255 255
187 187 187
255 255 255
255 255 255
255 255 255
187 187 187
255 255 255
255 255 255
255 255 255
187 187 187
255 255 255
255 255 255
255 255 255
187 187 187
255 255 255
255 255 255
255 255 255
187 187 187
255 255 255
255 255 255
255 255 255
187 187 187
255 255 255
255 255 255
255 255 255
187 187 187
255 255 255
255 255 255
255 255 255
187 187 187
255 255 255
255 255 255
255 255 255
187 187 187
255 255 255
255 255 255
255 255 255
187 187 187
255 255 255
255 255 255
255 255 255
187 187 187
255 255 255
255 255 255
255 255 255
187 187 187
255 255 255
255 255 255
255 255 255
187 187 187
255 255 255
255 255 255
255 255 255
187 187 187
255 255 255
255 255 255
255 255 255
187 187 187
255 255 255
255 255 255
255 255 255
187 187 187
255 255 255
255 255 255
255 255 255
187 187 187
255 255 255
255 255 255
255 255 255
187 187 187
255 255 255
255 255 255
255 255 255
187 187 187
255 255 255
255 255 255
255 255 255
187 187 187
255 255 255
255 255 255
255 255 255
187 187 187
255 255 255
255 255 255
255 255 255
187 187 187
255 255 255
255 255 255
255 255 255
187 187 187
255 255 255
255 255 255
255 255 255
187 187 187
255 255 255
255 255 255
255 255 255
187 187 187
255 255 255
255 255 255
255 255 255
187 187 187
255 255 255
255 255 255
255 255 255
187 187 187
255 255 255
255 255 255
255 255 255
187 187 187
255 255 255
255 255 255
255 255 255
187 187 187
255 255 255
255 255 255
255 255 255
187 187 187
255 255 255
255 255 255
255 255 255
187 187 187
255 255 255
255 255 255
255 255 255
187 187 187
255 255 255
255 255 255
255 255 255
187 187 187
255 255 255
255 255 255
255 255 255
187 187 187
255 255 255
255 255 255
255 255 255
187 187 187
255 255 255
255 255 255
255 255 255
187 187 187
255 255 255
255 255 255
255 255 255
187 187 187
255 255 255
255 255 255
255 255 255
187 187 187
255 255 255
255 255 255
255 255 255
187 187 187
255 255 255
255 255 255
255 255 255
187 187 187
255 255 255
255 255 255
255 255 255
187 187 187
255 255 255
255 255 255
255 255 255
187 187 187
255 255 255
255 255 255
255 255 255
187 187 187
255 255 255
255 255 255
255 255 255
187 187 187
255 255 255
255 255 255
255 255 255
187 187 187
255 255 255
255 255 255
255 255 255
187 187 187
255 255 255
255 255 255
255 255 255
187 187 187
255 255 255
255 255 255
255 255 255
187 187 187
255 255 255
255 255 255
255 255 255
187 187 187
255 255 255
255 255 255
255 255 255
187 187 187
255 255 255
255 255 255
255 255 255
187 187 187
255 255 255
255 255 255
255 255 255
187 187 187
255 255 255
255 255 255
255 255 255
187 187 187
255 255 255
255 255 255
255 255 255
187 187 187
255 255 255
255 255 255
255 255 255
187 187 187
255 255 255
255 255 255
255 255 255
187 187 187
255 255 255
255 255 255
255 255 255
187 187 187
255 255 255
255 255 255
255 255 255
187 187 187
255 255 255
255 255 255
255 255 255
187 187 187
255 255 255
255 255 255
255 255 255
187 187 187
255 255 255
255 255 255
255 255 255
187 187 187
255 255 255
255 255 255
255 255 255
187 187 187
255 255 255
255 255 255
255 255 255
187 187 187
255 255 255
255 255 255
255 255 255
187 187 187
255 255 255
255 255 255
255 255 255
187 187 187
255 255 255
255 255 255
255 255 255
187 187 187
255 255 255
255 255 255
255 255 255
187 187 187
255 255 255
255 255 255
255 255 255
187 187 187
255 255 255
255 255 255
255 255 255
187 187 187
255 255 255
255 255 255
255 255 255
187 187 187
255 255 255
255 255 255
255 255 255
187 187 187
255 255 255
255 255 255
255 255 255
187 187 187
255 255 255
255 255 255
255 255 255
187 187 187
255 255 255
255 255 255
255 255 255
187 187 187
255 255 255
255 255 255
255 255 255
187 187 187
255 255 255
255 255 255
255 255 255
187 187 187
255 255 255
255 255 255
255 255 255
187 187 187
255 255 255
255 255 255
255 255 255
187 187 187
255 255 255
255 255 255
255 255 255
187 187 187
255 255 255
255 255 255
255 255 255
187 187 187
255 255 255
255 255 255
255 255 255
187 187 187
255 255 255
255 255 255
255 255 255
187 187 187
255 255 255
255 255 255
255 255 255
187 187 187
255 255 255
255 255 255
255 255 255
187 187 187
255 255 255
255 255 255
255 255 255
187 187 187
255 255 255
255 255 255
255 255 255
187 187 187
255 255 255
255 255 255
255 255 255
187 187 187
255 255 255
255 255 255
255 255 255
187 187 187
255 255 255
255 255 255
255 255 255
187 187 187
255 255 255
255 255 255
255 255 255
187 187 187
255 255 255
255 255 255
255 255 255
187 187 187
255 255 255
255 255 255
255 255 255
187 187 187
255 255 255
255 255 255
255 255 255
187 187 187
255 255 255
255 255 255
255 255 255
187 187 187
255 255 255
255 255 255
255 255 255
187 187 187
255 255 255
255 255 255
255 255 255
187 187 187
255 255 255
255 255 255
255 255 255
187 187 187
255 255 255
255 255 255
255 255 255
187 187 187
255 255 255
255 255 255
255 255 255
187 187 187
255 255 255
255 255 255
255 255 255
187 187 187
255 255 255
255 255 255
255 255 255
187 187 187
255 255 255
255 255 255
255 255 255
187 187 187
255 255 255
255 255 255
255 255 255
187 187 187
255 255 255
255 255 255
255 255 255
187 187 187
255 255 255
255 255 255
255 255 255
187 187 187
255 255 255
255 255 255
255 255 255
187 187 187
255 255 255
255 255 255
255 255 255
187 187 187
255 255 255
255 255 255
255 255 255
187 187 187
255 255 255
255 255 255
255 255 255
187 187 187
255 255 255
255 255 255
255 255 255
187 187 187
255 255 255
255 255 255
255 255 255
187 187 187
255 255 255
255 255 255
255 255 255
187 187 187
255 255 255
255 255 255
255 255 255
187 187 187
255 255 255
255 255 255
255 255 255
187 187 187
255 255 255
255 255 255
255 255 255
187 187 187
255 255 255
255 255 255
255 255 255
187 187 187
255 255 255
255 255 255
255 255 255
187 187 187
255 255 255
255 255 255
255 255 255
187 187 187
255 255 255
255 255 255
255 255 255
187 187 187
255 255 255
255 255 255
255 255 255
187 187 187
255 255 255
255 255 255
255 255 255
187 187 187
255 255 255
255 255 255
255 255 255
187 187 187
255 255 255
255 255 255
255 255 255
187 187 187
255 255 255
255 255 255
255 255 255
187 187 187
255 255 255
255 255 255
255 255 255
187 187 187
255 255 255
255 255 255
255 255 255
187 187 187
255 255 255
255 255 255
255 255 255
187 187 187
255 255 255
255 255 255
255 255 255
187 187 187
255 255 255
255 255 255
255 255 255
187 187 187
255 255 255
255 255 255
255 255 255
187 187 187
255 255 255
255 255 255
255 255 255
187 187 187
255 255 255
255 255 255
255 255 255
187 187 187
255 255 255
255 255 255
255 255 255
187 187 187
255 255 255
255 255 255
255 255 255
187 187 187
255 255 255
255 255 255
255 255 255
187 187 187
255 255 255
255 255 255
255 255 255
187 187 187
255 255 255
255 255 255
255 255 255
187 187 187
255 255 255
255 255 255
255 255 255
187 187 187
255 255 255
255 255 255
255 255 255
187 187 187
255 255 255
255 255 255
255 255 255
187 187 187
255 255 255
255 255 255
255 255 255
187 187 187
255 255 255
255 255 255
255 255 255
187 187 187
255 255 255
255 255 255
255 255 255
187 187 187
255 255 255
255 255 255
255 255 255
187 187 187
255 255 255
255 255 255
255 255 255
187 187 187
255 255 255
255 255 255
255 255 255
187 187 187
255 255 255
255 255 255
255 255 255
187 187 187
255 255 255
255 255 255
255 255 255
187 187 187
255 255 255
255 255 255
255 255 255
187 187 187
255 255 255
255 255 255
255 255 255
187 187 187
255 255 255
255 255 255
255 255 255
187 187 187
255 255 255
255 255 255
255 255 255
187 187 187
255 255 255
255 255 255
255 255 255
187 187 187
255 255 255
255 255 255
255 255 255
187 187 187
255 255 255
255 255 255
255 255 255
187 187 187
255 255 255
255 255 255
255 255 255
187 187 187
255 255 255
255 255 255
255 255 255
187 187 187
255 255 255
255 255 255
255 255 255
187 187 187
255 255 255
255 255 255
255 255 255
187 187 187
255 255 255
255 255 255
255 255 255
187 187 187
255 255 255
255 255 255
255 255 255
187 187 187
255 255 255
255 255 255
255 255 255
187 187 187
255 255 255
255 255 255
255 255 255
187 187 187
255 255 255
255 255 255
255 255 255
187 187 187
255 255 255
255 255 255
255 255 255
187 187 187
255 255 255
255 255 255
255 255 255
187 187 187
255 255 255
255 255 255
255 255 255
187 187 187
255 255 255
255 255 255
255 255 255
187 187 187
255 255 255
255 255 255
255 255 255
187 187 187
255 255 255
255 255 255
255 255 255
187 187 187
255 255 255
255 255 255
255 255 255
187 187 187
255 255 255
255 255 255
255 255 255
187 187 187
255 255 255
255 255 255
255 255 255
187 187 187
255 255 255
255 255 255
255 255 255
187 187 187
255 255 255
255 255 255
255 255 255
187 187 187
255 255 255
255 255 255
255 255 255
187 187 187
255 255 255
255 255 255
255 255 255
187 187 187
255 255 255
255 255 255
255 255 255
187 187 187
255 255 255
255 255 255
255 255 255
187 187 187
255 255 255
255 255 255
255 255 255
187 187 187
255 255 255
255 255 255
255 255 255
187 187 187
255 255 255
255 255 255
255 255 255
187 187 187
255 255 255
255 255 255
255 255 255
187 187 187
255 255 255
255 255 255
255 255 255
187 187 187
255 255 255
255 255 255
255 255 255
187 187 187
255 255 255
255 255 255
255 255 255
187 187 187
255 255 255
255 255 255
255 255 255
187 187 187
255 255 255
255 255 255
255 255 255
187 187 187
255 255 255
255 255 255
255 255 255
187 187 187
255 255 255
255 255 255
255 255 255
187 187 187
255 255 255
255 255 255
255 255 255
187 187 187
255 255 255
255 255 255
255 255 255
187 187 187
255 255 255
255 255 255
255 255 255
187 187 187
255 255 255
255 255 255
255 255 255
187 187 187
255 255 255
255 255 255
255 255 255
187 187 187
255 255 255
255 255 255
255 255 255
187 187 187
255 255 255
255 255 255
255 255 255
187 187 187
255 255 255
255 255 255
255 255 255
187 187 187
255 255 255
255 255 255
255 255 255
187 187 187
255 255 255
255 255 255
255 255 255
187 187 187
255 255 255
255 255 255
255 255 255
187 187 187
255 255 255
255 255 255
255 255 255
187 187 187
255 255 255
255 255 255
255 255 255
187 187 187
255 255 255
255 255 255
255 255 255
187 187 187
255 255 255
255 255 255
255 255 255
187 187 187
255 255 255
255 255 255
255 255 255
187 187 187
255 255 255
255 255 255
255 255 255
187 187 187
255 255 255
255 255 255
255 255 255
187 187 187
255 255 255
255 255 255
255 255 255
187 187 187
255 255 255
255 255 255
255 255 255
187 187 187
255 255 255
255 255 255
255 255 255
187 187 187
255 255 255
255 255 255
255 255 255
187 187 187
255 255 255
255 255 255
255 255 255
187 187 187
255 255 255
255 255 255
255 255 255
187 187 187
255 255 255
255 255 255
255 255 255
187 187 187
255 255 255
255 255 255
255 255 255
187 187 187
255 255 255
255 255 255
255 255 255
187 187 187
255 255 255
255 255 255
255 255 255
187 187 187
255 255 255
255 255 255
255 255 255
187 187 187
255 255 255
255 255 255
255 255 255
187 187 187
255 255 255
255 255 255
255 255 255
187 187 187
255 255 255
255 255 255
255 255 255
187 187 187
255 255 255
255 255 255
255 255 255
187 187 187
255 255 255
255 255 255
255 255 255
187 187 187
255 255 255
255 255 255
255 255 255
187 187 187
255 255 255
255 255 255
255 255 255
187 187 187
255 255 255
255 255 255
255 255 255
187 187 187
255 255 255
255 255 255
255 255 255
187 187 187
255 255 255
255 255 255
255 255 255
187 187 187
255 255 255
255 255 255
255 255 255
187 187 187
255 255 255
255 255 255
255 255 255
187 187 187
255 255 255
255 255 255
255 255 255
187 187 187
255 255 255
255 255 255
255 255 255
187 187 187
255 255 255
255 255 255
255 255 255
187 187 187
255 255 255
255 255 255
255 255 255
187 187 187
255 255 255
255 255 255
255 255 255
187 187 187
255 255 255
255 255 255
255 255 255
187 187 187
255 255 255
255 255 255
255 255 255
187 187 187
255 255 255
255 255 255
255 255 255
187 187 187
255 255 255
255 255 255
255 255 255
187 187 187
255 255 255
255 255 255
255 255 255
187 187 187
255 255 255
255 255 255
255 255 255
187 187 187
255 255 255
255 255 255
255 255 255
187 187 187
255 255 255
255 255 255
255 255 255
187 187 187
255 255 255
255 255 255
255 255 255
187 187 187
255 255 255
255 255 255
255 255 255
187 187 187
255 255 255
255 255 255
255 255 255
187 187 187
255 255 255
255 255 255
255 255 255
187 187 187
255 255 255
255 255 255
255 255 255
187 187 187
255 255 255
255 255 255
255 255 255
187 187 187
255 255 255
255 255 255
255 255 255
187 187 187
255 255 255
255 255 255
255 255 255
187 187 187
255 255 255
255 255 255
255 255 255
187 187 187
255 255 255
255 255 255
255 255 255
187 187 187
255 255 255
255 255 255
255 255 255
187 187 187
255 255 255
255 255 255
255 255 255
187 187 187
255 255 255
255 255 255
255 255 255
187 187 187
255 255 255
255 255 255
255 255 255
187 187 187
255 255 255
255 255 255
255 255 255
187 187 187
255 255 255
255 255 255
255 255 255
187 187 187
255 255 255
255 255 255
255 255 255
187 187 187
255 255 255
255 255 255
255 255 255
187 187 187
255 255 255
255 255 255
255 255 255
187 187 187
255 255 255
255 255 255
255 255 255
187 187 187
255 255 255
255 255 255
255 255 255
187 187 187
255 255 255
255 255 255
255 255 255
187 187 187
255 255 255
255 255 255
255 255 255
187 187 187
255 255 255
255 255 255
255 255 255
187 187 187
255 255 255
255 255 255
255 255 255
187 187 187
255 255 255
255 255 255
255 255 255
187 187 187
255 255 255
255 255 255
255 255 255
187 187 187
255 255 255
255 255 255
255 255 255
187 187 187
255 255 255
255 255 255
255 255 255
187 187 187
255 255 255
255 255 255
255 255 255
187 187 187
255 255 255
255 255 255
255 255 255
187 187 187
255 255 255
255 255 255
255 255 255
187 187 187
255 255 255
255 255 255
255 255 255
187 187 187
255 255 255
255 255 255
255 255 255
187 187 187
255 255 255
255 255 255
255 255 255
187 187 187
255 255 255
255 255 255
255 255 255
187 187 187
255 255 255
255 255 255
255 255 255
187 187 187
255 255 255
255 255 255
255 255 255
187 187 187
255 255 255
255 255 255
255 255 255
187 187 187
255 255 255
255 255 255
255 255 255
187 187 187
255 255 255
255 255 255
255 255 255
187 187 187
255 255 255
255 255 255
255 255 255
187 187 187
255 255 255
255 255 255
255 255 255
187 187 187
255 255 255
255 255 255
255 255 255
187 187 187
255 255 255
255 255 255
255 255 255
187 187 187
255 255 255
255 255 255
255 255 255
187 187 187
255 255 255
255 255 255
255 255 255
187 187 187
255 255 255
255 255 255
255 255 255
187 187 187
255 255 255
255 255 255
255 255 255
187 187 187
255 255 255
255 255 255
255 255 255
187 187 187
255 255 255
255 255 255
255 255 255
187 187 187
255 255 255
255 255 255
255 255 255
187 187 187
255 255 255
255 255 255
255 255 255
187 187 187
255 255 255
255 255 255
255 255 255
187 187 187
255 255 255
255 255 255
255 255 255
187 187 187
255 255 255
255 255 255
255 255 255
187 187 187
255 255 255
255 255 255
255 255 255
187 187 187
255 255 255
255 255 255
255 255 255
187 187 187
255 255 255
255 255 255
255 255 255
187 187 187
255 255 255
255 255 255
255 255 255
187 187 187
255 255 255
255 255 255
255 255 255
187 187 187
255 255 255
255 255 255
255 255 255
187 187 187
255 255 255
255 255 255
255 255 255
187 187 187
255 255 255
255 255 255
255 255 255
187 187 187
255 255 255
255 255 255
255 255 255
187 187 187
255 255 255
255 255 255
255 255 255
187 187 187
255 255 255
255 255 255
255 255 255
187 187 187
255 255 255
255 255 255
255 255 255
187 187 187
255 255 255
255 255 255
255 255 255
187 187 187
255 255 255
255 255 255
255 255 255
187 187 187
255 255 255
255 255 255
255 255 255
187 187 187
255 255 255
255 255 255
255 255 255
187 187 187
255 255 255
255 255 255
255 255 255
187 187 187
255 255 255
255 255 255
255 255 255
187 187 187
255 255 255
255 255 255
255 255 255
187 187 187
255 255 255
255 255 255
255 255 255
187 187 187
255 255 255
255 255 255
255 255 255
187 187 187
255 255 255
255 255 255
255 255 255
187 187 187
255 255 255
255 255 255
255 255 255
187 187 187
255 255 255
255 255 255
255 255 255
187 187 187
255 255 255
255 255 255
255 255 255
187 187 187
255 255 255
255 255 255
255 255 255
187 187 187
255 255 255
255 255 255
255 255 255
187 187 187
255 255 255
255 255 255
255 255 255
187 187 187
255 255 255
255 255 255
255 255 255
187 187 187
255 255 255
255 255 255
255 255 255
187 187 187
255 255 255
255 255 255
255 255 255
187 187 187
255 255 255
255 255 255
255 255 255
187 187 187
255 255 255
255 255 255
255 255 255
187 187 187
255 255 255
255 255 255
255 255 255
187 187 187
255 255 255
255 255 255
255 255 255
187 187 187
255 255 255
255 255 255
255 255 255
187 187 187
255 255 255
255 255 255
255 255 255
187 187 187
255 255 255
255 255 255
255 255 255
187 187 187
255 255 255
255 255 255
255 255 255
187 187 187
255 255 255
255 255 255
255 255 255
187 187 187
255 255 255
255 255 255
255 255 255
187 187 187
255 255 255
255 255 255
255 255 255
187 187 187
255 255 255
255 255 255
255 255 255
187 187 187
255 255 255
255 255 255
255 255 255
187 187 187
255 255 255
255 255 255
255 255 255
187 187 187
255 255 255
255 255 255
255 255 255
187 187 187
255 255 255
255 255 255
255 255 255
187 187 187
255 255 255
255 255 255
255 255 255
187 187 187
255 255 255
255 255 255
255 255 255
187 187 187
255 255 255
255 255 255
255 255 255
187 187 187
255 255 255
255 255 255
255 255 255
187 187 187
255 255 255
255 255 255
255 255 255
187 187 187
255 255 255
255 255 255
255 255 255
187 187 187
255 255 255
255 255 255
255 255 255
187 187 187
255 255 255
255 255 255
255 255 255
187 187 187
255 255 255
255 255 255
255 255 255
187 187 187
255 255 255
255 255 255
255 255 255
187 187 187
255 255 255
255 255 255
255 255 255
187 187 187
255 255 255
255 255 255
255 255 255
187 187 187
255 255 255
255 255 255
255 255 255
187 187 187
255 255 255
255 255 255
255 255 255
187 187 187
255 255 255
255 255 255
255 255 255
187 187 187
255 255 255
255 255 255
255 255 255
187 187 187
255 255 255
255 255 255
255 255 255
187 187 187
255 255 255
255 255 255
255 255 255
187 187 187
255 255 255
255 255 255
255 255 255
187 187 187
255 255 255
255 255 255
255 255 255
187 187 187
255 255 255
255 255 255
255 255 255
187 187 187
255 255 255
255 255 255
255 255 255
187 187 187
255 255 255
255 255 255
255 255 255
187 187 187
255 255 255
255 255 255
255 255 255
187 187 187
255 255 255
255 255 255
255 255 255
187 187 187
255 255 255
255 255 255
255 255 255
187 187 187
255 255 255
255 255 255
255 255 255
187 187 187
255 255 255
255 255 255
255 255 255
187 187 187
255 255 255
255 255 255
255 255 255
187 187 187
255 255 255
255 255 255
255 255 255
187 187 187
255 255 255
255 255 255
255 255 255
187 187 187
255 255 255
255 255 255
255 255 255
187 187 187
255 255 255
255 255 255
255 255 255
187 187 187
255 255 255
255 255 255
255 255 255
187 187 187
255 255 255
255 255 255
255 255 255
187 187 187
255 255 255
255 255 255
255 255 255
187 187 187
255 255 255
255 255 255
255 255 255
187 187 187
255 255 255
255 255 255
255 255 255
187 187 187
255 255 255
255 255 255
255 255 255
187 187 187
255 255 255
255 255 255
255 255 255
187 187 187
255 255 255
255 255 255
255 255 255
187 187 187
255 255 255
255 255 255
255 255 255
187 187 187
255 255 255
255 255 255
255 255 255
187 187 187
255 255 255
255 255 255
255 255 255
187 187 187
255 255 255
255 255 255
255 255 255
187 187 187
255 255 255
255 255 255
255 255 255
187 187 187
255 255 255
255 255 255
255 255 255
187 187 187
255 255 255
255 255 255
255 255 255
187 187 187
255 255 255
255 255 255
255 255 255
187 187 187
255 255 255
255 255 255
255 255 255
187 187 187
255 255 255
255 255 255
255 255 255
187 187 187
255 255 255
255 255 255
255 255 255
187 187 187
255 255 255
255 255 255
255 255 255
187 187 187
255 255 255
255 255 255
255 255 255
187 187 187
255 255 255
255 255 255
255 255 255
187 187 187
255 255 255
255 255 255
255 255 255
187 187 187
255 255 255
255 255 255
255 255 255
187 187 187
255 255 255
255 255 255
255 255 255
187 187 187
255 255 255
255 255 255
255 255 255
187 187 187
255 255 255
255 255 255
255 255 255
187 187 187
255 255 255
255 255 255
255 255 255
187 187 187
255 255 255
255 255 255
255 255 255
187 187 187
255 255 255
255 255 255
255 255 255
187 187 187
255 255 255
255 255 255
255 255 255
187 187 187
255 255 255
255 255 255
255 255 255
187 187 187
255 255 255
255 255 255
255 255 255
187 187 187
255 255 255
255 255 255
255 255 255
187 187 187
255 255 255
255 255 255
255 255 255
187 187 187
255 255 255
255 255 255
255 255 255
187 187 187
255 255 255
255 255 255
255 255 255
187 187 187
255 255 255
255 255 255
255 255 255
187 187 187
255 255 255
255 255 255
255 255 255
187 187 187
255 255 255
255 255 255
255 255 255
187 187 187
255 255 255
255 255 255
255 255 255
187 187 187
255 255 255
255 255 255
255 255 255
187 187 187
255 255 255
255 255 255
255 255 255
187 187 187
255 255 255
255 255 255
255 255 255
187 187 187
255 255 255
255 255 255
255 255 255
187 187 187
255 255 255
255 255 255
255 255 255
187 187 187
255 255 255
255 255 255
255 255 255
187 187 187
255 255 255
255 255 255
255 255 255
187 187 187
255 255 255
255 255 255
255 255 255
187 187 187
255 255 255
255 255 255
255 255 255
187 187 187
255 255 255
255 255 255
255 255 255
187 187 187
255 255 255
255 255 255
255 255 255
187 187 187
255 255 255
255 255 255
255 255 255
187 187 187
255 255 255
255 255 255
255 255 255
187 187 187
255 255 255
255 255 255
255 255 255
187 187 187
255 255 255
255 255 255
255 255 255
187 187 187
255 255 255
255 255 255
255 255 255
187 187 187
255 255 255
255 255 255
255 255 255
187 187 187
255 255 255
255 255 255
255 255 255
187 187 187
255 255 255
255 255 255
255 255 255
187 187 187
255 255 255
255 255 255
255 255 255
187 187 187
255 255 255
255 255 255
255 255 255
187 187 187
255 255 255
255 255 255
255 255 255
187 187 187
255 255 255
255 255 255
255 255 255
187 187 187
255 255 255
255 255 255
255 255 255
187 187 187
255 255 255
255 255 255
255 255 255
187 187 187
255 255 255
255 255 255
255 255 255
187 187 187
255 255 255
255 255 255
255 255 255
187 187 187
255 255 255
255 255 255
255 255 255
187 187 187
255 255 255
255 255 255
255 255 255
187 187 187
255 255 255
255 255 255
255 255 255
187 187 187
255 255 255
255 255 255
255 255 255
187 187 187
255 255 255
255 255 255
255 255 255
187 187 187
255 255 255
255 255 255
255 255 255
187 187 187
255 255 255
255 255 255
255 255 255
187 187 187
255 255 255
255 255 255
255 255 255
187 187 187
255 255 255
255 255 255
255 255 255
187 187 187
255 255 255
255 255 255
255 255 255
187 187 187
255 255 255
255 255 255
255 255 255
187 187 187
255 255 255
255 255 255
255 255 255
187 187 187
255 255 255
255 255 255
255 255 255
187 187 187
255 255 255
255 255 255
255 255 255
187 187 187
255 255 255
255 255 255
255 255 255
187 187 187
255 255 255
255 255 255
255 255 255
187 187 187
255 255 255
255 255 255
255 255 255
187 187 187
255 255 255
255 255 255
255 255 255
187 187 187
255 255 255
255 255 255
255 255 255
187 187 187
255 255 255
255 255 255
255 255 255
187 187 187
255 255 255
255 255 255
255 255 255
187 187 187
255 255 255
255 255 255
255 255 255
187 187 187
255 255 255
255 255 255
255 255 255
187 187 187
255 255 255
255 255 255
255 255 255
187 187 187
255 255 255
255 255 255
255 255 255
187 187 187
255 255 255
255 255 255
255 255 255
187 187 187
255 255 255
255 255 255
255 255 255
187 187 187
255 255 255
255 255 255
255 255 255
187 187 187
255 255 255
255 255 255
255 255 255
187 187 187
255 255 255
255 255 255
255 255 255
187 187 187
255 255 255
255 255 255
255 255 255
187 187 187
255 255 255
255 255 255
255 255 255
187 187 187
255 255 255
255 255 255
255 255 255
187 187 187
255 255 255
255 255 255
255 255 255
187 187 187
255 255 255
255 255 255
255 255 255
187 187 187
255 255 255
255 255 255
255 255 255
187 187 187
255 255 255
255 255 255
255 255 255
187 187 187
255 255 255
255 255 255
255 255 255
187 187 187
255 255 255
255 255 255
255 255 255
187 187 187
255 255 255
255 255 255
255 255 255
187 187 187
255 255 255
255 255 255
255 255 255
187 187 187
255 255 255
255 255 255
255 255 255
187 187 187
255 255 255
255 255 255
255 255 255
187 187 187
255 255 255
255 255 255
255 255 255
187 187 187
255 255 255
255 255 255
255 255 255
187 187 187
255 255 255
255 255 255
255 255 255
187 187 187
255 255 255
255 255 255
255 255 255
187 187 187
255 255 255
255 255 255
255 255 255
187 187 187
255 255 255
255 255 255
255 255 255
187 187 187
255 255 255
255 255 255
255 255 255
187 187 187
255 255 255
255 255 255
255 255 255
187 187 187
255 255 255
255 255 255
255 255 255
187 187 187
255 255 255
255 255 255
255 255 255
187 187 187
255 255 255
255 255 255
255 255 255
187 187 187
255 255 255
255 255 255
255 255 255
187 187 187
255 255 255
255 255 255
255 255 255
187 187 187
255 255 255
255 255 255
255 255 255
187 187 187
255 255 255
255 255 255
255 255 255
187 187 187
255 255 255
255 255 255
255 255 255
187 187 187
255 255 255
255 255 255
255 255 255
187 187 187
255 255 255
255 255 255
255 255 255
187 187 187
255 255 255
255 255 255
255 255 255
187 187 187
255 255 255
255 255 255
255 255 255
187 187 187
255 255 255
255 255 255
255 255 255
187 187 187
255 255 255
255 255 255
255 255 255
187 187 187
255 255 255
255 255 255
255 255 255
187 187 187
255 255 255
255 255 255
255 255 255
187 187 187
255 255 255
255 255 255
255 255 255
187 187 187
255 255 255
255 255 255
255 255 255
187 187 187
255 255 255
255 255 255
255 255 255
187 187 187
255 255 255
255 255 255
255 255 255
187 187 187
255 255 255
255 255 255
255 255 255
187 187 187
255 255 255
255 255 255
255 255 255
187 187 187
255 255 255
255 255 255
255 255 255
187 187 187
255 255 255
255 255 255
255 255 255
187 187 187
255 255 255
255 255 255
255 255 255
187 187 187
255 255 255
255 255 255
255 255 255
187 187 187
255 255 255
255 255 255
255 255 255
187 187 187
255 255 255
255 255 255
255 255 255
187 187 187
255 255 255
255 255 255
255 255 255
187 187 187
255 255 255
255 255 255
255 255 255
187 187 187
255 255 255
255 255 255
255 255 255
187 187 187
255 255 255
255 255 255
255 255 255
187 187 187
255 255 255
255 255 255
255 255 255
187 187 187
255 255 255
255 255 255
255 255 255
187 187 187
255 255 255
255 255 255
255 255 255
187 187 187
255 255 255
255 255 255
255 255 255
187 187 187
255 255 255
255 255 255
255 255 255
187 187 187
255 255 255
255 255 255
255 255 255
187 187 187
255 255 255
255 255 255
255 255 255
187 187 187
255 255 255
255 255 255
255 255 255
187 187 187
255 255 255
255 255 255
255 255 255
187 187 187
255 255 255
255 255 255
255 255 255
187 187 187
255 255 255
255 255 255
255 255 255
187 187 187
255 255 255
255 255 255
255 255 255
187 187 187
255 255 255
255 255 255
255 255 255
187 187 187
255 255 255
255 255 255
255 255 255
187 187 187
255 255 255
255 255 255
255 255 255
187 187 187
255 255 255
255 255 255
255 255 255
187 187 187
255 255 255
255 255 255
255 255 255
187 187 187
255 255 255
255 255 255
255 255 255
187 187 187
255 255 255
255 255 255
255 255 255
187 187 187
255 255 255
255 255 255
255 255 255
187 187 187
255 255 255
255 255 255
255 255 255
187 187 187
255 255 255
255 255 255
255 255 255
187 187 187
255 255 255
255 255 255
255 255 255
187 187 187
255 255 255
255 255 255
255 255 255
187 187 187
255 255 255
255 255 255
255 255 255
187 187 187
255 255 255
255 255 255
255 255 255
187 187 187
255 255 255
255 255 255
255 255 255
187 187 187
255 255 255
255 255 255
255 255 255
187 187 187
255 255 255
255 255 255
255 255 255
187 187 187
255 255 255
255 255 255
255 255 255
187 187 187
255 255 255
255 255 255
255 255 255
187 187 187
255 255 255
255 255 255
255 255 255
187 187 187
255 255 255
255 255 255
255 255 255
187 187 187
255 255 255
255 255 255
255 255 255
187 187 187
255 255 255
255 255 255
255 255 255
187 187 187
255 255 255
255 255 255
255 255 255
187 187 187
255 255 255
255 255 255
255 255 255
187 187 187
255 255 255
255 255 255
255 255 255
187 187 187
255 255 255
255 255 255
255 255 255
187 187 187
255 255 255
255 255 255
255 255 255
187 187 187
255 255 255
255 255 255
255 255 255
187 187 187
255 255 255
255 255 255
255 255 255
187 187 187
255 255 255
255 255 255
255 255 255
187 187 187
255 255 255
255 255 255
255 255 255
187 187 187
255 255 255
255 255 255
255 255 255
187 187 187
255 255 255
255 255 255
255 255 255
187 187 187
255 255 255
255 255 255
255 255 255
187 187 187
255 255 255
255 255 255
255 255 255
187 187 187
255 255 255
255 255 255
255 255 255
187 187 187
255 255 255
255 255 255
255 255 255
187 187 187
255 255 255
255 255 255
255 255 255
187 187 187
255 255 255
255 255 255
255 255 255
187 187 187
255 255 255
255 255 255
255 255 255
187 187 187
255 255 255
255 255 255
255 255 255
187 187 187
255 255 255
255 255 255
255 255 255
187 187 187
255 255 255
255 255 255
255 255 255
187 187 187
255 255 255
255 255 255
255 255 255
187 187 187
255 255 255
255 255 255
255 255 255
187 187 187
255 255 255
255 255 255
255 255 255
187 187 187
255 255 255
255 255 255
255 255 255
187 187 187
255 255 255
255 255 255
255 255 255
187 187 187
255 255 255
255 255 255
255 255 255
187 187 187
255 255 255
255 255 255
255 255 255
187 187 187
255 255 255
255 255 255
255 255 255
187 187 187
255 255 255
255 255 255
255 255 255
187 187 187
255 255 255
255 255 255
255 255 255
187 187 187
255 255 255
255 255 255
255 255 255
187 187 187
255 255 255
255 255 255
255 255 255
187 187 187
255 255 255
255 255 255
255 255 255
187 187 187
255 255 255
255 255 255
255 255 255
187 187 187
255 255 255
255 255 255
255 255 255
187 187 187
255 255 255
255 255 255
255 255 255
187 187 187
255 255 255
255 255 255
255 255 255
187 187 187
255 255 255
255 255 255
255 255 255
187 187 187
255 255 255
255 255 255
255 255 255
187 187 187
255 255 255
255 255 255
255 255 255
187 187 187
255 255 255
255 255 255
255 255 255
187 187 187
255 255 255
255 255 255
255 255 255
187 187 187
255 255 255
255 255 255
255 255 255
187 187 187
255 255 255
255 255 255
255 255 255
187 187 187
255 255 255
255 255 255
255 255 255
187 187 187
255 255 255
255 255 255
255 255 255
187 187 187
255 255 255
255 255 255
255 255 255
187 187 187
255 255 255
255 255 255
255 255 255
187 187 187
255 255 255
255 255 255
255 255 255
187 187 187
255 255 255
255 255 255
255 255 255
187 187 187
255 255 255
255 255 255
255 255 255
187 187 187
255 255 255
255 255 255
255 255 255
187 187 187
255 255 255
255 255 255
255 255 255
187 187 187
255 255 255
255 255 255
255 255 255
187 187 187
255 255 255
255 255 255
255 255 255
187 187 187
255 255 255
255 255 255
255 255 255
187 187 187
255 255 255
255 255 255
255 255 255
187 187 187
255 255 255
255 255 255
255 255 255
187 187 187
255 255 255
255 255 255
255 255 255
187 187 187
255 255 255
255 255 255
255 255 255
187 187 187
255 255 255
255 255 255
255 255 255
187 187 187
255 255 255
255 255 255
255 255 255
187 187 187
255 255 255
255 255 255
255 255 255
187 187 187
255 255 255
255 255 255
255 255 255
187 187 187
255 255 255
255 255 255
255 255 255
187 187 187
255 255 255
255 255 255
255 255 255
187 187 187
255 255 255
255 255 255
255 255 255
187 187 187
255 255 255
255 255 255
255 255 255
187 187 187
255 255 255
255 255 255
255 255 255
187 187 187
255 255 255
255 255 255
255 255 255
187 187 187
255 255 255
255 255 255
255 255 255
187 187 187
255 255 255
255 255 255
255 255 255
187 187 187
255 255 255
255 255 255
255 255 255
187 187 187
255 255 255
255 255 255
255 255 255
187 187 187
255 255 255
255 255 255
255 255 255
187 187 187
255 255 255
255 255 255
255 255 255
187 187 187
255 255 255
255 255 255
255 255 255
187 187 187
255 255 255
255 255 255
255 255 255
187 187 187
255 255 255
255 255 255
255 255 255
187 187 187
255 255 255
255 255 255
255 255 255
187 187 187
255 255 255
255 255 255
255 255 255
187 187 187
255 255 255
255 255 255
255 255 255
187 187 187
255 255 255
255 255 255
255 255 255
187 187 187
255 255 255
255 255 255
255 255 255
187 187 187
255 255 255
255 255 255
255 255 255
187 187 187
255 255 255
255 255 255
255 255 255
187 187 187
255 255 255
255 255 255
255 255 255
187 187 187
255 255 255
255 255 255
255 255 255
187 187 187
255 255 255
255 255 255
255 255 255
187 187 187
255 255 255
255 255 255
255 255 255
187 187 187
255 255 255
255 255 255
255 255 255
187 187 187
255 255 255
255 255 255
255 255 255
187 187 187
255 255 255
255 255 255
255 255 255
187 187 187
255 255 255
255 255 255
255 255 255
187 187 187
255 255 255
255 255 255
255 255 255
187 187 187
255 255 255
255 255 255
255 255 255
187 187 187
255 255 255
255 255 255
255 255 255
187 187 187
255 255 255
255 255 255
255 255 255
187 187 187
255 255 255
255 255 255
255 255 255
187 187 187
255 255 255
255 255 255
255 255 255
187 187 187
255 255 255
255 255 255
255 255 255
187 187 187
255 255 255
255 255 255
255 255 255
187 187 187
255 255 255
255 255 255
255 255 255
187 187 187
255 255 255
255 255 255
255 255 255
187 187 187
255 255 255
255 255 255
255 255 255
187 187 187
255 255 255
255 255 255
255 255 255
187 187 187
255 255 255
255 255 255
255 255 255
187 187 187
255 255 255
255 255 255
255 255 255
187 187 187
255 255 255
255 255 255
255 255 255
187 187 187
255 255 255
255 255 255
255 255 255
187 187 187
255 255 255
255 255 255
255 255 255
187 187 187
255 255 255
255 255 255
255 255 255
187 187 187
255 255 255
255 255 255
255 255 255
187 187 187
255 255 255
255 255 255
255 255 255
187 187 187
255 255 255
255 255 255
255 255 255
187 187 187
255 255 255
255 255 255
255 255 255
187 187 187
255 255 255
255 255 255
255 255 255
187 187 187
255 255 255
255 255 255
255 255 255
187 187 187
255 255 255
255 255 255
255 255 255
187 187 187
255 255 255
255 255 255
255 255 255
187 187 187
255 255 255
255 255 255
255 255 255
187 187 187
255 255 255
255 255 255
255 255 255
187 187 187
255 255 255
255 255 255
255 255 255
187 187 187
255 255 255
255 255 255
255 255 255
187 187 187
255 255 255
255 255 255
255 255 255
187 187 187
255 255 255
255 255 255
255 255 255
187 187 187
255 255 255
255 255 255
255 255 255
187 187 187
255 255 255
255 255 255
255 255 255
187 187 187
255 255 255
255 255 255
255 255 255
187 187 187
255 255 255
255 255 255
255 255 255
187 187 187
255 255 255
255 255 255
255 255 255
187 187 187
255 255 255
255 255 255
255 255 255
187 187 187
255 255 255
255 255 255
255 255 255
187 187 187
255 255 255
255 255 255
255 255 255
187 187 187
255 255 255
255 255 255
255 255 255
187 187 187
255 255 255
255 255 255
255 255 255
187 187 187
255 255 255
255 255 255
255 255 255
187 187 187
255 255 255
255 255 255
255 255 255
187 187 187
255 255 255
255 255 255
255 255 255
187 187 187
255 255 255
255 255 255
255 255 255
187 187 187
255 255 255
255 255 255
255 255 255
187 187 187
255 255 255
255 255 255
255 255 255
187 187 187
255 255 255
255 255 255
255 255 255
187 187 187
255 255 255
255 255 255
255 255 255
187 187 187
255 255 255
255 255 255
255 255 255
187 187 187
255 255 255
255 255 255
255 255 255
187 187 187
255 255 255
255 255 255
255 255 255
187 187 187
255 255 255
255 255 255
255 255 255
187 187 187
255 255 255
255 255 255
255 255 255
187 187 187
255 255 255
255 255 255
255 255 255
187 187 187
255 255 255
255 255 255
255 255 255
187 187 187
255 255 255
255 255 255
255 255 255
187 187 187
255 255 255
255 255 255
255 255 255
187 187 187
255 255 255
255 255 255
255 255 255
187 187 187
255 255 255
255 255 255
255 255 255
187 187 187
255 255 255
255 255 255
255 255 255
187 187 187
255 255 255
255 255 255
255 255 255
187 187 187
255 255 255
255 255 255
255 255 255
187 187 187
255 255 255
255 255 255
255 255 255
187 187 187
255 255 255
255 255 255
255 255 255
187 187 187
255 255 255
255 255 255
255 255 255
187 187 187
255 255 255
255 255 255
255 255 255
187 187 187
255 255 255
255 255 255
255 255 255
187 187 187
255 255 255
255 255 255
255 255 255
187 187 187
255 255 255
255 255 255
255 255 255
187 187 187
255 255 255
255 255 255
255 255 255
187 187 187
255 255 255
255 255 255
255 255 255
187 187 187
255 255 255
255 255 255
255 255 255
187 187 187
255 255 255
255 255 255
255 255 255
187 187 187
255 255 255
255 255 255
255 255 255
187 187 187
255 255 255
255 255 255
255 255 255
187 187 187
255 255 255
255 255 255
255 255 255
187 187 187
255 255 255
255 255 255
255 255 255
187 187 187
255 255 255
255 255 255
255 255 255
187 187 187
255 255 255
255 255 255
255 255 255
187 187 187
255 255 255
255 255 255
255 255 255
187 187 187
255 255 255
255 255 255
255 255 255
187 187 187
255 255 255
255 255 255
255 255 255
187 187 187
255 255 255
255 255 255
255 255 255
187 187 187
255 255 255
255 255 255
255 255 255
187 187 187
255 255 255
255 255 255
255 255 255
187 187 187
255 255 255
255 255 255
255 255 255
187 187 187
255 255 255
255 255 255
255 255 255
187 187 187
255 255 255
255 255 255
255 255 255
187 187 187
255 255 255
255 255 255
255 255 255
187 187 187
255 255 255
255 255 255
255 255 255
187 187 187
255 255 255
255 255 255
255 255 255
187 187 187
255 255 255
255 255 255
255 255 255
187 187 187
255 255 255
255 255 255
255 255 255
187 187 187
255 255 255
255 255 255
255 255 255
187 187 187
255 255 255
255 255 255
255 255 255
187 187 187
255 255 255
255 255 255
255 255 255
187 187 187
255 255 255
255 255 255
255 255 255
187 187 187
255 255 255
255 255 255
255 255 255
187 187 187
255 255 255
255 255 255
255 255 255
187 187 187
255 255 255
255 255 255
255 255 255
187 187 187
255 255 255
255 255 255
255 255 255
187 187 187
255 255 255
255 255 255
255 255 255
187 187 187
255 255 255
255 255 255
255 255 255
187 187 187
255 255 255
255 255 255
255 255 255
187 187 187
255 255 255
255 255 255
255 255 255
187 187 187
255 255 255
255 255 255
255 255 255
187 187 187
255 255 255
255 255 255
255 255 255
187 187 187
255 255 255
255 255 255
255 255 255
187 187 187
255 255 255
255 255 255
255 255 255
187 187 187
255 255 255
255 255 255
255 255 255
187 187 187
255 255 255
255 255 255
255 255 255
187 187 187
255 255 255
255 255 255
255 255 255
187 187 187
255 255 255
255 255 255
255 255 255
187 187 187
255 255 255
255 255 255
255 255 255
187 187 187
255 255 255
255 255 255
255 255 255
187 187 187
255 255 255
255 255 255
255 255 255
187 187 187
255 255 255
255 255 255
255 255 255
187 187 187
255 255 255
255 255 255
255 255 255
187 187 187
255 255 255
255 255 255
255 255 255
187 187 187
255 255 255
255 255 255
255 255 255
187 187 187
255 255 255
255 255 255
255 255 255
187 187 187
255 255 255
255 255 255
255 255 255
187 187 187
255 255 255
255 255 255
255 255 255
187 187 187
255 255 255
255 255 255
255 255 255
187 187 187
255 255 255
255 255 255
255 255 255
187 187 187
255 255 255
255 255 255
255 255 255
187 187 187
255 255 255
255 255 255
255 255 255
187 187 187
255 255 255
255 255 255
255 255 255
187 187 187
255 255 255
255 255 255
255 255 255
187 187 187
255 255 255
255 255 255
255 255 255
187 187 187
255 255 255
255 255 255
255 255 255
187 187 187
255 255 255
255 255 255
255 255 255
187 187 187
255 255 255
255 255 255
255 255 255
187 187 187
255 255 255
255 255 255
255 255 255
187 187 187
255 255 255
255 255 255
255 255 255
187 187 187
255 255 255
255 255 255
255 255 255
187 187 187
255 255 255
255 255 255
255 255 255
187 187 187
255 255 255
255 255 255
255 255 255
187 187 187
255 255 255
255 255 255
255 255 255
187 187 187
255 255 255
255 255 255
255 255 255
187 187 187
255 255 255
255 255 255
255 255 255
187 187 187
255 255 255
255 255 255
255 255 255
187 187 187
255 255 255
255 255 255
255 255 255
187 187 187
255 255 255
255 255 255
255 255 255
187 187 187
255 255 255
255 255 255
255 255 255
187 187 187
255 255 255
255 255 255
255 255 255
187 187 187
255 255 255
255 255 255
255 255 255
187 187 187
255 255 255
255 255 255
255 255 255
187 187 187
255 255 255
255 255 255
255 255 255
187 187 187
255 255 255
255 255 255
255 255 255
187 187 187
255 255 255
255 255 255
255 255 255
187 187 187
255 255 255
255 255 255
255 255 255
187 187 187
255 255 255
255 255 255
255 255 255
187 187 187
255 255 255
255 255 255
255 255 255
187 187 187
255 255 255
255 255 255
255 255 255
187 187 187
255 255 255
255 255 255
255 255 255
187 187 187
255 255 255
255 255 255
255 255 255
187 187 187
255 255 255
255 255 255
255 255 255
187 187 187
255 255 255
255 255 255
255 255 255
187 187 187
255 255 255
255 255 255
255 255 255
187 187 187
255 255 255
255 255 255
255 255 255
187 187 187
255 255 255
255 255 255
255 255 255
187 187 187
255 255 255
255 255 255
255 255 255
187 187 187
255 255 255
255 255 255
255 255 255
187 187 187
255 255 255
255 255 255
255 255 255
187 187 187
255 255 255
255 255 255
255 255 255
187 187 187
255 255 255
255 255 255
255 255 255
187 187 187
255 255 255
255 255 255
255 255 255
187 187 187
255 255 255
255 255 255
255 255 255
187 187 187
255 255 255
255 255 255
255 255 255
187 187 187
255 255 255
255 255 255
255 255 255
187 187 187
255 255 255
255 255 255
255 255 255
187 187 187
255 255 255
255 255 255
255 255 255
187 187 187
255 255 255
255 255 255
255 255 255
187 187 187
255 255 255
255 255 255
255 255 255
187 187 187
255 255 255
255 255 255
255 255 255
187 187 187
255 255 255
255 255 255
255 255 255
187 187 187
255 255 255
255 255 255
255 255 255
187 187 187
255 255 255
255 255 255
255 255 255
187 187 187
255 255 255
255 255 255
255 255 255
187 187 187
255 255 255
255 255 255
255 255 255
187 187 187
255 255 255
255 255 255
255 255 255
187 187 187
255 255 255
255 255 255
255 255 255
187 187 187
255 255 255
255 255 255
255 255 255
187 187 187
255 255 255
255 255 255
255 255 255
187 187 187
255 255 255
255 255 255
255 255 255
187 187 187
255 255 255
255 255 255
255 255 255
187 187 187
255 255 255
255 255 255
255 255 255
187 187 187
255 255 255
255 255 255
255 255 255
187 187 187
255 255 255
255 255 255
255 255 255
187 187 187
255 255 255
255 255 255
255 255 255
187 187 187
255 255 255
255 255 255
255 255 255
187 187 187
255 255 255
255 255 255
255 255 255
187 187 187
255 255 255
255 255 255
255 255 255
187 187 187
255 255 255
255 255 255
255 255 255
187 187 187
255 255 255
255 255 255
255 255 255
187 187 187
255 255 255
255 255 255
255 255 255
187 187 187
255 255 255
255 255 255
255 255 255
187 187 187
255 255 255
255 255 255
255 255 255
187 187 187
255 255 255
255 255 255
255 255 255
187 187 187
255 255 255
255 255 255
255 255 255
187 187 187
255 255 255
255 255 255
255 255 255
187 187 187
255 255 255
255 255 255
255 255 255
187 187 187
255 255 255
255 255 255
255 255 255
187 187 187
255 255 255
255 255 255
255 255 255
187 187 187
255 255 255
255 255 255
255 255 255
187 187 187
255 255 255
255 255 255
255 255 255
187 187 187
255 255 255
255 255 255
255 255 255
187 187 187
255 255 255
255 255 255
255 255 255
187 187 187
255 255 255
255 255 255
255 255 255
187 187 187
255 255 255
255 255 255
255 255 255
187 187 187
255 255 255
255 255 255
255 255 255
187 187 187
255 255 255
255 255 255
255 255 255
187 187 187
255 255 255
255 255 255
255 255 255
187 187 187
255 255 255
255 255 255
255 255 255
187 187 187
255 255 255
255 255 255
255 255 255
187 187 187
255 255 255
255 255 255
255 255 255
187 187 187
255 255 255
255 255 255
255 255 255
187 187 187
255 255 255
255 255 255
255 255 255
187 187 187
255 255 255
255 255 255
255 255 255
187 187 187
255 255 255
255 255 255
255 255 255
187 187 187
255 255 255
255 255 255
255 255 255
187 187 187
255 255 255
255 255 255
255 255 255
187 187 187
255 255 255
255 255 255
255 255 255
187 187 187
255 255 255
255 255 255
255 255 255
187 187 187
255 255 255
255 255 255
255 255 255
187 187 187
255 255 255
255 255 255
255 255 255
187 187 187
255 255 255
255 255 255
255 255 255
187 187 187
255 255 255
255 255 255
255 255 255
187 187 187
255 255 255
255 255 255
255 255 255
187 187 187
255 255 255
255 255 255
255 255 255
187 187 187
255 255 255
255 255 255
255 255 255
187 187 187
255 255 255
255 255 255
255 255 255
187 187 187
255 255 255
255 255 255
255 255 255
187 187 187
255 255 255
255 255 255
255 255 255
187 187 187
255 255 255
255 255 255
255 255 255
187 187 187
255 255 255
255 255 255
255 255 255
187 187 187
255 255 255
255 255 255
255 255 255
187 187 187
255 255 255
255 255 255
255 255 255
187 187 187
255 255 255
255 255 255
255 255 255
187 187 187
255 255 255
255 255 255
255 255 255
187 187 187
255 255 255
255 255 255
255 255 255
187 187 187
255 255 255
255 255 255
255 255 255
187 187 187
255 255 255
255 255 255
255 255 255
187 187 187
255 255 255
255 255 255
255 255 255
187 187 187
255 255 255
255 255 255
255 255 255
187 187 187
255 255 255
255 255 255
255 255 255
187 187 187
255 255 255
255 255 255
255 255 255
187 187 187
255 255 255
255 255 255
255 255 255
187 187 187
255 255 255
255 255 255
255 255 255
187 187 187
255 255 255
255 255 255
255 255 255
187 187 187
255 255 255
255 255 255
255 255 255
187 187 187
255 255 255
255 255 255
255 255 255
187 187 187
255 255 255
255 255 255
255 255 255
187 187 187
255 255 255
255 255 255
255 255 255
187 187 187
255 255 255
255 255 255
255 255 255
187 187 187
255 255 255
255 255 255
255 255 255
187 187 187
255 255 255
255 255 255
255 255 255
187 187 187
255 255 255
255 255 255
255 255 255
187 187 187
255 255 255
255 255 255
255 255 255
187 187 187
255 255 255
255 255 255
255 255 255
187 187 187
255 255 255
255 255 255
255 255 255
187 187 187
255 255 255
255 255 255
255 255 255
187 187 187
255 255 255
255 255 255
255 255 255
187 187 187
255 255 255
255 255 255
255 255 255
187 187 187
255 255 255
255 255 255
255 255 255
187 187 187
255 255 255
255 255 255
255 255 255
187 187 187
255 255 255
255 255 255
255 255 255
187 187 187
255 255 255
255 255 255
255 255 255
187 187 187
255 255 255
255 255 255
255 255 255
187 187 187
255 255 255
255 255 255
255 255 255
187 187 187
255 255 255
255 255 255
255 255 255
187 187 187
255 255 255
255 255 255
255 255 255
187 187 187
255 255 255
255 255 255
255 255 255
187 187 187
255 255 255
255 255 255
255 255 255
187 187 187
255 255 255
255 255 255
255 255 255
187 187 187
255 255 255
255 255 255
255 255 255
187 187 187
255 255 255
255 255 255
255 255 255
187 187 187
255 255 255
255 255 255
255 255 255
187 187 187
255 255 255
255 255 255
255 255 255
187 187 187
255 255 255
255 255 255
255 255 255
187 187 187
255 255 255
255 255 255
255 255 255
187 187 187
255 255 255
255 255 255
255 255 255
187 187 187
255 255 255
255 255 255
255 255 255
187 187 187
255 255 255
255 255 255
255 255 255
187 187 187
255 255 255
255 255 255
255 255 255
187 187 187
255 255 255
255 255 255
255 255 255
187 187 187
255 255 255
255 255 255
255 255 255
187 187 187
255 255 255
255 255 255
255 255 255
187 187 187
255 255 255
255 255 255
255 255 255
187 187 187
255 255 255
255 255 255
255 255 255
187 187 187
255 255 255
255 255 255
255 255 255
187 187 187
255 255 255
255 255 255
255 255 255
187 187 187
255 255 255
255 255 255
255 255 255
187 187 187
255 255 255
255 255 255
255 255 255
187 187 187
255 255 255
255 255 255
255 255 255
187 187 187
255 255 255
255 255 255
255 255 255
187 187 187
255 255 255
255 255 255
255 255 255
187 187 187
255 255 255
255 255 255
255 255 255
187 187 187
255 255 255
255 255 255
255 255 255
187 187 187
255 255 255
255 255 255
255 255 255
187 187 187
255 255 255
255 255 255
255 255 255
187 187 187
255 255 255
255 255 255
255 255 255
187 187 187
255 255 255
255 255 255
255 255 255
187 187 187
255 255 255
255 255 255
255 255 255
187 187 187
255 255 255
255 255 255
255 255 255
187 187 187
255 255 255
255 255 255
255 255 255
187 187 187
255 255 255
255 255 255
255 255 255
187 187 187
255 255 255
255 255 255
255 255 255
187 187 187
255 255 255
255 255 255
255 255 255
187 187 187
255 255 255
255 255 255
255 255 255
187 187 187
255 255 255
255 255 255
255 255 255
187 187 187
255 255 255
255 255 255
255 255 255
187 187 187
255 255 255
255 255 255
255 255 255
187 187 187
255 255 255
255 255 255
255 255 255
187 187 187
255 255 255
255 255 255
255 255 255
187 187 187
255 255 255
255 255 255
255 255 255
187 187 187
255 255 255
255 255 255
255 255 255
187 187 187
255 255 255
255 255 255
255 255 255
187 187 187
255 255 255
255 255 255
255 255 255
187 187 187
255 255 255
255 255 255
255 255 255
187 187 187
255 255 255
255 255 255
255 255 255
187 187 187
255 255 255
255 255 255
255 255 255
187 187 187
255 255 255
255 255 255
255 255 255
187 187 187
255 255 255
255 255 255
255 255 255
187 187 187
255 255 255
255 255 255
255 255 255
187 187 187
255 255 255
255 255 255
255 255 255
187 187 187
255 255 255
255 255 255
255 255 255
187 187 187
255 255 255
255 255 255
255 255 255
187 187 187
255 255 255
255 255 255
255 255 255
187 187 187
255 255 255
255 255 255
255 255 255
187 187 187
255 255 255
255 255 255
255 255 255
187 187 187
255 255 255
255 255 255
255 255 255
187 187 187
255 255 255
255 255 255
255 255 255
187 187 187
255 255 255
255 255 255
255 255 255
187 187 187
255 255 255
255 255 255
255 255 255
187 187 187
255 255 255
255 255 255
255 255 255
187 187 187
255 255 255
255 255 255
255 255 255
187 187 187
255 255 255
255 255 255
255 255 255
187 187 187
255 255 255
255 255 255
255 255 255
187 187 187
255 255 255
255 255 255
255 255 255
187 187 187
255 255 255
255 255 255
255 255 255
187 187 187
255 255 255
255 255 255
255 255 255
187 187 187
255 255 255
255 255 255
255 255 255
187 187 187
255 255 255
255 255 255
255 255 255
187 187 187
255 255 255
255 255 255
255 255 255
187 187 187
255 255 255
255 255 255
255 255 255
187 187 187
255 255 255
255 255 255
255 255 255
187 187 187
255 255 255
255 255 255
255 255 255
187 187 187
255 255 255
255 255 255
255 255 255
187 187 187
255 255 255
255 255 255
255 255 255
187 187 187
255 255 255
255 255 255
255 255 255
187 187 187
255 255 255
255 255 255
255 255 255
187 187 187
255 255 255
255 255 255
255 255 255
187 187 187
255 255 255
255 255 255
255 255 255
187 187 187
255 255 255
255 255 255
255 255 255
187 187 187
255 255 255
255 255 255
255 255 255
187 187 187
255 255 255
255 255 255
255 255 255
187 187 187
255 255 255
255 255 255
255 255 255
187 187 187
255 255 255
255 255 255
255 255 255
187 187 187
255 255 255
255 255 255
255 255 255
187 187 187
255 255 255
255 255 255
255 255 255
187 187 187
255 255 255
255 255 255
255 255 255
187 187 187
255 255 255
255 255 255
255 255 255
187 187 187
255 255 255
255 255 255
255 255 255
187 187 187
255 255 255
255 255 255
255 255 255
187 187 187
255 255 255
255 255 255
255 255 255
187 187 187
255 255 255
255 255 255
255 255 255
187 187 187
255 255 255
255 255 255
255 255 255
187 187 187
255 255 255
255 255 255
255 255 255
187 187 187
255 255 255
255 255 255
255 255 255
187 187 187
255 255 255
255 255 255
255 255 255
187 187 187
255 255 255
255 255 255
255 255 255
187 187 187
255 255 255
255 255 255
255 255 255
187 187 187
255 255 255
255 255 255
255 255 255
187 187 187
255 255 255
255 255 255
255 255 255
187 187 187
255 255 255
255 255 255
255 255 255
187 187 187
255 255 255
255 255 255
255 255 255
187 187 187
255 255 255
255 255 255
255 255 255
187 187 187
255 255 255
255 255 255
255 255 255
187 187 187
255 255 255
255 255 255
255 255 255
187 187 187
255 255 255
255 255 255
255 255 255
187 187 187
255 255 255
255 255 255
255 255 255
187 187 187
255 255 255
255 255 255
255 255 255
187 187 187
255 255 255
255 255 255
255 255 255
187 187 187
255 255 255
255 255 255
255 255 255
187 187 187
255 255 255
255 255 255
255 255 255
187 187 187
255 255 255
255 255 255
255 255 255
187 187 187
255 255 255
255 255 255
255 255 255
187 187 187
255 255 255
255 255 255
255 255 255
187 187 187
255 255 255
255 255 255
255 255 255
187 187 187
255 255 255
255 255 255
255 255 255
187 187 187
255 255 255
255 255 255
255 255 255
187 187 187
255 255 255
255 255 255
255 255 255
187 187 187
255 255 255
255 255 255
255 255 255
187 187 187
255 255 255
255 255 255
255 255 255
187 187 187
255 255 255
255 255 255
255 255 255
187 187 187
255 255 255
255 255 255
255 255 255
187 187 187
255 255 255
255 255 255
255 255 255
187 187 187
255 255 255
255 255 255
255 255 255
187 187 187
255 255 255
255 255 255
255 255 255
187 187 187
255 255 255
255 255 255
255 255 255
187 187 187
255 255 255
255 255 255
255 255 255
187 187 187
255 255 255
255 255 255
255 255 255
187 187 187
255 255 255
255 255 255
255 255 255
187 187 187
255 255 255
255 255 255
255 255 255
187 187 187
255 255 255
255 255 255
255 255 255
187 187 187
255 255 255
255 255 255
255 255 255
187 187 187
255 255 255
255 255 255
255 255 255
187 187 187
255 255 255
255 255 255
255 255 255
187 187 187
255 255 255
255 255 255
255 255 255
187 187 187
255 255 255
255 255 255
255 255 255
187 187 187
255 255 255
255 255 255
255 255 255
187 187 187
255 255 255
255 255 255
255 255 255
187 187 187
255 255 255
255 255 255
255 255 255
187 187 187
255 255 255
255 255 255
255 255 255
187 187 187
255 255 255
255 255 255
255 255 255
187 187 187
255 255 255
255 255 255
255 255 255
187 187 187
255 255 255
255 255 255
255 255 255
187 187 187
255 255 255
255 255 255
255 255 255
187 187 187
255 255 255
255 255 255
255 255 255
187 187 187
255 255 255
255 255 255
255 255 255
187 187 187
255 255 255
255 255 255
255 255 255
187 187 187
255 255 255
255 255 255
255 255 255
187 187 187
255 255 255
255 255 255
255 255 255
187 187 187
255 255 255
255 255 255
255 255 255
187 187 187
255 255 255
255 255 255
255 255 255
187 187 187
255 255 255
255 255 255
255 255 255
187 187 187
255 255 255
255 255 255
255 255 255
187 187 187
255 255 255
255 255 255
255 255 255
187 187 187
255 255 255
255 255 255
255 255 255
187 187 187
255 255 255
255 255 255
255 255 255
187 187 187
255 255 255
255 255 255
255 255 255
187 187 187
255 255 255
255 255 255
255 255 255
187 187 187
255 255 255
255 255 255
255 255 255
187 187 187
255 255 255
255 255 255
255 255 255
187 187 187
255 255 255
255 255 255
255 255 255
187 187 187
255 255 255
255 255 255
255 255 255
187 187 187
255 255 255
255 255 255
255 255 255
187 187 187
255 255 255
255 255 255
255 255 255
187 187 187
255 255 255
255 255 255
255 255 255
187 187 187
255 255 255
255 255 255
255 255 255
187 187 187
255 255 255
255 255 255
255 255 255
187 187 187
255 255 255
255 255 255
255 255 255
187 187 187
255 255 255
255 255 255
255 255 255
187 187 187
255 255 255
255 255 255
255 255 255
187 187 187
255 255 255
255 255 255
255 255 255
187 187 187
255 255 255
255 255 255
255 255 255
187 187 187
255 255 255
255 255 255
255 255 255
187 187 187
255 255 255
255 255 255
255 255 255
187 187 187
255 255 255
255 255 255
255 255 255
187 187 187
255 255 255
255 255 255
255 255 255
187 187 187
255 255 255
255 255 255
255 255 255
187 187 187
255 255 255
255 255 255
255 255 255
187 187 187
255 255 255
255 255 255
255 255 255
187 187 187
255 255 255
255 255 255
255 255 255
187 187 187
255 255 255
255 255 255
255 255 255
187 187 187
255 255 255
255 255 255
255 255 255
187 187 187
255 255 255
255 255 255
255 255 255
187 187 187
255 255 255
255 255 255
255 255 255
187 187 187
255 255 255
255 255 255
255 255 255
187 187 187
255 255 255
255 255 255
255 255 255
187 187 187
255 255 255
255 255 255
255 255 255
187 187 187
255 255 255
255 255 255
255 255 255
187 187 187
255 255 255
255 255 255
255 255 255
187 187 187
255 255 255
255 255 255
255 255 255
187 187 187
255 255 255
255 255 255
255 255 255
187 187 187
255 255 255
255 255 255
255 255 255
187 187 187
255 255 255
255 255 255
255 255 255
187 187 187
255 255 255
255 255 255
255 255 255
187 187 187
255 255 255
255 255 255
255 255 255
187 187 187
255 255 255
255 255 255
255 255 255
187 187 187
255 255 255
255 255 255
255 255 255
187 187 187
255 255 255
255 255 255
255 255 255
187 187 187
255 255 255
255 255 255
255 255 255
187 187 187
255 255 255
255 255 255
255 255 255
187 187 187
255 255 255
255 255 255
255 255 255
187 187 187
255 255 255
255 255 255
255 255 255
187 187 187
255 255 255
255 255 255
255 255 255
187 187 187
255 255 255
255 255 255
255 255 255
187 187 187
255 255 255
255 255 255
255 255 255
187 187 187
255 255 255
255 255 255
255 255 255
187 187 187
255 255 255
255 255 255
255 255 255
187 187 187
255 255 255
255 255 255
255 255 255
187 187 187
255 255 255
255 255 255
255 255 255
187 187 187
255 255 255
255 255 255
255 255 255
187 187 187
255 255 255
255 255 255
255 255 255
187 187 187
255 255 255
255 255 255
255 255 255
187 187 187
255 255 255
255 255 255
255 255 255
187 187 187
255 255 255
255 255 255
255 255 255
187 187 187
255 255 255
255 255 255
255 255 255
187 187 187
255 255 255
255 255 255
255 255 255
187 187 187
255 255 255
255 255 255
255 255 255
187 187 187
255 255 255
255 255 255
255 255 255
187 187 187
255 255 255
255 255 255
255 255 255
187 187 187
255 255 255
255 255 255
255 255 255
187 187 187
255 255 255
255 255 255
255 255 255
187 187 187
255 255 255
255 255 255
255 255 255
187 187 187
255 255 255
255 255 255
255 255 255
187 187 187
255 255 255
255 255 255
255 255 255
187 187 187
255 255 255
255 255 255
255 255 255
187 187 187
255 255 255
255 255 255
255 255 255
187 187 187
255 255 255
255 255 255
255 255 255
187 187 187
255 255 255
255 255 255
255 255 255
187 187 187
255 255 255
255 255 255
255 255 255
187 187 187
255 255 255
255 255 255
255 255 255
187 187 187
255 255 255
255 255 255
255 255 255
187 187 187
255 255 255
255 255 255
255 255 255
187 187 187
255 255 255
255 255 255
255 255 255
187 187 187
255 255 255
255 255 255
255 255 255
187 187 187
255 255 255
255 255 255
255 255 255
187 187 187
255 255 255
255 255 255
255 255 255
187 187 187
255 255 255
255 255 255
255 255 255
187 187 187
255 255 255
255 255 255
255 255 255
187 187 187
255 255 255
255 255 255
255 255 255
187 187 187
255 255 255
255 255 255
255 255 255
187 187 187
255 255 255
255 255 255
255 255 255
187 187 187
255 255 255
255 255 255
255 255 255
187 187 187
255 255 255
255 255 255
255 255 255
187 187 187
255 255 255
255 255 255
255 255 255
187 187 187
255 255 255
255 255 255
255 255 255
187 187 187
255 255 255
255 255 255
255 255 255
187 187 187
255 255 255
255 255 255
255 255 255
187 187 187
255 255 255
255 255 255
255 255 255
187 187 187
255 255 255
255 255 255
255 255 255
187 187 187
255 255 255
255 255 255
255 255 255
187 187 187
255 255 255
255 255 255
255 255 255
187 187 187
255 255 255
255 255 255
255 255 255
187 187 187
255 255 255
255 255 255
255 255 255
187 187 187
255 255 255
255 255 255
255 255 255
187 187 187
255 255 255
255 255 255
255 255 255
187 187 187
255 255 255
255 255 255
255 255 255
187 187 187
255 255 255
255 255 255
255 255 255
187 187 187
255 255 255
255 255 255
255 255 255
187 187 187
255 255 255
255 255 255
255 255 255
187 187 187
255 255 255
255 255 255
255 255 255
187 187 187
255 255 255
255 255 255
255 255 255
187 187 187
255 255 255
255 255 255
255 255 255
187 187 187
255 255 255
255 255 255
255 255 255
187 187 187
255 255 255
255 255 255
255 255 255
187 187 187
255 255 255
255 255 255
255 255 255
187 187 187
255 255 255
255 255 255
255 255 255
187 187 187
255 255 255
255 255 255
255 255 255
187 187 187
255 255 255
255 255 255
255 255 255
187 187 187
255 255 255
255 255 255
255 255 255
187 187 187
255 255 255
255 255 255
255 255 255
187 187 187
255 255 255
255 255 255
255 255 255
187 187 187
255 255 255
255 255 255
255 255 255
187 187 187
255 255 255
255 255 255
255 255 255
187 187 187
255 255 255
255 255 255
255 255 255
187 187 187
255 255 255
255 255 255
255 255 255
187 187 187
255 255 255
255 255 255
255 255 255
187 187 187
255 255 255
255 255 255
255 255 255
187 187 187
255 255 255
255 255 255
255 255 255
187 187 187
255 255 255
255 255 255
255 255 255
187 187 187
255 255 255
255 255 255
255 255 255
187 187 187
255 255 255
255 255 255
255 255 255
187 187 187
255 255 255
255 255 255
255 255 255
187 187 187
255 255 255
255 255 255
255 255 255
187 187 187
255 255 255
255 255 255
255 255 255
187 187 187
255 255 255
255 255 255
255 255 255
187 187 187
255 255 255
255 255 255
255 255 255
187 187 187
255 255 255
255 255 255
255 255 255
187 187 187
255 255 255
255 255 255
255 255 255
187 187 187
255 255 255
255 255 255
255 255 255
187 187 187
255 255 255
255 255 255
255 255 255
187 187 187
255 255 255
255 255 255
255 255 255
187 187 187
255 255 255
255 255 255
255 255 255
187 187 187
255 255 255
255 255 255
255 255 255
187 187 187
255 255 255
255 255 255
255 255 255
187 187 187
255 255 255
255 255 255
255 255 255
187 187 187
255 255 255
255 255 255
255 255 255
187 187 187
255 255 255
255 255 255
255 255 255
187 187 187
255 255 255
255 255 255
255 255 255
187 187 187
255 255 255
255 255 255
255 255 255
187 187 187
255 255 255
255 255 255
255 255 255
187 187 187
255 255 255
255 255 255
255 255 255
187 187 187
255 255 255
255 255 255
255 255 255
187 187 187
255 255 255
255 255 255
255 255 255
187 187 187
255 255 255
255 255 255
255 255 255
187 187 187
255 255 255
255 255 255
255 255 255
187 187 187
255 255 255
255 255 255
255 255 255
187 187 187
255 255 255
255 255 255
255 255 255
187 187 187
255 255 255
255 255 255
255 255 255
187 187 187
255 255 255
255 255 255
255 255 255
187 187 187
255 255 255
255 255 255
255 255 255
187 187 187
255 255 255
255 255 255
255 255 255
187 187 187
255 255 255
255 255 255
255 255 255
187 187 187
255 255 255
255 255 255
255 255 255
187 187 187
255 255 255
255 255 255
255 255 255
187 187 187
255 255 255
255 255 255
255 255 255
187 187 187
255 255 255
255 255 255
255 255 255
187 187 187
255 255 255
255 255 255
255 255 255
187 187 187
255 255 255
255 255 255
255 255 255
187 187 187
255 255 255
255 255 255
255 255 255
187 187 187
255 255 255
255 255 255
255 255 255
187 187 187
255 255 255
255 255 255
255 255 255
187 187 187
255 255 255
255 255 255
255 255 255
187 187 187
255 255 255
255 255 255
255 255 255
187 187 187
255 255 255
255 255 255
255 255 255
187 187 187
255 255 255
255 255 255
255 255 255
187 187 187
255 255 255
255 255 255
255 255 255
187 187 187
255 255 255
255 255 255
255 255 255
187 187 187
255 255 255
255 255 255
255 255 255
187 187 187
255 255 255
255 255 255
255 255 255
187 187 187
255 255 255
255 255 255
255 255 255
187 187 187
255 255 255
255 255 255
255 255 255
187 187 187
255 255 255
255 255 255
255 255 255
187 187 187
255 255 255
255 255 255
255 255 255
187 187 187
255 255 255
255 255 255
255 255 255
187 187 187
255 255 255
255 255 255
255 255 255
187 187 187
255 255 255
255 255 255
255 255 255
187 187 187
255 255 255
255 255 255
255 255 255
187 187 187
255 255 255
255 255 255
255 255 255
187 187 187
255 255 255
255 255 255
255 255 255
187 187 187
255 255 255
255 255 255
255 255 255
187 187 187
255 255 255
255 255 255
255 255 255
187 187 187
255 255 255
255 255 255
255 255 255
187 187 187
255 255 255
255 255 255
255 255 255
187 187 187
255 255 255
255 255 255
255 255 255
187 187 187
255 255 255
255 255 255
255 255 255
187 187 187
255 255 255
255 255 255
255 255 255
187 187 187
255 255 255
255 255 255
255 255 255
187 187 187
255 255 255
255 255 255
255 255 255
187 187 187
255 255 255
255 255 255
255 255 255
187 187 187
255 255 255
255 255 255
255 255 255
187 187 187
255 255 255
255 255 255
255 255 255
187 187 187
255 255 255
255 255 255
255 255 255
187 187 187
255 255 255
255 255 255
255 255 255
187 187 187
255 255 255
255 255 255
255 255 255
187 187 187
255 255 255
255 255 255
255 255 255
187 187 187
255 255 255
255 255 255
255 255 255
187 187 187
255 255 255
255 255 255
255 255 255
187 187 187
255 255 255
255 255 255
255 255 255
187 187 187
255 255 255
255 255 255
255 255 255
187 187 187
255 255 255
255 255 255
255 255 255
187 187 187
255 255 255
255 255 255
255 255 255
187 187 187
255 255 255
255 255 255
255 255 255
187 187 187
255 255 255
255 255 255
255 255 255
187 187 187
255 255 255
255 255 255
255 255 255
187 187 187
255 255 255
255 255 255
255 255 255
187 187 187
255 255 255
255 255 255
255 255 255
187 187 187
255 255 255
255 255 255
255 255 255
187 187 187
255 255 255
255 255 255
255 255 255
187 187 187
255 255 255
255 255 255
255 255 255
187 187 187
255 255 255
255 255 255
255 255 255
187 187 187
255 255 255
255 255 255
255 255 255
187 187 187
255 255 255
255 255 255
255 255 255
187 187 187
255 255 255
255 255 255
255 255 255
187 187 187
255 255 255
255 255 255
255 255 255
187 187 187
255 255 255
255 255 255
255 255 255
187 187 187
255 255 255
255 255 255
255 255 255
187 187 187
255 255 255
255 255 255
255 255 255
187 187 187
255 255 255
255 255 255
255 255 255
187 187 187
255 255 255
255 255 255
255 255 255
187 187 187
255 255 255
255 255 255
255 255 255
187 187 187
255 255 255
255 255 255
255 255 255
187 187 187
255 255 255
255 255 255
255 255 255
187 187 187
255 255 255
255 255 255
255 255 255
187 187 187
255 255 255
255 255 255
255 255 255
187 187 187
255 255 255
255 255 255
255 255 255
187 187 187
255 255 255
255 255 255
255 255 255
187 187 187
255 255 255
255 255 255
255 255 255
187 187 187
255 255 255
255 255 255
255 255 255
187 187 187
255 255 255
255 255 255
255 255 255
187 187 187
255 255 255
255 255 255
255 255 255
187 187 187
255 255 255
255 255 255
255 255 255
187 187 187
255 255 255
255 255 255
255 255 255
187 187 187
255 255 255
255 255 255
255 255 255
187 187 187
255 255 255
255 255 255
255 255 255
187 187 187
255 255 255
255 255 255
255 255 255
187 187 187
255 255 255
255 255 255
255 255 255
187 187 187
255 255 255
255 255 255
255 255 255
187 187 187
255 255 255
255 255 255
255 255 255
187 187 187
255 255 255
255 255 255
255 255 255
187 187 187
255 255 255
255 255 255
255 255 255
187 187 187
255 255 255
255 255 255
255 255 255
187 187 187
255 255 255
255 255 255
255 255 255
187 187 187
255 255 255
255 255 255
255 255 255
187 187 187
255 255 255
255 255 255
255 255 255
187 187 187
255 255 255
255 255 255
255 255 255
187 187 187
255 255 255
255 255 255
255 255 255
187 187 187
255 255 255
255 255 255
255 255 255
187 187 187
255 255 255
255 255 255
255 255 255
187 187 187
255 255 255
255 255 255
255 255 255
187 187 187
255 255 255
255 255 255
255 255 255
187 187 187
255 255 255
255 255 255
255 255 255
187 187 187
255 255 255
255 255 255
255 255 255
187 187 187
255 255 255
255 255 255
255 255 255
187 187 187
255 255 255
255 255 255
255 255 255
187 187 187
255 255 255
255 255 255
255 255 255
187 187 187
255 255 255
255 255 255
255 255 255
187 187 187
255 255 255
255 255 255
255 255 255
187 187 187
255 255 255
255 255 255
255 255 255
187 187 187
255 255 255
255 255 255
255 255 255
187 187 187
255 255 255
255 255 255
255 255 255
187 187 187
255 255 255
255 255 255
255 255 255
187 187 187
255 255 255
255 255 255
255 255 255
187 187 187
255 255 255
255 255 255
255 255 255
187 187 187
255 255 255
255 255 255
255 255 255
187 187 187
255 255 255
255 255 255
255 255 255
187 187 187
255 255 255
255 255 255
255 255 255
187 187 187
255 255 255
255 255 255
255 255 255
187 187 187
255 255 255
255 255 255
255 255 255
187 187 187
255 255 255
255 255 255
255 255 255
187 187 187
255 255 255
255 255 255
255 255 255
187 187 187
255 255 255
255 255 255
255 255 255
187 187 187
255 255 255
255 255 255
255 255 255
187 187 187
255 255 255
255 255 255
255 255 255
187 187 187
255 255 255
255 255 255
255 255 255
187 187 187
255 255 255
255 255 255
255 255 255
187 187 187
255 255 255
255 255 255
255 255 255
187 187 187
255 255 255
255 255 255
255 255 255
187 187 187
255 255 255
255 255 255
255 255 255
187 187 187
255 255 255
255 255 255
255 255 255
187 187 187
255 255 255
255 255 255
255 255 255
187 187 187
255 255 255
255 255 255
255 255 255
187 187 187
255 255 255
255 255 255
255 255 255
187 187 187
255 255 255
255 255 255
255 255 255
187 187 187
255 255 255
255 255 255
255 255 255
187 187 187
255 255 255
255 255 255
255 255 255
187 187 187
255 255 255
255 255 255
255 255 255
187 187 187
255 255 255
255 255 255
255 255 255
187 187 187
255 255 255
255 255 255
255 255 255
187 187 187
255 255 255
255 255 255
255 255 255
187 187 187
255 255 255
255 255 255
255 255 255
187 187 187
255 255 255
255 255 255
255 255 255
187 187 187
255 255 255
255 255 255
255 255 255
187 187 187
255 255 255
255 255 255
255 255 255
187 187 187
255 255 255
255 255 255
255 255 255
187 187 187
255 255 255
255 255 255
255 255 255
187 187 187
255 255 255
255 255 255
255 255 255
187 187 187
255 255 255
255 255 255
255 255 255
187 187 187
255 255 255
255 255 255
255 255 255
187 187 187
255 255 255
255 255 255
255 255 255
187 187 187
255 255 255
255 255 255
255 255 255
187 187 187
255 255 255
255 255 255
255 255 255
187 187 187
255 255 255
255 255 255
255 255 255
187 187 187
255 255 255
255 255 255
255 255 255
187 187 187
255 255 255
255 255 255
255 255 255
187 187 187
255 255 255
255 255 255
255 255 255
187 187 187
255 255 255
255 255 255
255 255 255
187 187 187
255 255 255
255 255 255
255 255 255
187 187 187
255 255 255
255 255 255
255 255 255
187 187 187
255 255 255
255 255 255
255 255 255
187 187 187
255 255 255
255 255 255
255 255 255
187 187 187
255 255 255
255 255 255
255 255 255
187 187 187
255 255 255
255 255 255
255 255 255
187 187 187
255 255 255
255 255 255
255 255 255
187 187 187
255 255 255
255 255 255
255 255 255
187 187 187
255 255 255
255 255 255
255 255 255
187 187 187
255 255 255
255 255 255
255 255 255
187 187 187
255 255 255
255 255 255
255 255 255
187 187 187
255 255 255
255 255 255
255 255 255
187 187 187
255 255 255
255 255 255
255 255 255
187 187 187
255 255 255
255 255 255
255 255 255
187 187 187
255 255 255
255 255 255
255 255 255
187 187 187
255 255 255
255 255 255
255 255 255
187 187 187
255 255 255
255 255 255
255 255 255
187 187 187
255 255 255
255 255 255
255 255 255
187 187 187
255 255 255
255 255 255
255 255 255
187 187 187
255 255 255
255 255 255
255 255 255
187 187 187
255 255 255
255 255 255
255 255 255
187 187 187
255 255 255
255 255 255
255 255 255
187 187 187
255 255 255
255 255 255
255 255 255
187 187 187
255 255 255
255 255 255
255 255 255
187 187 187
255 255 255
255 255 255
255 255 255
187 187 187
255 255 255
255 255 255
255 255 255
187 187 187
255 255 255
255 255 255
255 255 255
187 187 187
255 255 255
255 255 255
255 255 255
187 187 187
255 255 255
255 255 255
255 255 255
187 187 187
255 255 255
255 255 255
255 255 255
187 187 187
255 255 255
255 255 255
255 255 255
187 187 187
255 255 255
255 255 255
255 255 255
187 187 187
255 255 255
255 255 255
255 255 255
187 187 187
255 255 255
255 255 255
255 255 255
187 187 187
255 255 255
255 255 255
255 255 255
187 187 187
255 255 255
255 255 255
255 255 255
187 187 187
255 255 255
255 255 255
255 255 255
187 187 187
255 255 255
255 255 255
255 255 255
187 187 187
255 255 255
255 255 255
255 255 255
187 187 187
255 255 255
255 255 255
255 255 255
187 187 187
255 255 255
255 255 255
255 255 255
187 187 187
255 255 255
255 255 255
255 255 255
187 187 187
255 255 255
255 255 255
255 255 255
187 187 187
255 255 255
255 255 255
255 255 255
187 187 187
255 255 255
255 255 255
255 255 255
187 187 187
255 255 255
255 255 255
255 255 255
187 187 187
255 255 255
255 255 255
255 255 255
187 187 187
255 255 255
255 255 255
255 255 255
187 187 187
255 255 255
255 255 255
255 255 255
187 187 187
255 255 255
255 255 255
255 255 255
187 187 187
255 255 255
255 255 255
255 255 255
187 187 187
255 255 255
255 255 255
255 255 255
187 187 187
255 255 255
255 255 255
255 255 255
187 187 187
255 255 255
255 255 255
255 255 255
187 187 187
255 255 255
255 255 255
255 255 255
187 187 187
255 255 255
255 255 255
255 255 255
187 187 187
255 255 255
255 255 255
255 255 255
187 187 187
255 255 255
255 255 255
255 255 255
187 187 187
255 255 255
255 255 255
255 255 255
187 187 187
255 255 255
255 255 255
255 255 255
187 187 187
255 255 255
255 255 255
255 255 255
187 187 187
255 255 255
255 255 255
255 255 255
187 187 187
255 255 255
255 255 255
255 255 255
187 187 187
255 255 255
255 255 255
255 255 255
187 187 187
255 255 255
255 255 255
255 255 255
187 187 187
255 255 255
255 255 255
255 255 255
187 187 187
255 255 255
255 255 255
255 255 255
187 187 187
255 255 255
255 255 255
255 255 255
187 187 187
255 255 255
255 255 255
255 255 255
187 187 187
255 255 255
255 255 255
255 255 255
187 187 187
255 255 255
255 255 255
255 255 255
187 187 187
255 255 255
255 255 255
255 255 255
187 187 187
255 255 255
255 255 255
255 255 255
187 187 187
255 255 255
255 255 255
255 255 255
187 187 187
255 255 255
255 255 255
255 255 255
187 187 187
255 255 255
255 255 255
255 255 255
187 187 187
255 255 255
255 255 255
255 255 255
187 187 187
255 255 255
255 255 255
255 255 255
187 187 187
255 255 255
255 255 255
255 255 255
187 187 187
255 255 255
255 255 255
255 255 255
187 187 187
255 255 255
255 255 255
255 255 255
187 187 187
255 255 255
255 255 255
255 255 255
187 187 187
255 255 255
255 255 255
255 255 255
187 187 187
255 255 255
255 255 255
255 255 255
187 187 187
255 255 255
255 255 255
255 255 255
187 187 187
255 255 255
255 255 255
255 255 255
187 187 187
255 255 255
255 255 255
255 255 255
187 187 187
255 255 255
255 255 255
255 255 255
187 187 187
255 255 255
255 255 255
255 255 255
187 187 187
255 255 255
255 255 255
255 255 255
187 187 187
255 255 255
255 255 255
255 255 255
187 187 187
255 255 255
255 255 255
255 255 255
187 187 187
255 255 255
255 255 255
255 255 255
187 187 187
255 255 255
255 255 255
255 255 255
187 187 187
255 255 255
255 255 255
255 255 255
187 187 187
255 255 255
255 255 255
255 255 255
187 187 187
255 255 255
255 255 255
255 255 255
187 187 187
255 255 255
255 255 255
255 255 255
187 187 187
255 255 255
255 255 255
255 255 255
187 187 187
255 255 255
255 255 255
255 255 255
187 187 187
255 255 255
255 255 255
255 255 255
187 187 187
255 255 255
255 255 255
255 255 255
187 187 187
255 255 255
255 255 255
255 255 255
187 187 187
255 255 255
255 255 255
255 255 255
187 187 187
255 255 255
255 255 255
255 255 255
187 187 187
255 255 255
255 255 255
255 255 255
187 187 187
255 255 255
255 255 255
255 255 255
187 187 187
255 255 255
255 255 255
255 255 255
187 187 187
255 255 255
255 255 255
255 255 255
187 187 187
255 255 255
255 255 255
255 255 255
187 187 187
255 255 255
255 255 255
255 255 255
187 187 187
255 255 255
255 255 255
255 255 255
187 187 187
255 255 255
255 255 255
255 255 255
187 187 187
255 255 255
255 255 255
255 255 255
187 187 187
255 255 255
255 255 255
255 255 255
187 187 187
255 255 255
255 255 255
255 255 255
187 187 187
255 255 255
255 255 255
255 255 255
187 187 187
255 255 255
255 255 255
255 255 255
187 187 187
255 255 255
255 255 255
255 255 255
187 187 187
255 255 255
255 255 255
255 255 255
187 187 187
255 255 255
255 255 255
255 255 255
187 187 187
255 255 255
255 255 255
255 255 255
187 187 187
255 255 255
255 255 255
255 255 255
187 187 187
255 255 255
255 255 255
255 255 255
187 187 187
255 255 255
255 255 255
255 255 255
187 187 187
255 255 255
255 255 255
255 255 255
187 187 187
255 255 255
255 255 255
255 255 255
187 187 187
255 255 255
255 255 255
255 255 255
187 187 187
255 255 255
255 255 255
255 255 255
187 187 187
255 255 255
255 255 255
255 255 255
187 187 187
255 255 255
255 255 255
255 255 255
187 187 187
255 255 255
255 255 255
255 255 255
187 187 187
255 255 255
255 255 255
255 255 255
187 187 187
255 255 255
255 255 255
255 255 255
187 187 187
255 255 255
255 255 255
255 255 255
187 187 187
255 255 255
255 255 255
255 255 255
187 187 187
255 255 255
255 255 255
255 255 255
187 187 187
255 255 255
255 255 255
255 255 255
187 187 187
255 255 255
255 255 255
255 255 255
187 187 187
255 255 255
255 255 255
255 255 255
187 187 187
255 255 255
255 255 255
255 255 255
187 187 187
255 255 255
255 255 255
255 255 255
187 187 187
255 255 255
255 255 255
255 255 255
187 187 187
255 255 255
255 255 255
255 255 255
187 187 187
255 255 255
255 255 255
255 255 255
187 187 187
255 255 255
255 255 255
255 255 255
187 187 187
255 255 255
255 255 255
255 255 255
187 187 187
255 255 255
255 255 255
255 255 255
187 187 187
255 255 255
255 255 255
255 255 255
187 187 187
255 255 255
255 255 255
255 255 255
187 187 187
255 255 255
255 255 255
255 255 255
187 187 187
255 255 255
255 255 255
255 255 255
187 187 187
255 255 255
255 255 255
255 255 255
187 187 187
255 255 255
255 255 255
255 255 255
187 187 187
255 255 255
255 255 255
255 255 255
187 187 187
255 255 255
255 255 255
255 255 255
187 187 187
255 255 255
255 255 255
255 255 255
187 187 187
255 255 255
255 255 255
255 255 255
187 187 187
255 255 255
255 255 255
255 255 255
187 187 187
255 255 255
255 255 255
255 255 255
187 187 187
255 255 255
255 255 255
255 255 255
187 187 187
255 255 255
255 255 255
255 255 255
187 187 187
255 255 255
255 255 255
255 255 255
187 187 187
255 255 255
255 255 255
255 255 255
187 187 187
255 255 255
255 255 255
255 255 255
187 187 187
255 255 255
255 255 255
255 255 255
187 187 187
255 255 255
255 255 255
255 255 255
187 187 187
255 255 255
255 255 255
255 255 255
187 187 187
255 255 255
255 255 255
255 255 255
187 187 187
255 255 255
255 255 255
255 255 255
187 187 187
255 255 255
255 255 255
255 255 255
187 187 187
255 255 255
255 255 255
255 255 255
187 187 187
255 255 255
255 255 255
255 255 255
187 187 187
255 255 255
255 255 255
255 255 255
187 187 187
255 255 255
255 255 255
255 255 255
187 187 187
255 255 255
255 255 255
255 255 255
187 187 187
255 255 255
255 255 255
255 255 255
187 187 187
255 255 255
255 255 255
255 255 255
187 187 187
255 255 255
255 255 255
255 255 255
187 187 187
255 255 255
255 255 255
255 255 255
187 187 187
255 255 255
255 255 255
255 255 255
187 187 187
255 255 255
255 255 255
255 255 255
187 187 187
255 255 255
255 255 255
255 255 255
187 187 187
255 255 255
255 255 255
255 255 255
187 187 187
255 255 255
255 255 255
255 255 255
187 187 187
255 255 255
255 255 255
255 255 255
187 187 187
255 255 255
255 255 255
255 255 255
187 187 187
255 255 255
255 255 255
255 255 255
187 187 187
255 255 255
255 255 255
255 255 255
187 187 187
255 255 255
255 255 255
255 255 255
187 187 187
255 255 255
255 255 255
255 255 255
187 187 187
255 255 255
255 255 255
255 255 255
187 187 187
255 255 255
255 255 255
255 255 255
187 187 187
255 255 255
255 255 255
255 255 255
187 187 187
255 255 255
255 255 255
255 255 255
187 187 187
255 255 255
255 255 255
255 255 255
187 187 187
255 255 255
255 255 255
255 255 255
187 187 187
255 255 255
255 255 255
255 255 255
187 187 187
255 255 255
255 255 255
255 255 255
187 187 187
255 255 255
255 255 255
255 255 255
187 187 187
255 255 255
255 255 255
255 255 255
187 187 187
255 255 255
255 255 255
255 255 255
187 187 187
255 255 255
255 255 255
255 255 255
187 187 187
255 255 255
255 255 255
255 255 255
187 187 187
255 255 255
255 255 255
255 255 255
187 187 187
255 255 255
255 255 255
255 255 255
187 187 187
255 255 255
255 255 255
255 255 255
187 187 187
255 255 255
255 255 255
255 255 255
187 187 187
255 255 255
255 255 255
255 255 255
187 187 187
255 255 255
255 255 255
255 255 255
187 187 187
255 255 255
255 255 255
255 255 255
187 187 187
255 255 255
255 255 255
255 255 255
187 187 187
255 255 255
255 255 255
255 255 255
187 187 187
255 255 255
255 255 255
255 255 255
187 187 187
255 255 255
255 255 255
255 255 255
187 187 187
255 255 255
255 255 255
255 255 255
187 187 187
255 255 255
255 255 255
255 255 255
187 187 187
255 255 255
255 255 255
255 255 255
187 187 187
255 255 255
255 255 255
255 255 255
187 187 187
255 255 255
255 255 255
255 255 255
187 187 187
255 255 255
255 255 255
255 255 255
187 187 187
255 255 255
255 255 255
255 255 255
187 187 187
255 255 255
255 255 255
255 255 255
187 187 187
255 255 255
255 255 255
255 255 255
187 187 187
255 255 255
255 255 255
255 255 255
187 187 187
255 255 255
255 255 255
255 255 255
187 187 187
255 255 255
255 255 255
255 255 255
187 187 187
255 255 255
255 255 255
255 255 255
187 187 187
255 255 255
255 255 255
255 255 255
187 187 187
255 255 255
255 255 255
255 255 255
187 187 187
255 255 255
255 255 255
255 255 255
187 187 187
255 255 255
255 255 255
255 255 255
187 187 187
255 255 255
255 255 255
255 255 255
187 187 187
255 255 255
255 255 255
255 255 255
187 187 187
255 255 255
255 255 255
255 255 255
187 187 187
255 255 255
255 255 255
255 255 255
187 187 187
255 255 255
255 255 255
255 255 255
187 187 187
255 255 255
255 255 255
255 255 255
187 187 187
255 255 255
255 255 255
255 255 255
187 187 187
255 255 255
255 255 255
255 255 255
187 187 187
255 255 255
255 255 255
255 255 255
187 187 187
255 255 255
255 255 255
255 255 255
187 187 187
255 255 255
255 255 255
255 255 255
187 187 187
255 255 255
255 255 255
255 255 255
187 187 187
255 255 255
255 255 255
255 255 255
187 187 187
255 255 255
255 255 255
255 255 255
187 187 187
255 255 255
255 255 255
255 255 255
187 187 187
255 255 255
255 255 255
255 255 255
187 187 187
255 255 255
255 255 255
255 255 255
187 187 187
255 255 255
255 255 255
255 255 255
187 187 187
255 255 255
255 255 255
255 255 255
187 187 187
255 255 255
255 255 255
255 255 255
187 187 187
255 255 255
255 255 255
255 255 255
187 187 187
255 255 255
255 255 255
255 255 255
187 187 187
255 255 255
255 255 255
255 255 255
187 187 187
255 255 255
255 255 255
255 255 255
187 187 187
255 255 255
255 255 255
255 255 255
187 187 187
255 255 255
255 255 255
255 255 255
187 187 187
255 255 255
255 255 255
255 255 255
187 187 187
255 255 255
255 255 255
255 255 255
187 187 187
255 255 255
255 255 255
255 255 255
187 187 187
255 255 255
255 255 255
255 255 255
187 187 187
255 255 255
255 255 255
255 255 255
187 187 187
255 255 255
255 255 255
255 255 255
187 187 187
255 255 255
255 255 255
255 255 255
187 187 187
255 255 255
255 255 255
255 255 255
187 187 187
255 255 255
255 255 255
255 255 255
187 187 187
255 255 255
255 255 255
255 255 255
187 187 187
255 255 255
255 255 255
255 255 255
187 187 187
255 255 255
255 255 255
255 255 255
187 187 187
255 255 255
255 255 255
255 255 255
187 187 187
255 255 255
255 255 255
255 255 255
187 187 187
255 255 255
255 255 255
255 255 255
187 187 187
255 255 255
255 255 255
255 255 255
187 187 187
255 255 255
255 255 255
255 255 255
187 187 187
255 255 255
255 255 255
255 255 255
187 187 187
255 255 255
255 255 255
255 255 255
187 187 187
255 255 255
255 255 255
255 255 255
187 187 187
255 255 255
255 255 255
255 255 255
187 187 187
255 255 255
255 255 255
255 255 255
187 187 187
255 255 255
255 255 255
255 255 255
187 187 187
255 255 255
255 255 255
255 255 255
187 187 187
255 255 255
255 255 255
255 255 255
187 187 187
255 255 255
255 255 255
255 255 255
187 187 187
255 255 255
255 255 255
255 255 255
187 187 187
255 255 255
255 255 255
255 255 255
187 187 187
255 255 255
255 255 255
255 255 255
187 187 187
255 255 255
255 255 255
255 255 255
187 187 187
255 255 255
255 255 255
255 255 255
187 187 187
255 255 255
255 255 255
255 255 255
187 187 187
255 255 255
255 255 255
255 255 255
187 187 187
255 255 255
255 255 255
255 255 255
187 187 187
255 255 255
255 255 255
255 255 255
187 187 187
255 255 255
255 255 255
255 255 255
187 187 187
255 255 255
255 255 255
255 255 255
187 187 187
255 255 255
255 255 255
255 255 255
187 187 187
255 255 255
255 255 255
255 255 255
187 187 187
255 255 255
255 255 255
255 255 255
187 187 187
255 255 255
255 255 255
255 255 255
187 187 187
255 255 255
255 255 255
255 255 255
187 187 187
255 255 255
255 255 255
255 255 255
187 187 187
255 255 255
255 255 255
255 255 255
187 187 187
255 255 255
255 255 255
255 255 255
187 187 187
255 255 255
255 255 255
255 255 255
187 187 187
255 255 255
255 255 255
255 255 255
187 187 187
255 255 255
255 255 255
255 255 255
187 187 187
255 255 255
255 255 255
255 255 255
187 187 187
255 255 255
255 255 255
255 255 255
187 187 187
255 255 255
255 255 255
255 255 255
187 187 187
255 255 255
255 255 255
255 255 255
187 187 187
255 255 255
255 255 255
255 255 255
187 187 187
255 255 255
255 255 255
255 255 255
187 187 187
255 255 255
255 255 255
255 255 255
187 187 187
255 255 255
255 255 255
255 255 255
187 187 187
255 255 255
255 255 255
255 255 255
187 187 187
255 255 255
255 255 255
255 255 255
187 187 187
255 255 255
255 255 255
255 255 255
187 187 187
255 255 255
255 255 255
255 255 255
187 187 187
255 255 255
255 255 255
255 255 255
187 187 187
255 255 255
255 255 255
255 255 255
187 187 187
255 255 255
255 255 255
255 255 255
187 187 187
255 255 255
255 255 255
255 255 255
187 187 187
255 255 255
255 255 255
255 255 255
187 187 187
255 255 255
255 255 255
255 255 255
187 187 187
255 255 255
255 255 255
255 255 255
187 187 187
255 255 255
255 255 255
255 255 255
187 187 187
255 255 255
255 255 255
255 255 255
187 187 187
255 255 255
255 255 255
255 255 255
187 187 187
255 255 255
255 255 255
255 255 255
187 187 187
255 255 255
255 255 255
255 255 255
187 187 187
255 255 255
255 255 255
255 255 255
187 187 187
255 255 255
255 255 255
255 255 255
187 187 187
255 255 255
255 255 255
255 255 255
187 187 187
255 255 255
255 255 255
255 255 255
187 187 187
255 255 255
255 255 255
255 255 255
187 187 187
255 255 255
255 255 255
255 255 255
187 187 187
255 255 255
255 255 255
255 255 255
187 187 187
255 255 255
255 255 255
255 255 255
187 187 187
255 255 255
255 255 255
255 255 255
187 187 187
255 255 255
255 255 255
255 255 255
187 187 187
255 255 255
255 255 255
255 255 255
187 187 187
255 255 255
255 255 255
255 255 255
187 187 187
255 255 255
255 255 255
255 255 255
187 187 187
255 255 255
255 255 255
255 255 255
187 187 187
255 255 255
255 255 255
255 255 255
187 187 187
255 255 255
255 255 255
255 255 255
187 187 187
255 255 255
255 255 255
255 255 255
187 187 187
255 255 255
255 255 255
255 255 255
187 187 187
255 255 255
255 255 255
255 255 255
187 187 187
255 255 255
255 255 255
255 255 255
187 187 187
255 255 255
255 255 255
255 255 255
187 187 187
255 255 255
255 255 255
255 255 255
187 187 187
255 255 255
255 255 255
255 255 255
187 187 187
255 255 255
255 255 255
255 255 255
187 187 187
255 255 255
255 255 255
255 255 255
187 187 187
255 255 255
255 255 255
255 255 255
187 187 187
255 255 255
255 255 255
255 255 255
187 187 187
255 255 255
255 255 255
255 255 255
187 187 187
255 255 255
255 255 255
255 255 255
187 187 187
255 255 255
255 255 255
255 255 255
187 187 187
255 255 255
255 255 255
255 255 255
187 187 187
255 255 255
255 255 255
255 255 255
187 187 187
255 255 255
255 255 255
255 255 255
187 187 187
255 255 255
255 255 255
255 255 255
187 187 187
255 255 255
255 255 255
255 255 255
187 187 187
255 255 255
255 255 255
255 255 255
187 187 187
255 255 255
255 255 255
255 255 255
187 187 187
255 255 255
255 255 255
255 255 255
187 187 187
255 255 255
255 255 255
255 255 255
187 187 187
255 255 255
255 255 255
255 255 255
187 187 187
255 255 255
255 255 255
255 255 255
187 187 187
255 255 255
255 255 255
255 255 255
187 187 187
255 255 255
255 255 255
255 255 255
187 187 187
255 255 255
255 255 255
255 255 255
187 187 187
255 255 255
255 255 255
255 255 255
187 187 187
255 255 255
255 255 255
255 255 255
187 187 187
255 255 255
255 255 255
255 255 255
187 187 187
255 255 255
255 255 255
255 255 255
187 187 187
255 255 255
255 255 255
255 255 255
187 187 187
255 255 255
255 255 255
255 255 255
187 187 187
255 255 255
255 255 255
255 255 255
187 187 187
255 255 255
255 255 255
255 255 255
187 187 187
255 255 255
255 255 255
255 255 255
187 187 187
255 255 255
255 255 255
255 255 255
187 187 187
255 255 255
255 255 255
255 255 255
187 187 187
255 255 255
255 255 255
255 255 255
187 187 187
255 255 255
255 255 255
255 255 255
187 187 187
255 255 255
255 255 255
255 255 255
187 187 187
255 255 255
255 255 255
255 255 255
187 187 187
255 255 255
255 255 255
255 255 255
187 187 187
255 255 255
255 255 255
255 255 255
187 187 187
255 255 255
255 255 255
255 255 255
187 187 187
255 255 255
255 255 255
255 255 255
187 187 187
255 255 255
255 255 255
255 255 255
187 187 187
255 255 255
255 255 255
255 255 255
187 187 187
255 255 255
255 255 255
255 255 255
187 187 187
255 255 255
255 255 255
255 255 255
187 187 187
255 255 255
255 255 255
255 255 255
187 187 187
255 255 255
255 255 255
255 255 255
187 187 187
255 255 255
255 255 255
255 255 255
187 187 187
255 255 255
255 255 255
255 255 255
187 187 187
255 255 255
255 255 255
255 255 255
187 187 187
255 255 255
255 255 255
255 255 255
187 187 187
255 255 255
255 255 255
255 255 255
187 187 187
255 255 255
255 255 255
255 255 255
187 187 187
255 255 255
255 255 255
255 255 255
187 187 187
255 255 255
255 255 255
255 255 255
187 187 187
255 255 255
255 255 255
255 255 255
187 187 187
255 255 255
255 255 255
255 255 255
187 187 187
255 255 255
255 255 255
255 255 255
187 187 187
255 255 255
255 255 255
255 255 255
187 187 187
255 255 255
255 255 255
255 255 255
187 187 187
255 255 255
255 255 255
255 255 255
187 187 187
255 255 255
255 255 255
255 255 255
187 187 187
255 255 255
255 255 255
255 255 255
187 187 187
255 255 255
255 255 255
255 255 255
187 187 187
255 255 255
255 255 255
255 255 255
187 187 187
255 255 255
255 255 255
255 255 255
187 187 187
255 255 255
255 255 255
255 255 255
187 187 187
255 255 255
255 255 255
255 255 255
187 187 187
255 255 255
255 255 255
255 255 255
187 187 187
255 255 255
255 255 255
255 255 255
187 187 187
255 255 255
255 255 255
255 255 255
187 187 187
255 255 255
255 255 255
255 255 255
187 187 187
255 255 255
255 255 255
255 255 255
187 187 187
255 255 255
255 255 255
255 255 255
187 187 187
255 255 255
255 255 255
255 255 255
187 187 187
255 255 255
255 255 255
255 255 255
187 187 187
255 255 255
255 255 255
255 255 255
187 187 187
255 255 255
255 255 255
255 255 255
187 187 187
255 255 255
255 255 255
255 255 255
187 187 187
255 255 255
255 255 255
255 255 255
187 187 187
255 255 255
255 255 255
255 255 255
187 187 187
255 255 255
255 255 255
255 255 255
187 187 187
255 255 255
255 255 255
255 255 255
187 187 187
255 255 255
255 255 255
255 255 255
187 187 187
255 255 255
255 255 255
255 255 255
187 187 187
255 255 255
255 255 255
255 255 255
187 187 187
255 255 255
255 255 255
255 255 255
187 187 187
255 255 255
255 255 255
255 255 255
187 187 187
255 255 255
255 255 255
255 255 255
187 187 187
255 255 255
255 255 255
255 255 255
187 187 187
255 255 255
255 255 255
255 255 255
187 187 187
255 255 255
255 255 255
255 255 255
187 187 187
255 255 255
255 255 255
255 255 255
187 187 187
255 255 255
255 255 255
255 255 255
187 187 187
255 255 255
255 255 255
255 255 255
187 187 187
255 255 255
255 255 255
255 255 255
187 187 187
255 255 255
255 255 255
255 255 255
187 187 187
255 255 255
255 255 255
255 255 255
187 187 187
255 255 255
255 255 255
255 255 255
187 187 187
255 255 255
255 255 255
255 255 255
187 187 187
255 255 255
255 255 255
255 255 255
187 187 187
255 255 255
255 255 255
255 255 255
187 187 187
255 255 255
255 255 255
255 255 255
187 187 187
255 255 255
255 255 255
255 255 255
187 187 187
255 255 255
255 255 255
255 255 255
187 187 187
255 255 255
255 255 255
255 255 255
187 187 187
255 255 255
255 255 255
255 255 255
187 187 187
255 255 255
255 255 255
255 255 255
187 187 187
255 255 255
255 255 255
255 255 255
187 187 187
255 255 255
255 255 255
255 255 255
187 187 187
255 255 255
255 255 255
255 255 255
187 187 187
255 255 255
255 255 255
255 255 255
187 187 187
255 255 255
255 255 255
255 255 255
187 187 187
255 255 255
255 255 255
255 255 255
187 187 187
255 255 255
255 255 255
255 255 255
187 187 187
255 255 255
255 255 255
255 255 255
187 187 187
255 255 255
255 255 255
255 255 255
187 187 187
255 255 255
255 255 255
255 255 255
187 187 187
255 255 255
255 255 255
255 255 255
187 187 187
255 255 255
255 255 255
255 255 255
187 187 187
255 255 255
255 255 255
255 255 255
187 187 187
255 255 255
255 255 255
255 255 255
187 187 187
255 255 255
255 255 255
255 255 255
187 187 187
255 255 255
255 255 255
255 255 255
187 187 187
255 255 255
255 255 255
255 255 255
187 187 187
255 255 255
255 255 255
255 255 255
187 187 187
255 255 255
255 255 255
255 255 255
187 187 187
255 255 255
255 255 255
255 255 255
187 187 187
255 255 255
255 255 255
255 255 255
187 187 187
255 255 255
255 255 255
255 255 255
187 187 187
255 255 255
255 255 255
255 255 255
187 187 187
255 255 255
255 255 255
255 255 255
187 187 187
255 255 255
255 255 255
255 255 255
187 187 187
255 255 255
255 255 255
255 255 255
187 187 187
255 255 255
255 255 255
255 255 255
187 187 187
255 255 255
255 255 255
255 255 255
187 187 187
255 255 255
255 255 255
255 255 255
187 187 187
255 255 255
255 255 255
255 255 255
187 187 187
255 255 255
255 255 255
255 255 255
187 187 187
255 255 255
255 255 255
255 255 255
187 187 187
255 255 255
255 255 255
255 255 255
187 187 187
255 255 255
255 255 255
255 255 255
187 187 187
255 255 255
255 255 255
255 255 255
187 187 187
255 255 255
255 255 255
255 255 255
187 187 187
255 255 255
255 255 255
255 255 255
187 187 187
255 255 255
255 255 255
255 255 255
187 187 187
255 255 255
255 255 255
255 255 255
187 187 187
255 255 255
255 255 255
255 255 255
187 187 187
255 255 255
255 255 255
255 255 255
187 187 187
255 255 255
255 255 255
255 255 255
187 187 187
255 255 255
255 255 255
255 255 255
187 187 187
255 255 255
255 255 255
255 255 255
187 187 187
255 255 255
255 255 255
255 255 255
187 187 187
255 255 255
255 255 255
255 255 255
187 187 187
255 255 255
255 255 255
255 255 255
187 187 187
255 255 255
255 255 255
255 255 255
187 187 187
255 255 255
255 255 255
255 255 255
187 187 187
255 255 255
255 255 255
255 255 255
187 187 187
255 255 255
255 255 255
255 255 255
187 187 187
255 255 255
255 255 255
255 255 255
187 187 187
255 255 255
255 255 255
255 255 255
187 187 187
255 255 255
255 255 255
255 255 255
187 187 187
255 255 255
255 255 255
255 255 255
187 187 187
255 255 255
255 255 255
255 255 255
187 187 187
255 255 255
255 255 255
255 255 255
187 187 187
255 255 255
255 255 255
255 255 255
187 187 187
255 255 255
255 255 255
255 255 255
187 187 187
255 255 255
255 255 255
255 255 255
187 187 187
255 255 255
255 255 255
255 255 255
187 187 187
255 255 255
255 255 255
255 255 255
187 187 187
255 255 255
255 255 255
255 255 255
187 187 187
255 255 255
255 255 255
255 255 255
187 187 187
255 255 255
255 255 255
255 255 255
187 187 187
255 255 255
255 255 255
255 255 255
187 187 187
255 255 255
255 255 255
255 255 255
187 187 187
255 255 255
255 255 255
255 255 255
187 187 187
255 255 255
255 255 255
255 255 255
187 187 187
255 255 255
255 255 255
255 255 255
187 187 187
255 255 255
255 255 255
255 255 255
187 187 187
255 255 255
255 255 255
255 255 255
187 187 187
255 255 255
255 255 255
255 255 255
187 187 187
255 255 255
255 255 255
255 255 255
187 187 187
255 255 255
255 255 255
255 255 255
187 187 187
255 255 255
255 255 255
255 255 255
187 187 187
255 255 255
255 255 255
255 255 255
187 187 187
255 255 255
255 255 255
255 255 255
187 187 187
255 255 255
255 255 255
255 255 255
187 187 187
255 255 255
255 255 255
255 255 255
187 187 187
255 255 255
255 255 255
255 255 255
187 187 187
255 255 255
255 255 255
255 255 255
187 187 187
255 255 255
255 255 255
255 255 255
187 187 187
255 255 255
255 255 255
255 255 255
187 187 187
255 255 255
255 255 255
255 255 255
187 187 187
255 255 255
255 255 255
255 255 255
187 187 187
255 255 255
255 255 255
255 255 255
187 187 187
255 255 255
255 255 255
255 255 255
187 187 187
255 255 255
255 255 255
255 255 255
187 187 187
255 255 255
255 255 255
255 255 255
187 187 187
255 255 255
255 255 255
255 255 255
187 187 187
255 255 255
255 255 255
255 255 255
187 187 187
255 255 255
255 255 255
255 255 255
187 187 187
255 255 255
255 255 255
255 255 255
187 187 187
255 255 255
255 255 255
255 255 255
187 187 187
255 255 255
255 255 255
255 255 255
187 187 187
255 255 255
255 255 255
255 255 255
187 187 187
255 255 255
255 255 255
255 255 255
187 187 187
255 255 255
255 255 255
255 255 255
187 187 187
255 255 255
255 255 255
255 255 255
187 187 187
255 255 255
255 255 255
255 255 255
187 187 187
255 255 255
255 255 255
255 255 255
187 187 187
255 255 255
255 255 255
255 255 255
187 187 187
255 255 255
255 255 255
255 255 255
187 187 187
255 255 255
255 255 255
255 255 255
187 187 187
255 255 255
255 255 255
255 255 255
187 187 187
255 255 255
255 255 255
255 255 255
187 187 187
255 255 255
255 255 255
255 255 255
187 187 187
255 255 255
255 255 255
255 255 255
187 187 187
255 255 255
255 255 255
255 255 255
187 187 187
255 255 255
255 255 255
255 255 255
187 187 187
255 255 255
255 255 255
255 255 255
187 187 187
255 255 255
255 255 255
255 255 255
187 187 187
255 255 255
255 255 255
255 255 255
187 187 187
255 255 255
255 255 255
255 255 255
187 187 187
255 255 255
255 255 255
255 255 255
187 187 187
255 255 255
255 255 255
255 255 255
187 187 187
255 255 255
255 255 255
255 255 255
187 187 187
255 255 255
255 255 255
255 255 255
187 187 187
255 255 255
255 255 255
255 255 255
187 187 187
255 255 255
255 255 255
255 255 255
187 187 187
255 255 255
255 255 255
255 255 255
187 187 187
255 255 255
255 255 255
255 255 255
187 187 187
255 255 255
255 255 255
255 255 255
187 187 187
255 255 255
255 255 255
255 255 255
187 187 187
255 255 255
255 255 255
255 255 255
187 187 187
255 255 255
255 255 255
255 255 255
187 187 187
255 255 255
255 255 255
255 255 255
187 187 187
255 255 255
255 255 255
255 255 255
187 187 187
255 255 255
255 255 255
255 255 255
187 187 187
255 255 255
255 255 255
255 255 255
187 187 187
255 255 255
255 255 255
255 255 255
187 187 187
255 255 255
255 255 255
255 255 255
187 187 187
255 255 255
255 255 255
255 255 255
187 187 187
255 255 255
255 255 255
255 255 255
187 187 187
255 255 255
255 255 255
255 255 255
187 187 187
255 255 255
255 255 255
255 255 255
187 187 187
255 255 255
255 255 255
255 255 255
187 187 187
255 255 255
255 255 255
255 255 255
187 187 187
255 255 255
255 255 255
255 255 255
187 187 187
255 255 255
255 255 255
255 255 255
187 187 187
255 255 255
255 255 255
255 255 255
187 187 187
255 255 255
255 255 255
255 255 255
187 187 187
255 255 255
255 255 255
255 255 255
187 187 187
255 255 255
255 255 255
255 255 255
187 187 187
255 255 255
255 255 255
255 255 255
187 187 187
255 255 255
255 255 255
255 255 255
187 187 187
255 255 255
255 255 255
255 255 255
187 187 187
255 255 255
255 255 255
255 255 255
187 187 187
255 255 255
255 255 255
255 255 255
187 187 187
255 255 255
255 255 255
255 255 255
187 187 187
255 255 255
255 255 255
255 255 255
187 187 187
255 255 255
255 255 255
255 255 255
187 187 187
255 255 255
255 255 255
255 255 255
187 187 187
255 255 255
255 255 255
255 255 255
187 187 187
255 255 255
255 255 255
255 255 255
187 187 187
255 255 255
255 255 255
255 255 255
187 187 187
255 255 255
255 255 255
255 255 255
187 187 187
255 255 255
255 255 255
255 255 255
187 187 187
255 255 255
255 255 255
255 255 255
187 187 187
255 255 255
255 255 255
255 255 255
187 187 187
255 255 255
255 255 255
255 255 255
187 187 187
255 255 255
255 255 255
255 255 255
187 187 187
255 255 255
255 255 255
255 255 255
187 187 187
255 255 255
255 255 255
255 255 255
187 187 187
255 255 255
255 255 255
255 255 255
187 187 187
255 255 255
255 255 255
255 255 255
187 187 187
255 255 255
255 255 255
255 255 255
187 187 187
255 255 255
255 255 255
255 255 255
187 187 187
255 255 255
255 255 255
255 255 255
187 187 187
255 255 255
255 255 255
255 255 255
187 187 187
255 255 255
255 255 255
255 255 255
187 187 187
255 255 255
255 255 255
255 255 255
187 187 187
255 255 255
255 255 255
255 255 255
187 187 187
255 255 255
255 255 255
255 255 255
187 187 187
255 255 255
255 255 255
255 255 255
187 187 187
255 255 255
255 255 255
255 255 255
187 187 187
255 255 255
255 255 255
255 255 255
187 187 187
255 255 255
255 255 255
255 255 255
187 187 187
255 255 255
255 255 255
255 255 255
187 187 187
255 255 255
255 255 255
255 255 255
187 187 187
255 255 255
255 255 255
255 255 255
187 187 187
255 255 255
255 255 255
255 255 255
187 187 187
255 255 255
255 255 255
255 255 255
187 187 187
255 255 255
255 255 255
255 255 255
187 187 187
255 255 255
255 255 255
255 255 255
187 187 187
255 255 255
255 255 255
255 255 255
187 187 187
255 255 255
255 255 255
255 255 255
187 187 187
255 255 255
255 255 255
255 255 255
187 187 187
255 255 255
255 255 255
255 255 255
187 187 187
255 255 255
255 255 255
255 255 255
187 187 187
255 255 255
255 255 255
255 255 255
187 187 187
255 255 255
255 255 255
255 255 255
187 187 187
255 255 255
255 255 255
255 255 255
187 187 187
255 255 255
255 255 255
255 255 255
187 187 187
255 255 255
255 255 255
255 255 255
187 187 187
255 255 255
255 255 255
255 255 255
187 187 187
255 255 255
255 255 255
255 255 255
187 187 187
255 255 255
255 255 255
255 255 255
187 187 187
255 255 255
255 255 255
255 255 255
187 187 187
255 255 255
255 255 255
255 255 255
187 187 187
255 255 255
255 255 255
255 255 255
187 187 187
255 255 255
255 255 255
255 255 255
187 187 187
255 255 255
255 255 255
255 255 255
187 187 187
255 255 255
255 255 255
255 255 255
187 187 187
255 255 255
255 255 255
255 255 255
187 187 187
255 255 255
255 255 255
255 255 255
187 187 187
255 255 255
255 255 255
255 255 255
187 187 187
255 255 255
255 255 255
255 255 255
187 187 187
255 255 255
255 255 255
255 255 255
187 187 187
255 255 255
255 255 255
255 255 255
187 187 187
255 255 255
255 255 255
255 255 255
187 187 187
255 255 255
255 255 255
255 255 255
187 187 187
255 255 255
255 255 255
255 255 255
187 187 187
255 255 255
255 255 255
255 255 255
187 187 187
255 255 255
255 255 255
255 255 255
187 187 187
255 255 255
255 255 255
255 255 255
187 187 187
255 255 255
255 255 255
255 255 255
187 187 187
255 255 255
255 255 255
255 255 255
187 187 187
255 255 255
255 255 255
255 255 255
187 187 187
255 255 255
255 255 255
255 255 255
187 187 187
255 255 255
255 255 255
255 255 255
187 187 187
255 255 255
255 255 255
255 255 255
187 187 187
255 255 255
255 255 255
255 255 255
187 187 187
255 255 255
255 255 255
255 255 255
187 187 187
255 255 255
255 255 255
255 255 255
187 187 187
255 255 255
255 255 255
255 255 255
187 187 187
255 255 255
255 255 255
255 255 255
187 187 187
255 255 255
255 255 255
255 255 255
187 187 187
255 255 255
255 255 255
255 255 255
187 187 187
255 255 255
255 255 255
255 255 255
187 187 187
255 255 255
255 255 255
255 255 255
187 187 187
255 255 255
255 255 255
255 255 255
187 187 187
255 255 255
255 255 255
255 255 255
187 187 187
255 255 255
255 255 255
255 255 255
187 187 187
255 255 255
255 255 255
255 255 255
187 187 187
255 255 255
255 255 255
255 255 255
187 187 187
255 255 255
255 255 255
255 255 255
187 187 187
255 255 255
255 255 255
255 255 255
187 187 187
255 255 255
255 255 255
255 255 255
187 187 187
255 255 255
255 255 255
255 255 255
187 187 187
255 255 255
255 255 255
255 255 255
187 187 187
255 255 255
255 255 255
255 255 255
187 187 187
255 255 255
255 255 255
255 255 255
187 187 187
255 255 255
255 255 255
255 255 255
187 187 187
255 255 255
255 255 255
255 255 255
187 187 187
255 255 255
255 255 255
255 255 255
187 187 187
255 255 255
255 255 255
255 255 255
187 187 187
255 255 255
255 255 255
255 255 255
187 187 187
255 255 255
255 255 255
255 255 255
187 187 187
255 255 255
255 255 255
255 255 255
187 187 187
255 255 255
255 255 255
255 255 255
187 187 187
255 255 255
255 255 255
255 255 255
187 187 187
255 255 255
255 255 255
255 255 255
187 187 187
255 255 255
255 255 255
255 255 255
187 187 187
255 255 255
255 255 255
255 255 255
187 187 187
255 255 255
255 255 255
255 255 255
187 187 187
255 255 255
255 255 255
255 255 255
187 187 187
255 255 255
255 255 255
255 255 255
187 187 187
255 255 255
255 255 255
255 255 255
187 187 187
255 255 255
255 255 255
255 255 255
187 187 187
255 255 255
255 255 255
255 255 255
187 187 187
255 255 255
255 255 255
255 255 255
187 187 187
255 255 255
255 255 255
255 255 255
187 187 187
255 255 255
255 255 255
255 255 255
187 187 187
255 255 255
255 255 255
255 255 255
187 187 187
255 255 255
255 255 255
255 255 255
187 187 187
255 255 255
255 255 255
255 255 255
187 187 187
255 255 255
255 255 255
255 255 255
187 187 187
255 255 255
255 255 255
255 255 255
187 187 187
255 255 255
255 255 255
255 255 255
187 187 187
255 255 255
255 255 255
255 255 255
187 187 187
255 255 255
255 255 255
255 255 255
187 187 187
255 255 255
255 255 255
255 255 255
187 187 187
255 255 255
255 255 255
255 255 255
187 187 187
255 255 255
255 255 255
255 255 255
187 187 187
255 255 255
255 255 255
255 255 255
187 187 187
255 255 255
255 255 255
255 255 255
187 187 187
255 255 255
255 255 255
255 255 255
187 187 187
255 255 255
255 255 255
255 255 255
187 187 187
255 255 255
255 255 255
255 255 255
187 187 187
255 255 255
255 255 255
255 255 255
187 187 187
255 255 255
255 255 255
255 255 255
187 187 187
255 255 255
255 255 255
255 255 255
187 187 187
255 255 255
255 255 255
255 255 255
187 187 187
255 255 255
255 255 255
255 255 255
187 187 187
255 255 255
255 255 255
255 255 255
187 187 187
255 255 255
255 255 255
255 255 255
187 187 187
255 255 255
255 255 255
255 255 255
187 187 187
255 255 255
255 255 255
255 255 255
187 187 187
255 255 255
255 255 255
255 255 255
187 187 187
255 255 255
255 255 255
255 255 255
187 187 187
255 255 255
255 255 255
255 255 255
187 187 187
255 255 255
255 255 255
255 255 255
187 187 187
255 255 255
255 255 255
255 255 255
187 187 187
255 255 255
255 255 255
255 255 255
187 187 187
255 255 255
255 255 255
255 255 255
187 187 187
255 255 255
255 255 255
255 255 255
187 187 187
255 255 255
255 255 255
255 255 255
187 187 187
255 255 255
255 255 255
255 255 255
187 187 187
255 255 255
255 255 255
255 255 255
187 187 187
255 255 255
255 255 255
255 255 255
187 187 187
255 255 255
255 255 255
255 255 255
187 187 187
255 255 255
255 255 255
255 255 255
187 187 187
255 255 255
255 255 255
255 255 255
187 187 187
255 255 255
255 255 255
255 255 255
187 187 187
255 255 255
255 255 255
255 255 255
187 187 187
255 255 255
255 255 255
255 255 255
187 187 187
255 255 255
255 255 255
255 255 255
187 187 187
255 255 255
255 255 255
255 255 255
187 187 187
255 255 255
255 255 255
255 255 255
187 187 187
255 255 255
255 255 255
255 255 255
187 187 187
255 255 255
255 255 255
255 255 255
187 187 187
255 255 255
255 255 255
255 255 255
187 187 187
255 255 255
255 255 255
255 255 255
187 187 187
255 255 255
255 255 255
255 255 255
187 187 187
255 255 255
255 255 255
255 255 255
187 187 187
255 255 255
255 255 255
255 255 255
187 187 187
255 255 255
255 255 255
255 255 255
187 187 187
255 255 255
255 255 255
255 255 255
187 187 187
255 255 255
255 255 255
255 255 255
187 187 187
255 255 255
255 255 255
255 255 255
187 187 187
255 255 255
255 255 255
255 255 255
187 187 187
255 255 255
255 255 255
255 255 255
187 187 187
255 255 255
255 255 255
255 255 255
187 187 187
255 255 255
255 255 255
255 255 255
187 187 187
255 255 255
255 255 255
255 255 255
187 187 187
255 255 255
255 255 255
255 255 255
187 187 187
255 255 255
255 255 255
255 255 255
187 187 187
255 255 255
255 255 255
255 255 255
187 187 187
255 255 255
255 255 255
255 255 255
187 187 187
255 255 255
255 255 255
255 255 255
187 187 187
255 255 255
255 255 255
255 255 255
187 187 187
255 255 255
255 255 255
255 255 255
187 187 187
255 255 255
255 255 255
255 255 255
187 187 187
255 255 255
255 255 255
255 255 255
187 187 187
255 255 255
255 255 255
255 255 255
187 187 187
255 255 255
255 255 255
255 255 255
187 187 187
255 255 255
255 255 255
255 255 255
187 187 187
255 255 255
255 255 255
255 255 255
187 187 187
255 255 255
255 255 255
255 255 255
187 187 187
255 255 255
255 255 255
255 255 255
187 187 187
255 255 255
255 255 255
255 255 255
187 187 187
255 255 255
255 255 255
255 255 255
187 187 187
255 255 255
255 255 255
255 255 255
187 187 187
255 255 255
255 255 255
255 255 255
187 187 187
255 255 255
255 255 255
255 255 255
187 187 187
255 255 255
255 255 255
255 255 255
187 187 187
255 255 255
255 255 255
255 255 255
187 187 187
255 255 255
255 255 255
255 255 255
187 187 187
255 255 255
255 255 255
255 255 255
187 187 187
255 255 255
255 255 255
255 255 255
187 187 187
255 255 255
255 255 255
255 255 255
187 187 187
255 255 255
255 255 255
255 255 255
187 187 187
255 255 255
255 255 255
255 255 255
187 187 187
255 255 255
255 255 255
255 255 255
187 187 187
255 255 255
255 255 255
255 255 255
187 187 187
255 255 255
255 255 255
255 255 255
187 187 187
255 255 255
255 255 255
255 255 255
187 187 187
255 255 255
255 255 255
255 255 255
187 187 187
255 255 255
255 255 255
255 255 255
187 187 187
255 255 255
255 255 255
255 255 255
187 187 187
255 255 255
255 255 255
255 255 255
187 187 187
255 255 255
255 255 255
255 255 255
187 187 187
255 255 255
255 255 255
255 255 255
187 187 187
255 255 255
255 255 255
255 255 255
187 187 187
255 255 255
255 255 255
255 255 255
187 187 187
255 255 255
255 255 255
255 255 255
187 187 187
255 255 255
255 255 255
255 255 255
187 187 187
255 255 255
255 255 255
255 255 255
187 187 187
255 255 255
255 255 255
255 255 255
187 187 187
255 255 255
255 255 255
255 255 255
187 187 187
255 255 255
255 255 255
255 255 255
187 187 187
255 255 255
255 255 255
255 255 255
187 187 187
255 255 255
255 255 255
255 255 255
187 187 187
255 255 255
255 255 255
255 255 255
187 187 187
255 255 255
255 255 255
255 255 255
187 187 187
255 255 255
255 255 255
255 255 255
187 187 187
255 255 255
255 255 255
255 255 255
187 187 187
255 255 255
255 255 255
255 255 255
187 187 187
255 255 255
255 255 255
255 255 255
187 187 187
255 255 255
255 255 255
255 255 255
187 187 187
255 255 255
255 255 255
255 255 255
187 187 187
255 255 255
255 255 255
255 255 255
187 187 187
255 255 255
255 255 255
255 255 255
187 187 187
255 255 255
255 255 255
255 255 255
187 187 187
255 255 255
255 255 255
255 255 255
187 187 187
255 255 255
255 255 255
255 255 255
187 187 187
255 255 255
255 255 255
255 255 255
187 187 187
255 255 255
255 255 255
255 255 255
187 187 187
255 255 255
255 255 255
255 255 255
187 187 187
255 255 255
255 255 255
255 255 255
187 187 187
255 255 255
255 255 255
255 255 255
187 187 187
255 255 255
255 255 255
255 255 255
187 187 187
255 255 255
255 255 255
255 255 255
187 187 187
255 255 255
255 255 255
255 255 255
187 187 187
255 255 255
255 255 255
255 255 255
187 187 187
255 255 255
255 255 255
255 255 255
187 187 187
255 255 255
255 255 255
255 255 255
187 187 187
255 255 255
255 255 255
255 255 255
187 187 187
255 255 255
255 255 255
255 255 255
187 187 187
255 255 255
255 255 255
255 255 255
187 187 187
255 255 255
255 255 255
255 255 255
187 187 187
255 255 255
255 255 255
255 255 255
187 187 187
255 255 255
255 255 255
255 255 255
187 187 187
255 255 255
255 255 255
255 255 255
187 187 187
255 255 255
255 255 255
255 255 255
187 187 187
255 255 255
255 255 255
255 255 255
187 187 187
255 255 255
255 255 255
255 255 255
187 187 187
255 255 255
255 255 255
255 255 255
187 187 187
255 255 255
255 255 255
255 255 255
187 187 187
255 255 255
255 255 255
255 255 255
187 187 187
255 255 255
255 255 255
255 255 255
187 187 187
255 255 255
255 255 255
255 255 255
187 187 187
255 255 255
255 255 255
255 255 255
187 187 187
255 255 255
255 255 255
255 255 255
187 187 187
255 255 255
255 255 255
255 255 255
187 187 187
255 255 255
255 255 255
255 255 255
187 187 187
255 255 255
255 255 255
255 255 255
187 187 187
255 255 255
255 255 255
255 255 255
187 187 187
255 255 255
255 255 255
255 255 255
187 187 187
255 255 255
255 255 255
255 255 255
187 187 187
255 255 255
255 255 255
255 255 255
187 187 187
255 255 255
255 255 255
255 255 255
187 187 187
255 255 255
255 255 255
255 255 255
187 187 187
255 255 255
255 255 255
255 255 255
187 187 187
255 255 255
255 255 255
255 255 255
187 187 187
255 255 255
255 255 255
255 255 255
187 187 187
255 255 255
255 255 255
255 255 255
187 187 187
255 255 255
255 255 255
255 255 255
187 187 187
255 255 255
255 255 255
255 255 255
187 187 187
255 255 255
255 255 255
255 255 255
187 187 187
255 255 255
255 255 255
255 255 255
187 187 187
255 255 255
255 255 255
255 255 255
187 187 187
255 255 255
255 255 255
255 255 255
187 187 187
255 255 255
255 255 255
255 255 255
187 187 187
255 255 255
255 255 255
255 255 255
187 187 187
255 255 255
255 255 255
255 255 255
187 187 187
255 255 255
255 255 255
255 255 255
187 187 187
255 255 255
255 255 255
255 255 255
187 187 187
255 255 255
255 255 255
255 255 255
187 187 187
255 255 255
255 255 255
255 255 255
187 187 187
255 255 255
255 255 255
255 255 255
187 187 187
255 255 255
255 255 255
255 255 255
187 187 187
255 255 255
255 255 255
255 255 255
187 187 187
255 255 255
255 255 255
255 255 255
187 187 187
255 255 255
255 255 255
255 255 255
187 187 187
255 255 255
255 255 255
255 255 255
187 187 187
255 255 255
255 255 255
255 255 255
187 187 187
255 255 255
255 255 255
255 255 255
187 187 187
255 255 255
255 255 255
255 255 255
187 187 187
255 255 255
255 255 255
255 255 255
187 187 187
255 255 255
255 255 255
255 255 255
187 187 187
255 255 255
255 255 255
255 255 255
187 187 187
255 255 255
255 255 255
255 255 255
187 187 187
255 255 255
255 255 255
255 255 255
187 187 187
255 255 255
255 255 255
255 255 255
187 187 187
255 255 255
255 255 255
255 255 255
187 187 187
255 255 255
255 255 255
255 255 255
187 187 187
255 255 255
255 255 255
255 255 255
187 187 187
255 255 255
255 255 255
255 255 255
187 187 187
255 255 255
255 255 255
255 255 255
187 187 187
255 255 255
255 255 255
255 255 255
187 187 187
255 255 255
255 255 255
255 255 255
187 187 187
255 255 255
255 255 255
255 255 255
187 187 187
255 255 255
255 255 255
255 255 255
187 187 187
255 255 255
255 255 255
255 255 255
187 187 187
255 255 255
255 255 255
255 255 255
187 187 187
255 255 255
255 255 255
255 255 255
187 187 187
255 255 255
255 255 255
255 255 255
187 187 187
255 255 255
255 255 255
255 255 255
187 187 187
255 255 255
255 255 255
255 255 255
187 187 187
255 255 255
255 255 255
255 255 255
187 187 187
255 255 255
255 255 255
255 255 255
187 187 187
255 255 255
255 255 255
255 255 255
187 187 187
255 255 255
255 255 255
255 255 255
187 187 187
255 255 255
255 255 255
255 255 255
187 187 187
255 255 255
255 255 255
255 255 255
187 187 187
255 255 255
255 255 255
255 255 255
187 187 187
255 255 255
255 255 255
255 255 255
187 187 187
255 255 255
255 255 255
255 255 255
187 187 187
255 255 255
255 255 255
255 255 255
187 187 187
255 255 255
255 255 255
255 255 255
187 187 187
255 255 255
255 255 255
255 255 255
187 187 187
255 255 255
255 255 255
255 255 255
187 187 187
255 255 255
255 255 255
255 255 255
187 187 187
255 255 255
255 255 255
255 255 255
187 187 187
255 255 255
255 255 255
255 255 255
187 187 187
255 255 255
255 255 255
255 255 255
187 187 187
255 255 255
255 255 255
255 255 255
187 187 187
255 255 255
255 255 255
255 255 255
187 187 187
255 255 255
255 255 255
255 255 255
187 187 187
255 255 255
255 255 255
255 255 255
187 187 187
255 255 255
255 255 255
255 255 255
187 187 187
255 255 255
255 255 255
255 255 255
187 187 187
255 255 255
255 255 255
255 255 255
187 187 187
255 255 255
255 255 255
255 255 255
187 187 187
255 255 255
255 255 255
255 255 255
187 187 187
255 255 255
255 255 255
255 255 255
187 187 187
255 255 255
255 255 255
255 255 255
187 187 187
255 255 255
255 255 255
255 255 255
187 187 187
255 255 255
255 255 255
255 255 255
187 187 187
255 255 255
255 255 255
255 255 255
187 187 187
255 255 255
255 255 255
255 255 255
187 187 187
255 255 255
255 255 255
255 255 255
187 187 187
255 255 255
255 255 255
255 255 255
187 187 187
255 255 255
255 255 255
255 255 255
187 187 187
255 255 255
255 255 255
255 255 255
187 187 187
255 255 255
255 255 255
255 255 255
187 187 187
255 255 255
255 255 255
255 255 255
187 187 187
255 255 255
255 255 255
255 255 255
187 187 187
255 255 255
255 255 255
255 255 255
187 187 187
255 255 255
255 255 255
255 255 255
187 187 187
255 255 255
255 255 255
255 255 255
187 187 187
255 255 255
255 255 255
255 255 255
187 187 187
255 255 255
255 255 255
255 255 255
187 187 187
255 255 255
255 255 255
255 255 255
187 187 187
255 255 255
255 255 255
255 255 255
187 187 187
255 255 255
255 255 255
255 255 255
187 187 187
255 255 255
255 255 255
255 255 255
187 187 187
255 255 255
255 255 255
255 255 255
187 187 187
255 255 255
255 255 255
255 255 255
187 187 187
255 255 255
255 255 255
255 255 255
187 187 187
255 255 255
255 255 255
255 255 255
187 187 187
255 255 255
255 255 255
255 255 255
187 187 187
255 255 255
255 255 255
255 255 255
187 187 187
255 255 255
255 255 255
255 255 255
187 187 187
255 255 255
255 255 255
255 255 255
187 187 187
255 255 255
255 255 255
255 255 255
187 187 187
255 255 255
255 255 255
255 255 255
187 187 187
255 255 255
255 255 255
255 255 255
187 187 187
255 255 255
255 255 255
255 255 255
187 187 187
255 255 255
255 255 255
255 255 255
187 187 187
255 255 255
255 255 255
255 255 255
187 187 187
255 255 255
255 255 255
255 255 255
187 187 187
255 255 255
255 255 255
255 255 255
187 187 187
255 255 255
255 255 255
255 255 255
187 187 187
255 255 255
255 255 255
255 255 255
187 187 187
255 255 255
255 255 255
255 255 255
187 187 187
255 255 255
255 255 255
255 255 255
187 187 187
255 255 255
255 255 255
255 255 255
187 187 187
255 255 255
255 255 255
255 255 255
187 187 187
255 255 255
255 255 255
255 255 255
187 187 187
255 255 255
255 255 255
255 255 255
187 187 187
255 255 255
255 255 255
255 255 255
187 187 187
255 255 255
255 255 255
255 255 255
187 187 187
255 255 255
255 255 255
255 255 255
187 187 187
255 255 255
255 255 255
255 255 255
187 187 187
255 255 255
255 255 255
255 255 255
187 187 187
255 255 255
255 255 255
255 255 255
187 187 187
255 255 255
255 255 255
255 255 255
187 187 187
255 255 255
255 255 255
255 255 255
187 187 187
255 255 255
255 255 255
255 255 255
187 187 187
255 255 255
255 255 255
255 255 255
187 187 187
255 255 255
255 255 255
255 255 255
187 187 187
255 255 255
255 255 255
255 255 255
187 187 187
255 255 255
255 255 255
255 255 255
187 187 187
255 255 255
255 255 255
255 255 255
187 187 187
255 255 255
255 255 255
255 255 255
187 187 187
255 255 255
255 255 255
255 255 255
187 187 187
255 255 255
255 255 255
255 255 255
187 187 187
255 255 255
255 255 255
255 255 255
187 187 187
255 255 255
255 255 255
255 255 255
187 187 187
255 255 255
255 255 255
255 255 255
187 187 187
255 255 255
255 255 255
255 255 255
187 187 187
255 255 255
255 255 255
255 255 255
187 187 187
255 255 255
255 255 255
255 255 255
187 187 187
255 255 255
255 255 255
255 255 255
187 187 187
255 255 255
255 255 255
255 255 255
187 187 187
255 255 255
255 255 255
255 255 255
187 187 187
255 255 255
255 255 255
255 255 255
187 187 187
255 255 255
255 255 255
255 255 255
187 187 187
255 255 255
255 255 255
255 255 255
187 187 187
255 255 255
255 255 255
255 255 255
187 187 187
255 255 255
255 255 255
255 255 255
187 187 187
255 255 255
255 255 255
255 255 255
187 187 187
255 255 255
255 255 255
255 255 255
187 187 187
255 255 255
255 255 255
255 255 255
187 187 187
255 255 255
255 255 255
255 255 255
187 187 187
255 255 255
255 255 255
255 255 255
187 187 187
255 255 255
255 255 255
255 255 255
187 187 187
255 255 255
255 255 255
255 255 255
187 187 187
255 255 255
255 255 255
255 255 255
187 187 187
255 255 255
255 255 255
255 255 255
187 187 187
255 255 255
255 255 255
255 255 255
187 187 187
255 255 255
255 255 255
255 255 255
187 187 187
255 255 255
255 255 255
255 255 255
187 187 187
255 255 255
255 255 255
255 255 255
187 187 187
255 255 255
255 255 255
255 255 255
187 187 187
255 255 255
255 255 255
255 255 255
187 187 187
255 255 255
255 255 255
255 255 255
187 187 187
255 255 255
255 255 255
255 255 255
187 187 187
255 255 255
255 255 255
255 255 255
187 187 187
255 255 255
255 255 255
255 255 255
187 187 187
255 255 255
255 255 255
255 255 255
187 187 187
255 255 255
255 255 255
255 255 255
187 187 187
255 255 255
255 255 255
255 255 255
187 187 187
255 255 255
255 255 255
255 255 255
187 187 187
255 255 255
255 255 255
255 255 255
187 187 187
255 255 255
255 255 255
255 255 255
187 187 187
255 255 255
255 255 255
255 255 255
187 187 187
255 255 255
255 255 255
255 255 255
187 187 187
255 255 255
255 255 255
255 255 255
187 187 187
255 255 255
255 255 255
255 255 255
187 187 187
255 255 255
255 255 255
255 255 255
187 187 187
255 255 255
255 255 255
255 255 255
187 187 187
255 255 255
255 255 255
255 255 255
187 187 187
255 255 255
255 255 255
255 255 255
187 187 187
255 255 255
255 255 255
255 255 255
187 187 187
255 255 255
255 255 255
255 255 255
187 187 187
255 255 255
255 255 255
255 255 255
187 187 187
255 255 255
255 255 255
255 255 255
187 187 187
255 255 255
255 255 255
255 255 255
187 187 187
255 255 255
255 255 255
255 255 255
187 187 187
255 255 255
255 255 255
255 255 255
187 187 187
255 255 255
255 255 255
255 255 255
187 187 187
255 255 255
255 255 255
255 255 255
187 187 187
255 255 255
255 255 255
255 255 255
187 187 187
255 255 255
255 255 255
255 255 255
187 187 187
255 255 255
255 255 255
255 255 255
187 187 187
255 255 255
255 255 255
255 255 255
187 187 187
255 255 255
255 255 255
255 255 255
187 187 187
255 255 255
255 255 255
255 255 255
187 187 187
255 255 255
255 255 255
255 255 255
187 187 187
255 255 255
255 255 255
255 255 255
187 187 187
255 255 255
255 255 255
255 255 255
187 187 187
255 255 255
255 255 255
255 255 255
187 187 187
255 255 255
255 255 255
255 255 255
187 187 187
255 255 255
255 255 255
255 255 255
187 187 187
255 255 255
255 255 255
255 255 255
187 187 187
255 255 255
255 255 255
255 255 255
187 187 187
255 255 255
255 255 255
255 255 255
187 187 187
255 255 255
255 255 255
255 255 255
187 187 187
255 255 255
255 255 255
255 255 255
187 187 187
255 255 255
255 255 255
255 255 255
187 187 187
255 255 255
255 255 255
255 255 255
187 187 187
255 255 255
255 255 255
255 255 255
187 187 187
255 255 255
255 255 255
255 255 255
187 187 187
255 255 255
255 255 255
255 255 255
187 187 187
255 255 255
255 255 255
255 255 255
187 187 187
255 255 255
255 255 255
255 255 255
187 187 187
255 255 255
255 255 255
255 255 255
187 187 187
255 255 255
255 255 255
255 255 255
187 187 187
255 255 255
255 255 255
255 255 255
187 187 187
255 255 255
255 255 255
255 255 255
187 187 187
255 255 255
255 255 255
255 255 255
187 187 187
255 255 255
255 255 255
255 255 255
187 187 187
255 255 255
255 255 255
255 255 255
187 187 187
255 255 255
255 255 255
255 255 255
187 187 187
255 255 255
255 255 255
255 255 255
187 187 187
255 255 255
255 255 255
255 255 255
187 187 187
255 255 255
255 255 255
255 255 255
187 187 187
255 255 255
255 255 255
255 255 255
187 187 187
255 255 255
255 255 255
255 255 255
187 187 187
255 255 255
255 255 255
255 255 255
187 187 187
255 255 255
255 255 255
255 255 255
187 187 187
255 255 255
255 255 255
255 255 255
187 187 187
255 255 255
255 255 255
255 255 255
187 187 187
255 255 255
255 255 255
255 255 255
187 187 187
255 255 255
255 255 255
255 255 255
187 187 187
255 255 255
255 255 255
255 255 255
187 187 187
255 255 255
255 255 255
255 255 255
187 187 187
255 255 255
255 255 255
255 255 255
187 187 187
255 255 255
255 255 255
255 255 255
187 187 187
255 255 255
255 255 255
255 255 255
187 187 187
255 255 255
255 255 255
255 255 255
187 187 187
255 255 255
255 255 255
255 255 255
187 187 187
255 255 255
255 255 255
255 255 255
187 187 187
255 255 255
255 255 255
255 255 255
187 187 187
255 255 255
255 255 255
255 255 255
187 187 187
255 255 255
255 255 255
255 255 255
187 187 187
255 255 255
255 255 255
255 255 255
187 187 187
255 255 255
255 255 255
255 255 255
187 187 187
255 255 255
255 255 255
255 255 255
187 187 187
255 255 255
255 255 255
255 255 255
187 187 187
255 255 255
255 255 255
255 255 255
187 187 187
255 255 255
255 255 255
255 255 255
187 187 187
255 255 255
255 255 255
255 255 255
187 187 187
255 255 255
255 255 255
255 255 255
187 187 187
255 255 255
255 255 255
255 255 255
187 187 187
255 255 255
255 255 255
255 255 255
187 187 187
255 255 255
255 255 255
255 255 255
187 187 187
255 255 255
255 255 255
255 255 255
187 187 187
255 255 255
255 255 255
255 255 255
187 187 187
255 255 255
255 255 255
255 255 255
187 187 187
255 255 255
255 255 255
255 255 255
187 187 187
255 255 255
255 255 255
255 255 255
187 187 187
255 255 255
255 255 255
255 255 255
187 187 187
255 255 255
255 255 255
255 255 255
187 187 187
255 255 255
255 255 255
255 255 255
187 187 187
255 255 255
255 255 255
255 255 255
187 187 187
255 255 255
255 255 255
255 255 255
187 187 187
255 255 255
255 255 255
255 255 255
187 187 187
255 255 255
255 255 255
255 255 255
187 187 187
255 255 255
255 255 255
255 255 255
187 187 187
255 255 255
255 255 255
255 255 255
187 187 187
255 255 255
255 255 255
255 255 255
187 187 187
255 255 255
255 255 255
255 255 255
187 187 187
255 255 255
255 255 255
255 255 255
187 187 187
255 255 255
255 255 255
255 255 255
187 187 187
255 255 255
255 255 255
255 255 255
187 187 187
255 255 255
255 255 255
255 255 255
187 187 187
255 255 255
255 255 255
255 255 255
187 187 187
255 255 255
255 255 255
255 255 255
187 187 187
255 255 255
255 255 255
255 255 255
187 187 187
255 255 255
255 255 255
255 255 255
187 187 187
255 255 255
255 255 255
255 255 255
187 187 187
255 255 255
255 255 255
255 255 255
187 187 187
255 255 255
255 255 255
255 255 255
187 187 187
255 255 255
255 255 255
255 255 255
187 187 187
255 255 255
255 255 255
255 255 255
187 187 187
255 255 255
255 255 255
255 255 255
187 187 187
255 255 255
255 255 255
255 255 255
187 187 187
255 255 255
255 255 255
255 255 255
187 187 187
255 255 255
255 255 255
255 255 255
187 187 187
255 255 255
255 255 255
255 255 255
187 187 187
255 255 255
255 255 255
255 255 255
187 187 187
255 255 255
255 255 255
255 255 255
187 187 187
255 255 255
255 255 255
255 255 255
187 187 187
255 255 255
255 255 255
255 255 255
187 187 187
255 255 255
255 255 255
255 255 255
187 187 187
255 255 255
255 255 255
255 255 255
187 187 187
255 255 255
255 255 255
255 255 255
187 187 187
255 255 255
255 255 255
255 255 255
187 187 187
255 255 255
255 255 255
255 255 255
187 187 187
255 255 255
255 255 255
255 255 255
187 187 187
255 255 255
255 255 255
255 255 255
187 187 187
255 255 255
255 255 255
255 255 255
187 187 187
255 255 255
255 255 255
255 255 255
187 187 187
255 255 255
255 255 255
255 255 255
187 187 187
255 255 255
255 255 255
255 255 255
187 187 187
255 255 255
255 255 255
255 255 255
187 187 187
255 255 255
255 255 255
255 255 255
187 187 187
255 255 255
255 255 255
255 255 255
187 187 187
255 255 255
255 255 255
255 255 255
187 187 187
255 255 255
255 255 255
255 255 255
187 187 187
255 255 255
255 255 255
255 255 255
187 187 187
255 255 255
255 255 255
255 255 255
187 187 187
255 255 255
255 255 255
255 255 255
187 187 187
255 255 255
255 255 255
255 255 255
187 187 187
255 255 255
255 255 255
255 255 255
187 187 187
255 255 255
255 255 255
255 255 255
187 187 187
255 255 255
255 255 255
255 255 255
187 187 187
255 255 255
255 255 255
255 255 255
187 187 187
255 255 255
255 255 255
255 255 255
187 187 187
255 255 255
255 255 255
255 255 255
187 187 187
255 255 255
255 255 255
255 255 255
187 187 187
255 255 255
255 255 255
255 255 255
187 187 187
255 255 255
255 255 255
255 255 255
187 187 187
255 255 255
255 255 255
255 255 255
187 187 187
255 255 255
255 255 255
255 255 255
187 187 187
255 255 255
255 255 255
255 255 255
187 187 187
255 255 255
255 255 255
255 255 255
187 187 187
255 255 255
255 255 255
255 255 255
187 187 187
255 255 255
255 255 255
255 255 255
187 187 187
255 255 255
255 255 255
255 255 255
187 187 187
255 255 255
255 255 255
255 255 255
187 187 187
255 255 255
255 255 255
255 255 255
187 187 187
255 255 255
255 255 255
255 255 255
187 187 187
255 255 255
255 255 255
255 255 255
187 187 187
255 255 255
255 255 255
255 255 255
187 187 187
255 255 255
255 255 255
255 255 255
187 187 187
255 255 255
255 255 255
255 255 255
187 187 187
255 255 255
255 255 255
255 255 255
187 187 187
255 255 255
255 255 255
255 255 255
187 187 187
255 255 255
255 255 255
255 255 255
187 187 187
255 255 255
255 255 255
255 255 255
187 187 187
255 255 255
255 255 255
255 255 255
187 187 187
255 255 255
255 255 255
255 255 255
187 187 187
255 255 255
255 255 255
255 255 255
187 187 187
255 255 255
255 255 255
255 255 255
187 187 187
255 255 255
255 255 255
255 255 255
187 187 187
255 255 255
255 255 255
255 255 255
187 187 187
255 255 255
255 255 255
255 255 255
187 187 187
255 255 255
255 255 255
255 255 255
187 187 187
255 255 255
255 255 255
255 255 255
187 187 187
255 255 255
255 255 255
255 255 255
187 187 187
255 255 255
255 255 255
255 255 255
187 187 187
255 255 255
255 255 255
255 255 255
187 187 187
255 255 255
255 255 255
255 255 255
187 187 187
255 255 255
255 255 255
255 255 255
187 187 187
255 255 255
255 255 255
255 255 255
187 187 187
255 255 255
255 255 255
255 255 255
187 187 187
255 255 255
255 255 255
255 255 255
187 187 187
255 255 255
255 255 255
255 255 255
187 187 187
255 255 255
255 255 255
255 255 255
187 187 187
255 255 255
255 255 255
255 255 255
187 187 187
255 255 255
255 255 255
255 255 255
187 187 187
255 255 255
255 255 255
255 255 255
187 187 187
255 255 255
255 255 255
255 255 255
187 187 187
255 255 255
255 255 255
255 255 255
187 187 187
255 255 255
255 255 255
255 255 255
187 187 187
255 255 255
255 255 255
255 255 255
187 187 187
255 255 255
255 255 255
255 255 255
187 187 187
255 255 255
255 255 255
255 255 255
187 187 187
255 255 255
255 255 255
255 255 255
187 187 187
255 255 255
255 255 255
255 255 255
187 187 187
255 255 255
255 255 255
255 255 255
187 187 187
255 255 255
255 255 255
255 255 255
187 187 187
255 255 255
255 255 255
255 255 255
187 187 187
255 255 255
255 255 255
255 255 255
187 187 187
255 255 255
255 255 255
255 255 255
187 187 187
255 255 255
255 255 255
255 255 255
187 187 187
255 255 255
255 255 255
255 255 255
187 187 187
255 255 255
255 255 255
255 255 255
187 187 187
255 255 255
255 255 255
255 255 255
187 187 187
255 255 255
255 255 255
255 255 255
187 187 187
255 255 255
255 255 255
255 255 255
187 187 187
255 255 255
255 255 255
255 255 255
187 187 187
255 255 255
255 255 255
255 255 255
187 187 187
255 255 255
255 255 255
255 255 255
187 187 187
255 255 255
255 255 255
255 255 255
187 187 187
255 255 255
255 255 255
255 255 255
187 187 187
255 255 255
255 255 255
255 255 255
187 187 187
255 255 255
255 255 255
255 255 255
187 187 187
255 255 255
255 255 255
255 255 255
187 187 187
255 255 255
255 255 255
255 255 255
187 187 187
255 255 255
255 255 255
255 255 255
187 187 187
255 255 255
255 255 255
255 255 255
187 187 187
255 255 255
255 255 255
255 255 255
187 187 187
255 255 255
255 255 255
255 255 255
187 187 187
255 255 255
255 255 255
255 255 255
187 187 187
255 255 255
255 255 255
255 255 255
187 187 187
255 255 255
255 255 255
255 255 255
187 187 187
255 255 255
255 255 255
255 255 255
187 187 187
255 255 255
255 255 255
255 255 255
187 187 187
255 255 255
255 255 255
255 255 255
187 187 187
255 255 255
255 255 255
255 255 255
187 187 187
255 255 255
255 255 255
255 255 255
187 187 187
255 255 255
255 255 255
255 255 255
187 187 187
255 255 255
255 255 255
255 255 255
187 187 187
255 255 255
255 255 255
255 255 255
187 187 187
255 255 255
255 255 255
255 255 255
187 187 187
255 255 255
255 255 255
255 255 255
187 187 187
255 255 255
255 255 255
255 255 255
187 187 187
255 255 255
255 255 255
255 255 255
187 187 187
255 255 255
255 255 255
255 255 255
187 187 187
255 255 255
255 255 255
255 255 255
187 187 187
255 255 255
255 255 255
255 255 255
187 187 187
255 255 255
255 255 255
255 255 255
187 187 187
255 255 255
255 255 255
255 255 255
187 187 187
255 255 255
255 255 255
255 255 255
187 187 187
255 255 255
255 255 255
255 255 255
187 187 187
255 255 255
255 255 255
255 255 255
187 187 187
255 255 255
255 255 255
255 255 255
187 187 187
255 255 255
255 255 255
255 255 255
187 187 187
255 255 255
255 255 255
255 255 255
187 187 187
255 255 255
255 255 255
255 255 255
187 187 187
255 255 255
255 255 255
255 255 255
187 187 187
255 255 255
255 255 255
255 255 255
187 187 187
255 255 255
255 255 255
255 255 255
187 187 187
255 255 255
255 255 255
255 255 255
187 187 187
255 255 255
255 255 255
255 255 255
187 187 187
255 255 255
255 255 255
255 255 255
187 187 187
255 255 255
255 255 255
255 255 255
187 187 187
255 255 255
255 255 255
255 255 255
187 187 187
255 255 255
255 255 255
255 255 255
187 187 187
255 255 255
255 255 255
255 255 255
187 187 187
255 255 255
255 255 255
255 255 255
187 187 187
255 255 255
255 255 255
255 255 255
187 187 187
255 255 255
255 255 255
255 255 255
187 187 187
255 255 255
255 255 255
255 255 255
187 187 187
255 255 255
255 255 255
255 255 255
187 187 187
255 255 255
255 255 255
255 255 255
187 187 187
255 255 255
255 255 255
255 255 255
187 187 187
255 255 255
255 255 255
255 255 255
187 187 187
255 255 255
255 255 255
255 255 255
187 187 187
255 255 255
255 255 255
255 255 255
187 187 187
255 255 255
255 255 255
255 255 255
187 187 187
255 255 255
255 255 255
255 255 255
187 187 187
255 255 255
255 255 255
255 255 255
187 187 187
255 255 255
255 255 255
255 255 255
187 187 187
255 255 255
255 255 255
255 255 255
187 187 187
255 255 255
255 255 255
255 255 255
187 187 187
255 255 255
255 255 255
255 255 255
187 187 187
255 255 255
255 255 255
255 255 255
187 187 187
255 255 255
255 255 255
255 255 255
187 187 187
255 255 255
255 255 255
255 255 255
187 187 187
255 255 255
255 255 255
255 255 255
187 187 187
255 255 255
255 255 255
255 255 255
187 187 187
255 255 255
255 255 255
255 255 255
187 187 187
255 255 255
255 255 255
255 255 255
187 187 187
255 255 255
255 255 255
255 255 255
187 187 187
255 255 255
255 255 255
255 255 255
187 187 187
255 255 255
255 255 255
255 255 255
187 187 187
255 255 255
255 255 255
255 255 255
187 187 187
255 255 255
255 255 255
255 255 255
187 187 187
255 255 255
255 255 255
255 255 255
187 187 187
255 255 255
255 255 255
255 255 255
187 187 187
255 255 255
255 255 255
255 255 255
187 187 187
255 255 255
255 255 255
255 255 255
187 187 187
255 255 255
255 255 255
255 255 255
187 187 187
255 255 255
255 255 255
255 255 255
187 187 187
255 255 255
255 255 255
255 255 255
187 187 187
255 255 255
255 255 255
255 255 255
187 187 187
255 255 255
255 255 255
255 255 255
187 187 187
255 255 255
255 255 255
255 255 255
187 187 187
255 255 255
255 255 255
255 255 255
187 187 187
255 255 255
255 255 255
255 255 255
187 187 187
255 255 255
255 255 255
255 255 255
187 187 187
255 255 255
255 255 255
255 255 255
187 187 187
255 255 255
255 255 255
255 255 255
187 187 187
255 255 255
255 255 255
255 255 255
187 187 187
255 255 255
255 255 255
255 255 255
187 187 187
255 255 255
255 255 255
255 255 255
187 187 187
255 255 255
255 255 255
255 255 255
187 187 187
255 255 255
255 255 255
255 255 255
187 187 187
255 255 255
255 255 255
255 255 255
187 187 187
255 255 255
255 255 255
255 255 255
187 187 187
255 255 255
255 255 255
255 255 255
187 187 187
255 255 255
255 255 255
255 255 255
187 187 187
255 255 255
255 255 255
255 255 255
187 187 187
255 255 255
255 255 255
255 255 255
187 187 187
255 255 255
255 255 255
255 255 255
187 187 187
255 255 255
255 255 255
255 255 255
187 187 187
255 255 255
255 255 255
255 255 255
187 187 187
255 255 255
255 255 255
255 255 255
187 187 187
255 255 255
255 255 255
255 255 255
187 187 187
255 255 255
255 255 255
255 255 255
187 187 187
255 255 255
255 255 255
255 255 255
187 187 187
255 255 255
255 255 255
255 255 255
187 187 187
255 255 255
255 255 255
255 255 255
187 187 187
255 255 255
255 255 255
255 255 255
187 187 187
255 255 255
255 255 255
255 255 255
187 187 187
255 255 255
255 255 255
255 255 255
187 187 187
255 255 255
255 255 255
255 255 255
187 187 187
255 255 255
255 255 255
255 255 255
187 187 187
255 255 255
255 255 255
255 255 255
187 187 187
255 255 255
255 255 255
255 255 255
187 187 187
255 255 255
255 255 255
255 255 255
187 187 187
255 255 255
255 255 255
255 255 255
187 187 187
255 255 255
255 255 255
255 255 255
187 187 187
255 255 255
255 255 255
255 255 255
187 187 187
255 255 255
255 255 255
255 255 255
187 187 187
255 255 255
255 255 255
255 255 255
187 187 187
255 255 255
255 255 255
255 255 255
187 187 187
255 255 255
255 255 255
255 255 255
187 187 187
255 255 255
255 255 255
255 255 255
187 187 187
255 255 255
255 255 255
255 255 255
187 187 187
255 255 255
255 255 255
255 255 255
187 187 187
255 255 255
255 255 255
255 255 255
187 187 187
255 255 255
255 255 255
255 255 255
187 187 187
255 255 255
255 255 255
255 255 255
187 187 187
255 255 255
255 255 255
255 255 255
187 187 187
255 255 255
255 255 255
255 255 255
187 187 187
255 255 255
255 255 255
255 255 255
187 187 187
255 255 255
255 255 255
255 255 255
187 187 187
255 255 255
255 255 255
255 255 255
187 187 187
255 255 255
255 255 255
255 255 255
187 187 187
255 255 255
255 255 255
255 255 255
187 187 187
255 255 255
255 255 255
255 255 255
187 187 187
255 255 255
255 255 255
255 255 255
187 187 187
255 255 255
255 255 255
255 255 255
187 187 187
255 255 255
255 255 255
255 255 255
187 187 187
255 255 255
255 255 255
255 255 255
187 187 187
255 255 255
255 255 255
255 255 255
187 187 187
255 255 255
255 255 255
255 255 255
187 187 187
255 255 255
255 255 255
255 255 255
187 187 187
255 255 255
255 255 255
255 255 255
187 187 187
255 255 255
255 255 255
255 255 255
187 187 187
255 255 255
255 255 255
255 255 255
187 187 187
255 255 255
255 255 255
255 255 255
187 187 187
255 255 255
255 255 255
255 255 255
187 187 187
255 255 255
255 255 255
255 255 255
187 187 187
255 255 255
255 255 255
255 255 255
187 187 187
255 255 255
255 255 255
255 255 255
187 187 187
255 255 255
255 255 255
255 255 255
187 187 187
255 255 255
255 255 255
255 255 255
187 187 187
255 255 255
255 255 255
255 255 255
187 187 187
255 255 255
255 255 255
255 255 255
187 187 187
255 255 255
255 255 255
255 255 255
187 187 187
255 255 255
255 255 255
255 255 255
187 187 187
255 255 255
255 255 255
255 255 255
187 187 187
255 255 255
255 255 255
255 255 255
187 187 187
255 255 255
255 255 255
255 255 255
187 187 187
255 255 255
255 255 255
255 255 255
187 187 187
255 255 255
255 255 255
255 255 255
187 187 187
255 255 255
255 255 255
255 255 255
187 187 187
255 255 255
255 255 255
255 255 255
187 187 187
255 255 255
255 255 255
255 255 255
187 187 187
255 255 255
255 255 255
255 255 255
187 187 187
255 255 255
255 255 255
255 255 255
187 187 187
255 255 255
255 255 255
255 255 255
187 187 187
255 255 255
255 255 255
255 255 255
187 187 187
255 255 255
255 255 255
255 255 255
187 187 187
255 255 255
255 255 255
255 255 255
187 187 187
255 255 255
255 255 255
255 255 255
187 187 187
255 255 255
255 255 255
255 255 255
187 187 187
255 255 255
255 255 255
255 255 255
187 187 187
255 255 255
255 255 255
255 255 255
187 187 187
255 255 255
255 255 255
255 255 255
187 187 187
255 255 255
255 255 255
255 255 255
187 187 187
255 255 255
255 255 255
255 255 255
187 187 187
255 255 255
255 255 255
255 255 255
187 187 187
255 255 255
255 255 255
255 255 255
187 187 187
255 255 255
255 255 255
255 255 255
187 187 187
255 255 255
255 255 255
255 255 255
187 187 187
255 255 255
255 255 255
255 255 255
187 187 187
255 255 255
255 255 255
255 255 255
187 187 187
255 255 255
255 255 255
255 255 255
187 187 187
255 255 255
255 255 255
255 255 255
187 187 187
255 255 255
255 255 255
255 255 255
187 187 187
255 255 255
255 255 255
255 255 255
187 187 187
255 255 255
255 255 255
255 255 255
187 187 187
255 255 255
255 255 255
255 255 255
187 187 187
255 255 255
255 255 255
255 255 255
187 187 187
255 255 255
255 255 255
255 255 255
187 187 187
255 255 255
255 255 255
255 255 255
187 187 187
255 255 255
255 255 255
255 255 255
187 187 187
255 255 255
255 255 255
255 255 255
187 187 187
255 255 255
255 255 255
255 255 255
187 187 187
255 255 255
255 255 255
255 255 255
187 187 187
255 255 255
255 255 255
255 255 255
187 187 187
255 255 255
255 255 255
255 255 255
187 187 187
255 255 255
255 255 255
255 255 255
187 187 187
255 255 255
255 255 255
255 255 255
187 187 187
255 255 255
255 255 255
255 255 255
187 187 187
255 255 255
255 255 255
255 255 255
187 187 187
255 255 255
255 255 255
255 255 255
187 187 187
255 255 255
255 255 255
255 255 255
187 187 187
255 255 255
255 255 255
255 255 255
187 187 187
255 255 255
255 255 255
255 255 255
187 187 187
255 255 255
255 255 255
255 255 255
187 187 187
255 255 255
255 255 255
255 255 255
187 187 187
255 255 255
255 255 255
255 255 255
187 187 187
255 255 255
255 255 255
255 255 255
187 187 187
255 255 255
255 255 255
255 255 255
187 187 187
255 255 255
255 255 255
255 255 255
187 187 187
255 255 255
255 255 255
255 255 255
187 187 187
255 255 255
255 255 255
255 255 255
187 187 187
255 255 255
255 255 255
255 255 255
187 187 187
255 255 255
255 255 255
255 255 255
187 187 187
255 255 255
255 255 255
255 255 255
187 187 187
255 255 255
255 255 255
255 255 255
187 187 187
255 255 255
255 255 255
255 255 255
187 187 187
255 255 255
255 255 255
255 255 255
187 187 187
255 255 255
255 255 255
255 255 255
187 187 187
255 255 255
255 255 255
255 255 255
187 187 187
255 255 255
255 255 255
255 255 255
187 187 187
255 255 255
255 255 255
255 255 255
187 187 187
255 255 255
255 255 255
255 255 255
187 187 187
255 255 255
255 255 255
255 255 255
187 187 187
255 255 255
255 255 255
255 255 255
187 187 187
255 255 255
255 255 255
255 255 255
187 187 187
255 255 255
255 255 255
255 255 255
187 187 187
255 255 255
255 255 255
255 255 255
187 187 187
255 255 255
255 255 255
255 255 255
187 187 187
255 255 255
255 255 255
255 255 255
187 187 187
255 255 255
255 255 255
255 255 255
187 187 187
255 255 255
255 255 255
255 255 255
187 187 187
255 255 255
255 255 255
255 255 255
187 187 187
255 255 255
255 255 255
255 255 255
187 187 187
255 255 255
255 255 255
255 255 255
187 187 187
255 255 255
255 255 255
255 255 255
187 187 187
255 255 255
255 255 255
255 255 255
187 187 187
255 255 255
255 255 255
255 255 255
187 187 187
255 255 255
255 255 255
255 255 255
187 187 187
255 255 255
255 255 255
255 255 255
187 187 187
255 255 255
255 255 255
255 255 255
187 187 187
255 255 255
255 255 255
255 255 255
187 187 187
255 255 255
255 255 255
255 255 255
187 187 187
255 255 255
255 255 255
255 255 255
187 187 187
255 255 255
255 255 255
255 255 255
187 187 187
255 255 255
255 255 255
255 255 255
187 187 187
255 255 255
255 255 255
255 255 255
187 187 187
255 255 255
255 255 255
255 255 255
187 187 187
255 255 255
255 255 255
255 255 255
187 187 187
255 255 255
255 255 255
255 255 255
187 187 187
255 255 255
255 255 255
255 255 255
187 187 187
255 255 255
255 255 255
255 255 255
187 187 187
255 255 255
255 255 255
255 255 255
187 187 187
255 255 255
255 255 255
255 255 255
187 187 187
255 255 255
255 255 255
255 255 255
187 187 187
255 255 255
255 255 255
255 255 255
187 187 187
255 255 255
255 255 255
255 255 255
187 187 187
255 255 255
255 255 255
255 255 255
187 187 187
255 255 255
255 255 255
255 255 255
187 187 187
255 255 255
255 255 255
255 255 255
187 187 187
255 255 255
255 255 255
255 255 255
187 187 187
255 255 255
255 255 255
255 255 255
187 187 187
255 255 255
255 255 255
255 255 255
187 187 187
255 255 255
255 255 255
255 255 255
187 187 187
255 255 255
255 255 255
255 255 255
187 187 187
255 255 255
255 255 255
255 255 255
187 187 187
255 255 255
255 255 255
255 255 255
187 187 187
255 255 255
255 255 255
255 255 255
187 187 187
255 255 255
255 255 255
255 255 255
187 187 187
255 255 255
255 255 255
255 255 255
187 187 187
255 255 255
255 255 255
255 255 255
187 187 187
255 255 255
255 255 255
255 255 255
187 187 187
255 255 255
255 255 255
255 255 255
187 187 187
255 255 255
255 255 255
255 255 255
187 187 187
255 255 255
255 255 255
255 255 255
187 187 187
255 255 255
255 255 255
255 255 255
187 187 187
255 255 255
255 255 255
255 255 255
187 187 187
255 255 255
255 255 255
255 255 255
187 187 187
255 255 255
255 255 255
255 255 255
187 187 187
255 255 255
255 255 255
255 255 255
187 187 187
255 255 255
255 255 255
255 255 255
187 187 187
255 255 255
255 255 255
255 255 255
187 187 187
255 255 255
255 255 255
255 255 255
187 187 187
255 255 255
255 255 255
255 255 255
187 187 187
255 255 255
255 255 255
255 255 255
187 187 187
255 255 255
255 255 255
255 255 255
187 187 187
255 255 255
255 255 255
255 255 255
187 187 187
255 255 255
255 255 255
255 255 255
187 187 187
255 255 255
255 255 255
255 255 255
187 187 187
255 255 255
255 255 255
255 255 255
187 187 187
255 255 255
255 255 255
255 255 255
187 187 187
255 255 255
255 255 255
255 255 255
187 187 187
255 255 255
255 255 255
255 255 255
187 187 187
255 255 255
255 255 255
255 255 255
187 187 187
255 255 255
255 255 255
255 255 255
187 187 187
255 255 255
255 255 255
255 255 255
187 187 187
255 255 255
255 255 255
255 255 255
187 187 187
255 255 255
255 255 255
255 255 255
187 187 187
255 255 255
255 255 255
255 255 255
187 187 187
255 255 255
255 255 255
255 255 255
187 187 187
255 255 255
255 255 255
255 255 255
187 187 187
255 255 255
255 255 255
255 255 255
187 187 187
255 255 255
255 255 255
255 255 255
187 187 187
255 255 255
255 255 255
255 255 255
187 187 187
255 255 255
255 255 255
255 255 255
187 187 187
255 255 255
255 255 255
255 255 255
187 187 187
255 255 255
255 255 255
255 255 255
187 187 187
255 255 255
255 255 255
255 255 255
187 187 187
255 255 255
255 255 255
255 255 255
187 187 187
255 255 255
255 255 255
255 255 255
187 187 187
255 255 255
255 255 255
255 255 255
187 187 187
255 255 255
255 255 255
255 255 255
187 187 187
255 255 255
255 255 255
255 255 255
187 187 187
255 255 255
255 255 255
255 255 255
187 187 187
255 255 255
255 255 255
255 255 255
187 187 187
255 255 255
255 255 255
255 255 255
187 187 187
255 255 255
255 255 255
255 255 255
187 187 187
255 255 255
255 255 255
255 255 255
187 187 187
255 255 255
255 255 255
255 255 255
187 187 187
255 255 255
255 255 255
255 255 255
187 187 187
255 255 255
255 255 255
255 255 255
187 187 187
255 255 255
255 255 255
255 255 255
187 187 187
255 255 255
255 255 255
255 255 255
187 187 187
255 255 255
255 255 255
255 255 255
187 187 187
255 255 255
255 255 255
255 255 255
187 187 187
255 255 255
255 255 255
255 255 255
187 187 187
255 255 255
255 255 255
255 255 255
187 187 187
255 255 255
255 255 255
255 255 255
187 187 187
255 255 255
255 255 255
255 255 255
187 187 187
255 255 255
255 255 255
255 255 255
187 187 187
255 255 255
255 255 255
255 255 255
187 187 187
255 255 255
255 255 255
255 255 255
187 187 187
255 255 255
255 255 255
255 255 255
187 187 187
255 255 255
255 255 255
255 255 255
187 187 187
255 255 255
255 255 255
255 255 255
187 187 187
255 255 255
255 255 255
255 255 255
187 187 187
255 255 255
255 255 255
255 255 255
187 187 187
255 255 255
255 255 255
255 255 255
187 187 187
255 255 255
255 255 255
255 255 255
187 187 187
255 255 255
255 255 255
255 255 255
187 187 187
255 255 255
255 255 255
255 255 255
187 187 187
255 255 255
255 255 255
255 255 255
187 187 187
255 255 255
255 255 255
255 255 255
187 187 187
255 255 255
255 255 255
255 255 255
187 187 187
255 255 255
255 255 255
255 255 255
187 187 187
255 255 255
255 255 255
255 255 255
187 187 187
255 255 255
255 255 255
255 255 255
187 187 187
255 255 255
255 255 255
255 255 255
187 187 187
255 255 255
255 255 255
255 255 255
187 187 187
255 255 255
255 255 255
255 255 255
187 187 187
255 255 255
255 255 255
255 255 255
187 187 187
255 255 255
255 255 255
255 255 255
187 187 187
255 255 255
255 255 255
255 255 255
187 187 187
255 255 255
255 255 255
255 255 255
187 187 187
255 255 255
255 255 255
255 255 255
187 187 187
255 255 255
255 255 255
255 255 255
187 187 187
255 255 255
255 255 255
255 255 255
187 187 187
255 255 255
255 255 255
255 255 255
187 187 187
255 255 255
255 255 255
255 255 255
187 187 187
255 255 255
255 255 255
255 255 255
187 187 187
255 255 255
255 255 255
255 255 255
187 187 187
255 255 255
255 255 255
255 255 255
187 187 187
255 255 255
255 255 255
255 255 255
187 187 187
255 255 255
255 255 255
255 255 255
187 187 187
255 255 255
255 255 255
255 255 255
187 187 187
255 255 255
255 255 255
255 255 255
187 187 187
255 255 255
255 255 255
255 255 255
187 187 187
255 255 255
255 255 255
255 255 255
187 187 187
255 255 255
255 255 255
255 255 255
187 187 187
255 255 255
255 255 255
255 255 255
187 187 187
255 255 255
255 255 255
255 255 255
187 187 187
255 255 255
255 255 255
255 255 255
187 187 187
255 255 255
255 255 255
255 255 255
187 187 187
255 255 255
255 255 255
255 255 255
187 187 187
255 255 255
255 255 255
255 255 255
187 187 187
255 255 255
255 255 255
255 255 255
187 187 187
255 255 255
255 255 255
255 255 255
187 187 187
255 255 255
255 255 255
255 255 255
187 187 187
255 255 255
255 255 255
255 255 255
187 187 187
255 255 255
255 255 255
255 255 255
187 187 187
255 255 255
255 255 255
255 255 255
187 187 187
255 255 255
255 255 255
255 255 255
187 187 187
255 255 255
255 255 255
255 255 255
187 187 187
255 255 255
255 255 255
255 255 255
187 187 187
255 255 255
255 255 255
255 255 255
187 187 187
255 255 255
255 255 255
255 255 255
187 187 187
255 255 255
255 255 255
255 255 255
187 187 187
255 255 255
255 255 255
255 255 255
187 187 187
255 255 255
255 255 255
255 255 255
187 187 187
255 255 255
255 255 255
255 255 255
187 187 187
255 255 255
255 255 255
255 255 255
187 187 187
255 255 255
255 255 255
255 255 255
187 187 187
255 255 255
255 255 255
255 255 255
187 187 187
255 255 255
255 255 255
255 255 255
187 187 187
255 255 255
255 255 255
255 255 255
187 187 187
255 255 255
255 255 255
255 255 255
187 187 187
255 255 255
255 255 255
255 255 255
187 187 187
255 255 255
255 255 255
255 255 255
187 187 187
255 255 255
255 255 255
255 255 255
187 187 187
255 255 255
255 255 255
255 255 255
187 187 187
255 255 255
255 255 255
255 255 255
187 187 187
255 255 255
255 255 255
255 255 255
187 187 187
255 255 255
255 255 255
255 255 255
187 187 187
255 255 255
255 255 255
255 255 255
187 187 187
255 255 255
255 255 255
255 255 255
187 187 187
255 255 255
255 255 255
255 255 255
187 187 187
255 255 255
255 255 255
255 255 255
187 187 187
255 255 255
255 255 255
255 255 255
187 187 187
255 255 255
255 255 255
255 255 255
187 187 187
255 255 255
255 255 255
255 255 255
187 187 187
255 255 255
255 255 255
255 255 255
187 187 187
255 255 255
255 255 255
255 255 255
187 187 187
255 255 255
255 255 255
255 255 255
187 187 187
255 255 255
255 255 255
255 255 255
187 187 187
255 255 255
255 255 255
255 255 255
187 187 187
255 255 255
255 255 255
255 255 255
187 187 187
255 255 255
255 255 255
255 255 255
187 187 187
255 255 255
255 255 255
255 255 255
187 187 187
255 255 255
255 255 255
255 255 255
187 187 187
255 255 255
255 255 255
255 255 255
187 187 187
255 255 255
255 255 255
255 255 255
187 187 187
255 255 255
255 255 255
255 255 255
187 187 187
255 255 255
255 255 255
255 255 255
187 187 187
255 255 255
255 255 255
255 255 255
187 187 187
255 255 255
255 255 255
255 255 255
187 187 187
255 255 255
255 255 255
255 255 255
187 187 187
255 255 255
255 255 255
255 255 255
187 187 187
255 255 255
255 255 255
255 255 255
187 187 187
255 255 255
255 255 255
255 255 255
187 187 187
255 255 255
255 255 255
255 255 255
187 187 187
255 255 255
255 255 255
255 255 255
187 187 187
255 255 255
255 255 255
255 255 255
187 187 187
255 255 255
255 255 255
255 255 255
187 187 187
255 255 255
255 255 255
255 255 255
187 187 187
255 255 255
255 255 255
255 255 255
187 187 187
255 255 255
255 255 255
255 255 255
187 187 187
255 255 255
255 255 255
255 255 255
187 187 187
255 255 255
255 255 255
255 255 255
187 187 187
255 255 255
255 255 255
255 255 255
187 187 187
255 255 255
255 255 255
255 255 255
187 187 187
255 255 255
255 255 255
255 255 255
187 187 187
255 255 255
255 255 255
255 255 255
187 187 187
255 255 255
255 255 255
255 255 255
187 187 187
255 255 255
255 255 255
255 255 255
187 187 187
255 255 255
255 255 255
255 255 255
187 187 187
255 255 255
255 255 255
255 255 255
187 187 187
255 255 255
255 255 255
255 255 255
187 187 187
255 255 255
255 255 255
255 255 255
187 187 187
255 255 255
255 255 255
255 255 255
187 187 187
255 255 255
255 255 255
255 255 255
187 187 187
255 255 255
255 255 255
255 255 255
187 187 187
255 255 255
255 255 255
255 255 255
187 187 187
255 255 255
255 255 255
255 255 255
187 187 187
255 255 255
255 255 255
255 255 255
187 187 187
255 255 255
255 255 255
255 255 255
187 187 187
255 255 255
255 255 255
255 255 255
187 187 187
255 255 255
255 255 255
255 255 255
187 187 187
255 255 255
255 255 255
255 255 255
187 187 187
255 255 255
255 255 255
255 255 255
187 187 187
255 255 255
255 255 255
255 255 255
187 187 187
255 255 255
255 255 255
255 255 255
187 187 187
255 255 255
255 255 255
255 255 255
187 187 187
255 255 255
255 255 255
255 255 255
187 187 187
255 255 255
255 255 255
255 255 255
187 187 187
255 255 255
255 255 255
255 255 255
187 187 187
255 255 255
255 255 255
255 255 255
187 187 187
255 255 255
255 255 255
255 255 255
187 187 187
255 255 255
255 255 255
255 255 255
187 187 187
255 255 255
255 255 255
255 255 255
187 187 187
255 255 255
255 255 255
255 255 255
187 187 187
255 255 255
255 255 255
255 255 255
187 187 187
255 255 255
255 255 255
255 255 255
187 187 187
255 255 255
255 255 255
255 255 255
187 187 187
255 255 255
255 255 255
255 255 255
187 187 187
255 255 255
255 255 255
255 255 255
187 187 187
255 255 255
255 255 255
255 255 255
187 187 187
255 255 255
255 255 255
255 255 255
187 187 187
255 255 255
255 255 255
255 255 255
187 187 187
255 255 255
255 255 255
255 255 255
187 187 187
255 255 255
255 255 255
255 255 255
187 187 187
255 255 255
255 255 255
255 255 255
187 187 187
255 255 255
255 255 255
255 255 255
187 187 187
255 255 255
255 255 255
255 255 255
187 187 187
255 255 255
255 255 255
255 255 255
187 187 187
255 255 255
255 255 255
255 255 255
187 187 187
255 255 255
255 255 255
255 255 255
187 187 187
255 255 255
255 255 255
255 255 255
187 187 187
255 255 255
255 255 255
255 255 255
187 187 187
255 255 255
255 255 255
255 255 255
187 187 187
255 255 255
255 255 255
255 255 255
187 187 187
255 255 255
255 255 255
255 255 255
187 187 187
255 255 255
255 255 255
255 255 255
187 187 187
255 255 255
255 255 255
255 255 255
187 187 187
255 255 255
255 255 255
255 255 255
187 187 187
255 255 255
255 255 255
255 255 255
187 187 187
255 255 255
255 255 255
255 255 255
187 187 187
255 255 255
255 255 255
255 255 255
187 187 187
255 255 255
255 255 255
255 255 255
187 187 187
255 255 255
255 255 255
255 255 255
187 187 187
255 255 255
255 255 255
255 255 255
187 187 187
255 255 255
255 255 255
255 255 255
187 187 187
255 255 255
255 255 255
255 255 255
187 187 187
255 255 255
255 255 255
255 255 255
187 187 187
255 255 255
255 255 255
255 255 255
187 187 187
255 255 255
255 255 255
255 255 255
187 187 187
255 255 255
255 255 255
255 255 255
187 187 187
255 255 255
255 255 255
255 255 255
187 187 187
255 255 255
255 255 255
255 255 255
187 187 187
255 255 255
255 255 255
255 255 255
187 187 187
255 255 255
255 255 255
255 255 255
187 187 187
255 255 255
255 255 255
255 255 255
187 187 187
255 255 255
255 255 255
255 255 255
187 187 187
255 255 255
255 255 255
255 255 255
187 187 187
255 255 255
255 255 255
255 255 255
187 187 187
255 255 255
255 255 255
255 255 255
187 187 187
255 255 255
255 255 255
255 255 255
187 187 187
255 255 255
255 255 255
255 255 255
187 187 187
255 255 255
255 255 255
255 255 255
187 187 187
255 255 255
255 255 255
255 255 255
187 187 187
255 255 255
255 255 255
255 255 255
187 187 187
255 255 255
255 255 255
255 255 255
187 187 187
255 255 255
255 255 255
255 255 255
187 187 187
255 255 255
255 255 255
255 255 255
187 187 187
255 255 255
255 255 255
255 255 255
187 187 187
255 255 255
255 255 255
255 255 255
187 187 187
255 255 255
255 255 255
255 255 255
187 187 187
255 255 255
255 255 255
255 255 255
187 187 187
255 255 255
255 255 255
255 255 255
187 187 187
255 255 255
255 255 255
255 255 255
187 187 187
255 255 255
255 255 255
255 255 255
187 187 187
255 255 255
255 255 255
255 255 255
187 187 187
255 255 255
255 255 255
255 255 255
187 187 187
255 255 255
255 255 255
255 255 255
187 187 187
255 255 255
255 255 255
255 255 255
187 187 187
255 255 255
255 255 255
255 255 255
187 187 187
255 255 255
255 255 255
255 255 255
187 187 187
255 255 255
255 255 255
255 255 255
187 187 187
255 255 255
255 255 255
255 255 255
187 187 187
255 255 255
255 255 255
255 255 255
187 187 187
255 255 255
255 255 255
255 255 255
187 187 187
255 255 255
255 255 255
255 255 255
187 187 187
255 255 255
255 255 255
255 255 255
187 187 187
255 255 255
255 255 255
255 255 255
187 187 187
255 255 255
255 255 255
255 255 255
187 187 187
255 255 255
255 255 255
255 255 255
187 187 187
255 255 255
255 255 255
255 255 255
187 187 187
255 255 255
255 255 255
255 255 255
187 187 187
255 255 255
255 255 255
255 255 255
187 187 187
255 255 255
255 255 255
255 255 255
187 187 187
255 255 255
255 255 255
255 255 255
187 187 187
255 255 255
255 255 255
255 255 255
187 187 187
255 255 255
255 255 255
255 255 255
187 187 187
255 255 255
255 255 255
255 255 255
187 187 187
255 255 255
255 255 255
255 255 255
187 187 187
255 255 255
255 255 255
255 255 255
187 187 187
255 255 255
255 255 255
255 255 255
187 187 187
255 255 255
255 255 255
255 255 255
187 187 187
255 255 255
255 255 255
255 255 255
187 187 187
255 255 255
255 255 255
255 255 255
187 187 187
255 255 255
255 255 255
255 255 255
187 187 187
255 255 255
255 255 255
255 255 255
187 187 187
255 255 255
255 255 255
255 255 255
187 187 187
255 255 255
255 255 255
255 255 255
187 187 187
255 255 255
255 255 255
255 255 255
187 187 187
255 255 255
255 255 255
255 255 255
187 187 187
255 255 255
255 255 255
255 255 255
187 187 187
255 255 255
255 255 255
255 255 255
187 187 187
255 255 255
255 255 255
255 255 255
187 187 187
255 255 255
255 255 255
255 255 255
187 187 187
255 255 255
255 255 255
255 255 255
187 187 187
255 255 255
255 255 255
255 255 255
187 187 187
255 255 255
255 255 255
255 255 255
187 187 187
255 255 255
255 255 255
255 255 255
187 187 187
255 255 255
255 255 255
255 255 255
187 187 187
255 255 255
255 255 255
255 255 255
187 187 187
255 255 255
255 255 255
255 255 255
187 187 187
255 255 255
255 255 255
255 255 255
187 187 187
255 255 255
255 255 255
255 255 255
187 187 187
255 255 255
255 255 255
255 255 255
187 187 187
255 255 255
255 255 255
255 255 255
187 187 187
255 255 255
255 255 255
255 255 255
187 187 187
255 255 255
255 255 255
255 255 255
187 187 187
255 255 255
255 255 255
255 255 255
187 187 187
255 255 255
255 255 255
255 255 255
187 187 187
255 255 255
255 255 255
255 255 255
187 187 187
255 255 255
255 255 255
255 255 255
187 187 187
255 255 255
255 255 255
255 255 255
187 187 187
255 255 255
255 255 255
255 255 255
187 187 187
255 255 255
255 255 255
255 255 255
187 187 187
255 255 255
255 255 255
255 255 255
187 187 187
255 255 255
255 255 255
255 255 255
187 187 187
255 255 255
255 255 255
255 255 255
187 187 187
255 255 255
255 255 255
255 255 255
187 187 187
255 255 255
255 255 255
255 255 255
187 187 187
255 255 255
255 255 255
255 255 255
187 187 187
255 255 255
255 255 255
255 255 255
187 187 187
255 255 255
255 255 255
255 255 255
187 187 187
255 255 255
255 255 255
255 255 255
187 187 187
255 255 255
255 255 255
255 255 255
187 187 187
255 255 255
255 255 255
255 255 255
187 187 187
255 255 255
255 255 255
255 255 255
187 187 187
255 255 255
255 255 255
255 255 255
187 187 187
255 255 255
255 255 255
255 255 255
187 187 187
255 255 255
255 255 255
255 255 255
187 187 187
255 255 255
255 255 255
255 255 255
187 187 187
255 255 255
255 255 255
255 255 255
187 187 187
255 255 255
255 255 255
255 255 255
187 187 187
255 255 255
255 255 255
255 255 255
187 187 187
255 255 255
255 255 255
255 255 255
187 187 187
255 255 255
255 255 255
255 255 255
187 187 187
255 255 255
255 255 255
255 255 255
187 187 187
255 255 255
255 255 255
255 255 255
187 187 187
255 255 255
255 255 255
255 255 255
187 187 187
255 255 255
255 255 255
255 255 255
187 187 187
255 255 255
255 255 255
255 255 255
187 187 187
255 255 255
255 255 255
255 255 255
187 187 187
255 255 255
255 255 255
255 255 255
187 187 187
255 255 255
255 255 255
255 255 255
187 187 187
255 255 255
255 255 255
255 255 255
187 187 187
255 255 255
255 255 255
255 255 255
187 187 187
255 255 255
255 255 255
255 255 255
187 187 187
255 255 255
255 255 255
255 255 255
187 187 187
255 255 255
255 255 255
255 255 255
187 187 187
255 255 255
255 255 255
255 255 255
187 187 187
255 255 255
255 255 255
255 255 255
187 187 187
255 255 255
255 255 255
255 255 255
187 187 187
255 255 255
255 255 255
255 255 255
187 187 187
255 255 255
255 255 255
255 255 255
187 187 187
255 255 255
255 255 255
255 255 255
187 187 187
255 255 255
255 255 255
255 255 255
187 187 187
255 255 255
255 255 255
255 255 255
187 187 187
255 255 255
255 255 255
255 255 255
187 187 187
255 255 255
255 255 255
255 255 255
187 187 187
255 255 255
255 255 255
255 255 255
187 187 187
255 255 255
255 255 255
255 255 255
187 187 187
255 255 255
255 255 255
255 255 255
187 187 187
255 255 255
255 255 255
255 255 255
187 187 187
255 255 255
255 255 255
255 255 255
187 187 187
255 255 255
255 255 255
255 255 255
187 187 187
255 255 255
255 255 255
255 255 255
187 187 187
255 255 255
255 255 255
255 255 255
187 187 187
255 255 255
255 255 255
255 255 255
187 187 187
255 255 255
255 255 255
255 255 255
187 187 187
255 255 255
255 255 255
255 255 255
187 187 187
255 255 255
255 255 255
255 255 255
187 187 187
255 255 255
255 255 255
255 255 255
187 187 187
255 255 255
255 255 255
255 255 255
187 187 187
255 255 255
255 255 255
255 255 255
187 187 187
255 255 255
255 255 255
255 255 255
187 187 187
255 255 255
255 255 255
255 255 255
187 187 187
255 255 255
255 255 255
255 255 255
187 187 187
255 255 255
255 255 255
255 255 255
187 187 187
255 255 255
255 255 255
255 255 255
187 187 187
255 255 255
255 255 255
255 255 255
187 187 187
255 255 255
255 255 255
255 255 255
187 187 187
255 255 255
255 255 255
255 255 255
187 187 187
255 255 255
255 255 255
255 255 255
187 187 187
255 255 255
255 255 255
255 255 255
187 187 187
255 255 255
255 255 255
255 255 255
187 187 187
255 255 255
255 255 255
255 255 255
187 187 187
255 255 255
255 255 255
255 255 255
187 187 187
255 255 255
255 255 255
255 255 255
187 187 187
255 255 255
255 255 255
255 255 255
187 187 187
255 255 255
255 255 255
255 255 255
187 187 187
255 255 255
255 255 255
255 255 255
187 187 187
255 255 255
255 255 255
255 255 255
187 187 187
255 255 255
255 255 255
255 255 255
187 187 187
255 255 255
255 255 255
255 255 255
187 187 187
255 255 255
255 255 255
255 255 255
187 187 187
255 255 255
255 255 255
255 255 255
187 187 187
255 255 255
255 255 255
255 255 255
187 187 187
255 255 255
255 255 255
255 255 255
187 187 187
255 255 255
255 255 255
255 255 255
187 187 187
255 255 255
255 255 255
255 255 255
187 187 187
255 255 255
255 255 255
255 255 255
187 187 187
255 255 255
255 255 255
255 255 255
187 187 187
255 255 255
255 255 255
255 255 255
187 187 187
255 255 255
255 255 255
255 255 255
187 187 187
255 255 255
255 255 255
255 255 255
187 187 187
255 255 255
255 255 255
255 255 255
187 187 187
255 255 255
255 255 255
255 255 255
187 187 187
255 255 255
255 255 255
255 255 255
187 187 187
255 255 255
255 255 255
255 255 255
187 187 187
255 255 255
255 255 255
255 255 255
187 187 187
255 255 255
255 255 255
255 255 255
187 187 187
255 255 255
255 255 255
255 255 255
187 187 187
255 255 255
255 255 255
255 255 255
187 187 187
255 255 255
255 255 255
255 255 255
187 187 187
255 255 255
255 255 255
255 255 255
187 187 187
255 255 255
255 255 255
255 255 255
187 187 187
255 255 255
255 255 255
255 255 255
187 187 187
255 255 255
255 255 255
255 255 255
187 187 187
255 255 255
255 255 255
255 255 255
187 187 187
255 255 255
255 255 255
255 255 255
187 187 187
255 255 255
255 255 255
255 255 255
187 187 187
255 255 255
255 255 255
255 255 255
187 187 187
255 255 255
255 255 255
255 255 255
187 187 187
255 255 255
255 255 255
255 255 255
187 187 187
255 255 255
255 255 255
255 255 255
187 187 187
255 255 255
255 255 255
255 255 255
187 187 187
255 255 255
255 255 255
255 255 255
187 187 187
255 255 255
255 255 255
255 255 255
187 187 187
255 255 255
255 255 255
255 255 255
187 187 187
255 255 255
255 255 255
255 255 255
187 187 187
255 255 255
255 255 255
255 255 255
187 187 187
255 255 255
255 255 255
255 255 255
187 187 187
255 255 255
255 255 255
255 255 255
187 187 187
255 255 255
255 255 255
255 255 255
187 187 187
255 255 255
255 255 255
255 255 255
187 187 187
255 255 255
255 255 255
255 255 255
187 187 187
255 255 255
255 255 255
255 255 255
187 187 187
255 255 255
255 255 255
255 255 255
187 187 187
255 255 255
255 255 255
255 255 255
187 187 187
255 255 255
255 255 255
255 255 255
187 187 187
255 255 255
255 255 255
255 255 255
187 187 187
255 255 255
255 255 255
255 255 255
187 187 187
255 255 255
255 255 255
255 255 255
187 187 187
255 255 255
255 255 255
255 255 255
187 187 187
255 255 255
255 255 255
255 255 255
187 187 187
255 255 255
255 255 255
255 255 255
187 187 187
255 255 255
255 255 255
255 255 255
187 187 187
255 255 255
255 255 255
255 255 255
187 187 187
255 255 255
255 255 255
255 255 255
187 187 187
255 255 255
255 255 255
255 255 255
187 187 187
255 255 255
255 255 255
255 255 255
187 187 187
255 255 255
255 255 255
255 255 255
187 187 187
255 255 255
255 255 255
255 255 255
187 187 187
255 255 255
255 255 255
255 255 255
187 187 187
255 255 255
255 255 255
255 255 255
187 187 187
255 255 255
255 255 255
255 255 255
187 187 187
255 255 255
255 255 255
255 255 255
187 187 187
255 255 255
255 255 255
255 255 255
187 187 187
255 255 255
255 255 255
255 255 255
187 187 187
255 255 255
255 255 255
255 255 255
187 187 187
255 255 255
255 255 255
255 255 255
187 187 187
255 255 255
255 255 255
255 255 255
187 187 187
255 255 255
255 255 255
255 255 255
187 187 187
255 255 255
255 255 255
255 255 255
187 187 187
255 255 255
255 255 255
255 255 255
187 187 187
255 255 255
255 255 255
255 255 255
187 187 187
255 255 255
255 255 255
255 255 255
187 187 187
255 255 255
255 255 255
255 255 255
187 187 187
255 255 255
255 255 255
255 255 255
187 187 187
255 255 255
255 255 255
255 255 255
187 187 187
255 255 255
255 255 255
255 255 255
187 187 187
255 255 255
255 255 255
255 255 255
187 187 187
255 255 255
255 255 255
255 255 255
187 187 187
255 255 255
255 255 255
255 255 255
187 187 187
255 255 255
255 255 255
255 255 255
187 187 187
255 255 255
255 255 255
255 255 255
187 187 187
255 255 255
255 255 255
255 255 255
187 187 187
255 255 255
255 255 255
255 255 255
187 187 187
255 255 255
255 255 255
255 255 255
187 187 187
255 255 255
255 255 255
255 255 255
187 187 187
255 255 255
255 255 255
255 255 255
187 187 187
255 255 255
255 255 255
255 255 255
187 187 187
255 255 255
255 255 255
255 255 255
187 187 187
255 255 255
255 255 255
255 255 255
187 187 187
255 255 255
255 255 255
255 255 255
187 187 187
255 255 255
255 255 255
255 255 255
187 187 187
255 255 255
255 255 255
255 255 255
187 187 187
255 255 255
255 255 255
255 255 255
187 187 187
255 255 255
255 255 255
255 255 255
187 187 187
255 255 255
255 255 255
255 255 255
187 187 187
255 255 255
255 255 255
255 255 255
187 187 187
255 255 255
255 255 255
255 255 255
187 187 187
255 255 255
255 255 255
255 255 255
187 187 187
255 255 255
255 255 255
255 255 255
187 187 187
255 255 255
255 255 255
255 255 255
187 187 187
255 255 255
255 255 255
255 255 255
187 187 187
255 255 255
255 255 255
255 255 255
187 187 187
255 255 255
255 255 255
255 255 255
187 187 187
255 255 255
255 255 255
255 255 255
187 187 187
255 255 255
255 255 255
255 255 255
187 187 187
255 255 255
255 255 255
255 255 255
187 187 187
255 255 255
255 255 255
255 255 255
187 187 187
255 255 255
255 255 255
255 255 255
187 187 187
255 255 255
255 255 255
255 255 255
187 187 187
255 255 255
255 255 255
255 255 255
187 187 187
255 255 255
255 255 255
255 255 255
187 187 187
255 255 255
255 255 255
255 255 255
187 187 187
255 255 255
255 255 255
255 255 255
187 187 187
255 255 255
255 255 255
255 255 255
187 187 187
255 255 255
255 255 255
255 255 255
187 187 187
255 255 255
255 255 255
255 255 255
187 187 187
255 255 255
255 255 255
255 255 255
187 187 187
255 255 255
255 255 255
255 255 255
187 187 187
255 255 255
255 255 255
255 255 255
187 187 187
255 255 255
255 255 255
255 255 255
187 187 187
255 255 255
255 255 255
255 255 255
187 187 187
255 255 255
255 255 255
255 255 255
187 187 187
255 255 255
255 255 255
255 255 255
187 187 187
255 255 255
255 255 255
255 255 255
187 187 187
255 255 255
255 255 255
255 255 255
187 187 187
255 255 255
255 255 255
255 255 255
187 187 187
255 255 255
255 255 255
255 255 255
187 187 187
255 255 255
255 255 255
255 255 255
187 187 187
255 255 255
255 255 255
255 255 255
187 187 187
255 255 255
255 255 255
255 255 255
187 187 187
255 255 255
255 255 255
255 255 255
187 187 187
255 255 255
255 255 255
255 255 255
187 187 187
255 255 255
255 255 255
255 255 255
187 187 187
255 255 255
255 255 255
255 255 255
187 187 187
255 255 255
255 255 255
255 255 255
187 187 187
255 255 255
255 255 255
255 255 255
187 187 187
255 255 255
255 255 255
255 255 255
187 187 187
255 255 255
255 255 255
255 255 255
187 187 187
255 255 255
255 255 255
255 255 255
187 187 187
255 255 255
255 255 255
255 255 255
187 187 187
255 255 255
255 255 255
255 255 255
187 187 187
255 255 255
255 255 255
255 255 255
187 187 187
255 255 255
255 255 255
255 255 255
187 187 187
255 255 255
255 255 255
255 255 255
187 187 187
255 255 255
255 255 255
255 255 255
187 187 187
255 255 255
255 255 255
255 255 255
187 187 187
255 255 255
255 255 255
255 255 255
187 187 187
255 255 255
255 255 255
255 255 255
187 187 187
255 255 255
255 255 255
255 255 255
187 187 187
255 255 255
255 255 255
255 255 255
187 187 187
255 255 255
255 255 255
255 255 255
187 187 187
255 255 255
255 255 255
255 255 255
187 187 187
255 255 255
255 255 255
255 255 255
187 187 187
255 255 255
255 255 255
255 255 255
187 187 187
255 255 255
255 255 255
255 255 255
187 187 187
255 255 255
255 255 255
255 255 255
187 187 187
255 255 255
255 255 255
255 255 255
187 187 187
255 255 255
255 255 255
255 255 255
187 187 187
255 255 255
255 255 255
255 255 255
187 187 187
255 255 255
255 255 255
255 255 255
187 187 187
255 255 255
255 255 255
255 255 255
187 187 187
255 255 255
255 255 255
255 255 255
187 187 187
255 255 255
255 255 255
255 255 255
187 187 187
255 255 255
255 255 255
255 255 255
187 187 187
255 255 255
255 255 255
255 255 255
187 187 187
255 255 255
255 255 255
255 255 255
187 187 187
255 255 255
255 255 255
255 255 255
187 187 187
255 255 255
255 255 255
255 255 255
187 187 187
255 255 255
255 255 255
255 255 255
187 187 187
255 255 255
255 255 255
255 255 255
187 187 187
255 255 255
255 255 255
255 255 255
187 187 187
255 255 255
255 255 255
255 255 255
187 187 187
255 255 255
255 255 255
255 255 255
187 187 187
255 255 255
255 255 255
255 255 255
187 187 187
255 255 255
255 255 255
255 255 255
187 187 187
255 255 255
255 255 255
255 255 255
187 187 187
255 255 255
255 255 255
255 255 255
187 187 187
255 255 255
255 255 255
255 255 255
187 187 187
255 255 255
255 255 255
255 255 255
187 187 187
255 255 255
255 255 255
255 255 255
187 187 187
255 255 255
255 255 255
255 255 255
187 187 187
255 255 255
255 255 255
255 255 255
187 187 187
255 255 255
255 255 255
255 255 255
187 187 187
255 255 255
255 255 255
255 255 255
187 187 187
255 255 255
255 255 255
255 255 255
187 187 187
255 255 255
255 255 255
255 255 255
187 187 187
255 255 255
255 255 255
255 255 255
187 187 187
255 255 255
255 255 255
255 255 255
187 187 187
255 255 255
255 255 255
255 255 255
187 187 187
255 255 255
255 255 255
255 255 255
187 187 187
255 255 255
255 255 255
255 255 255
187 187 187
255 255 255
255 255 255
255 255 255
187 187 187
255 255 255
255 255 255
255 255 255
187 187 187
255 255 255
255 255 255
255 255 255
187 187 187
255 255 255
255 255 255
255 255 255
187 187 187
255 255 255
255 255 255
255 255 255
187 187 187
255 255 255
255 255 255
255 255 255
187 187 187
255 255 255
255 255 255
255 255 255
187 187 187
255 255 255
255 255 255
255 255 255
187 187 187
255 255 255
255 255 255
255 255 255
187 187 187
255 255 255
255 255 255
255 255 255
187 187 187
255 255 255
255 255 255
255 255 255
187 187 187
255 255 255
255 255 255
255 255 255
187 187 187
255 255 255
255 255 255
255 255 255
187 187 187
255 255 255
255 255 255
255 255 255
187 187 187
255 255 255
255 255 255
255 255 255
187 187 187
255 255 255
255 255 255
255 255 255
187 187 187
255 255 255
255 255 255
255 255 255
187 187 187
255 255 255
255 255 255
255 255 255
187 187 187
255 255 255
255 255 255
255 255 255
187 187 187
255 255 255
255 255 255
255 255 255
187 187 187
255 255 255
255 255 255
255 255 255
187 187 187
255 255 255
255 255 255
255 255 255
187 187 187
255 255 255
255 255 255
255 255 255
187 187 187
255 255 255
255 255 255
255 255 255
187 187 187
255 255 255
255 255 255
255 255 255
187 187 187
255 255 255
255 255 255
255 255 255
187 187 187
255 255 255
255 255 255
255 255 255
187 187 187
255 255 255
255 255 255
255 255 255
187 187 187
255 255 255
255 255 255
255 255 255
187 187 187
255 255 255
255 255 255
255 255 255
187 187 187
255 255 255
255 255 255
255 255 255
187 187 187
255 255 255
255 255 255
255 255 255
187 187 187
255 255 255
255 255 255
255 255 255
187 187 187
255 255 255
255 255 255
255 255 255
187 187 187
255 255 255
255 255 255
255 255 255
187 187 187
255 255 255
255 255 255
255 255 255
187 187 187
255 255 255
255 255 255
255 255 255
187 187 187
255 255 255
255 255 255
255 255 255
187 187 187
255 255 255
255 255 255
255 255 255
187 187 187
255 255 255
255 255 255
255 255 255
187 187 187
255 255 255
255 255 255
255 255 255
187 187 187
255 255 255
255 255 255
255 255 255
187 187 187
255 255 255
255 255 255
255 255 255
187 187 187
255 255 255
255 255 255
255 255 255
187 187 187
255 255 255
255 255 255
255 255 255
187 187 187
255 255 255
255 255 255
255 255 255
187 187 187
255 255 255
255 255 255
255 255 255
187 187 187
255 255 255
255 255 255
255 255 255
187 187 187
255 255 255
255 255 255
255 255 255
187 187 187
255 255 255
255 255 255
255 255 255
187 187 187
255 255 255
255 255 255
255 255 255
187 187 187
255 255 255
255 255 255
255 255 255
187 187 187
255 255 255
255 255 255
255 255 255
187 187 187
255 255 255
255 255 255
255 255 255
187 187 187
255 255 255
255 255 255
255 255 255
187 187 187
255 255 255
255 255 255
255 255 255
187 187 187
255 255 255
255 255 255
255 255 255
187 187 187
255 255 255
255 255 255
255 255 255
187 187 187
255 255 255
255 255 255
255 255 255
187 187 187
255 255 255
255 255 255
255 255 255
187 187 187
255 255 255
255 255 255
255 255 255
187 187 187
255 255 255
255 255 255
255 255 255
187 187 187
255 255 255
255 255 255
255 255 255
187 187 187
255 255 255
255 255 255
255 255 255
187 187 187
255 255 255
255 255 255
255 255 255
187 187 187
255 255 255
255 255 255
255 255 255
187 187 187
255 255 255
255 255 255
255 255 255
187 187 187
255 255 255
255 255 255
255 255 255
187 187 187
255 255 255
255 255 255
255 255 255
187 187 187
255 255 255
255 255 255
255 255 255
187 187 187
255 255 255
255 255 255
255 255 255
187 187 187
255 255 255
255 255 255
255 255 255
187 187 187
255 255 255
255 255 255
255 255 255
187 187 187
255 255 255
255 255 255
255 255 255
187 187 187
255 255 255
255 255 255
255 255 255
187 187 187
255 255 255
255 255 255
255 255 255
187 187 187
255 255 255
255 255 255
255 255 255
187 187 187
255 255 255
255 255 255
255 255 255
187 187 187
255 255 255
255 255 255
255 255 255
187 187 187
255 255 255
255 255 255
255 255 255
187 187 187
255 255 255
255 255 255
255 255 255
187 187 187
255 255 255
255 255 255
255 255 255
187 187 187
255 255 255
255 255 255
255 255 255
187 187 187
255 255 255
255 255 255
255 255 255
187 187 187
255 255 255
255 255 255
255 255 255
187 187 187
255 255 255
255 255 255
255 255 255
187 187 187
255 255 255
255 255 255
255 255 255
187 187 187
255 255 255
255 255 255
255 255 255
187 187 187
255 255 255
255 255 255
255 255 255
187 187 187
255 255 255
255 255 255
255 255 255
187 187 187
255 255 255
255 255 255
255 255 255
187 187 187
255 255 255
255 255 255
255 255 255
187 187 187
255 255 255
255 255 255
255 255 255
187 187 187
255 255 255
255 255 255
255 255 255
187 187 187
255 255 255
255 255 255
255 255 255
187 187 187
255 255 255
255 255 255
255 255 255
187 187 187
255 255 255
255 255 255
255 255 255
187 187 187
255 255 255
255 255 255
255 255 255
187 187 187
255 255 255
255 255 255
255 255 255
187 187 187
255 255 255
255 255 255
255 255 255
187 187 187
255 255 255
255 255 255
255 255 255
187 187 187
255 255 255
255 255 255
255 255 255
187 187 187
255 255 255
255 255 255
255 255 255
187 187 187
255 255 255
255 255 255
255 255 255
187 187 187
255 255 255
255 255 255
255 255 255
187 187 187
255 255 255
255 255 255
255 255 255
187 187 187
255 255 255
255 255 255
255 255 255
187 187 187
255 255 255
255 255 255
255 255 255
187 187 187
255 255 255
255 255 255
255 255 255
187 187 187
255 255 255
255 255 255
255 255 255
187 187 187
255 255 255
255 255 255
255 255 255
187 187 187
255 255 255
255 255 255
255 255 255
187 187 187
255 255 255
255 255 255
255 255 255
187 187 187
255 255 255
255 255 255
255 255 255
187 187 187
255 255 255
255 255 255
255 255 255
187 187 187
255 255 255
255 255 255
255 255 255
187 187 187
255 255 255
255 255 255
255 255 255
187 187 187
255 255 255
255 255 255
255 255 255
187 187 187
255 255 255
255 255 255
255 255 255
187 187 187
255 255 255
255 255 255
255 255 255
187 187 187
255 255 255
255 255 255
255 255 255
187 187 187
255 255 255
255 255 255
255 255 255
187 187 187
255 255 255
255 255 255
255 255 255
187 187 187
255 255 255
255 255 255
255 255 255
187 187 187
255 255 255
255 255 255
255 255 255
187 187 187
255 255 255
255 255 255
255 255 255
187 187 187
255 255 255
255 255 255
255 255 255
187 187 187
255 255 255
255 255 255
255 255 255
187 187 187
255 255 255
255 255 255
255 255 255
187 187 187
255 255 255
255 255 255
255 255 255
187 187 187
255 255 255
255 255 255
255 255 255
187 187 187
255 255 255
255 255 255
255 255 255
187 187 187
255 255 255
255 255 255
255 255 255
187 187 187
255 255 255
255 255 255
255 255 255
187 187 187
255 255 255
255 255 255
255 255 255
187 187 187
255 255 255
255 255 255
255 255 255
187 187 187
255 255 255
255 255 255
255 255 255
187 187 187
255 255 255
255 255 255
255 255 255
187 187 187
255 255 255
255 255 255
255 255 255
187 187 187
255 255 255
255 255 255
255 255 255
187 187 187
255 255 255
255 255 255
255 255 255
187 187 187
255 255 255
255 255 255
255 255 255
187 187 187
255 255 255
255 255 255
255 255 255
187 187 187
255 255 255
255 255 255
255 255 255
187 187 187
255 255 255
255 255 255
255 255 255
187 187 187
255 255 255
255 255 255
255 255 255
187 187 187
255 255 255
255 255 255
255 255 255
187 187 187
255 255 255
255 255 255
255 255 255
187 187 187
255 255 255
255 255 255
255 255 255
187 187 187
255 255 255
255 255 255
255 255 255
187 187 187
255 255 255
255 255 255
255 255 255
187 187 187
255 255 255
255 255 255
255 255 255
187 187 187
255 255 255
255 255 255
255 255 255
187 187 187
255 255 255
255 255 255
255 255 255
187 187 187
255 255 255
255 255 255
255 255 255
187 187 187
255 255 255
255 255 255
255 255 255
187 187 187
255 255 255
255 255 255
255 255 255
187 187 187
255 255 255
255 255 255
255 255 255
187 187 187
255 255 255
255 255 255
255 255 255
187 187 187
255 255 255
255 255 255
255 255 255
187 187 187
255 255 255
255 255 255
255 255 255
187 187 187
255 255 255
255 255 255
255 255 255
187 187 187
255 255 255
255 255 255
255 255 255
187 187 187
255 255 255
255 255 255
255 255 255
187 187 187
255 255 255
255 255 255
255 255 255
187 187 187
255 255 255
255 255 255
255 255 255
187 187 187
255 255 255
255 255 255
255 255 255
187 187 187
255 255 255
255 255 255
255 255 255
187 187 187
255 255 255
255 255 255
255 255 255
187 187 187
255 255 255
255 255 255
255 255 255
187 187 187
255 255 255
255 255 255
255 255 255
187 187 187
255 255 255
255 255 255
255 255 255
187 187 187
255 255 255
255 255 255
255 255 255
187 187 187
255 255 255
255 255 255
255 255 255
187 187 187
255 255 255
255 255 255
255 255 255
187 187 187
255 255 255
255 255 255
255 255 255
187 187 187
255 255 255
255 255 255
255 255 255
187 187 187
255 255 255
255 255 255
255 255 255
187 187 187
255 255 255
255 255 255
255 255 255
187 187 187
255 255 255
255 255 255
255 255 255
187 187 187
255 255 255
255 255 255
255 255 255
187 187 187
255 255 255
255 255 255
255 255 255
187 187 187
255 255 255
255 255 255
255 255 255
187 187 187
255 255 255
255 255 255
255 255 255
187 187 187
255 255 255
255 255 255
255 255 255
187 187 187
255 255 255
255 255 255
255 255 255
187 187 187
255 255 255
255 255 255
255 255 255
187 187 187
255 255 255
255 255 255
255 255 255
187 187 187
255 255 255
255 255 255
255 255 255
187 187 187
255 255 255
255 255 255
255 255 255
187 187 187
255 255 255
255 255 255
255 255 255
187 187 187
255 255 255
255 255 255
255 255 255
187 187 187
255 255 255
255 255 255
255 255 255
187 187 187
255 255 255
255 255 255
255 255 255
187 187 187
255 255 255
255 255 255
255 255 255
187 187 187
255 255 255
255 255 255
255 255 255
187 187 187
255 255 255
255 255 255
255 255 255
187 187 187
255 255 255
255 255 255
255 255 255
187 187 187
255 255 255
255 255 255
255 255 255
187 187 187
255 255 255
255 255 255
255 255 255
187 187 187
255 255 255
255 255 255
255 255 255
187 187 187
255 255 255
255 255 255
255 255 255
187 187 187
255 255 255
255 255 255
255 255 255
187 187 187
255 255 255
255 255 255
255 255 255
187 187 187
255 255 255
255 255 255
255 255 255
187 187 187
255 255 255
255 255 255
255 255 255
187 187 187
255 255 255
255 255 255
255 255 255
187 187 187
255 255 255
255 255 255
255 255 255
187 187 187
255 255 255
255 255 255
255 255 255
187 187 187
255 255 255
255 255 255
255 255 255
187 187 187
255 255 255
255 255 255
255 255 255
187 187 187
255 255 255
255 255 255
255 255 255
187 187 187
255 255 255
255 255 255
255 255 255
187 187 187
255 255 255
255 255 255
255 255 255
187 187 187
255 255 255
255 255 255
255 255 255
187 187 187
255 255 255
255 255 255
255 255 255
187 187 187
255 255 255
255 255 255
255 255 255
187 187 187
255 255 255
255 255 255
255 255 255
187 187 187
255 255 255
255 255 255
255 255 255
187 187 187
255 255 255
255 255 255
255 255 255
187 187 187
255 255 255
255 255 255
255 255 255
187 187 187
255 255 255
255 255 255
255 255 255
187 187 187
255 255 255
255 255 255
255 255 255
187 187 187
255 255 255
255 255 255
255 255 255
187 187 187
255 255 255
255 255 255
255 255 255
187 187 187
255 255 255
255 255 255
255 255 255
187 187 187
255 255 255
255 255 255
255 255 255
187 187 187
255 255 255
255 255 255
255 255 255
187 187 187
255 255 255
255 255 255
255 255 255
187 187 187
255 255 255
255 255 255
255 255 255
187 187 187
255 255 255
255 255 255
255 255 255
187 187 187
255 255 255
255 255 255
255 255 255
187 187 187
255 255 255
255 255 255
255 255 255
187 187 187
255 255 255
255 255 255
255 255 255
187 187 187
255 255 255
255 255 255
255 255 255
187 187 187
255 255 255
255 255 255
255 255 255
187 187 187
255 255 255
255 255 255
255 255 255
187 187 187
255 255 255
255 255 255
255 255 255
187 187 187
255 255 255
255 255 255
255 255 255
187 187 187
255 255 255
255 255 255
255 255 255
187 187 187
255 255 255
255 255 255
255 255 255
187 187 187
255 255 255
255 255 255
255 255 255
187 187 187
255 255 255
255 255 255
255 255 255
187 187 187
255 255 255
255 255 255
255 255 255
187 187 187
255 255 255
255 255 255
255 255 255
187 187 187
255 255 255
255 255 255
255 255 255
187 187 187
255 255 255
255 255 255
255 255 255
187 187 187
255 255 255
255 255 255
255 255 255
187 187 187
255 255 255
255 255 255
255 255 255
187 187 187
255 255 255
255 255 255
255 255 255
187 187 187
255 255 255
255 255 255
255 255 255
187 187 187
255 255 255
255 255 255
255 255 255
187 187 187
255 255 255
255 255 255
255 255 255
187 187 187
255 255 255
255 255 255
255 255 255
187 187 187
255 255 255
255 255 255
255 255 255
187 187 187
255 255 255
255 255 255
255 255 255
187 187 187
255 255 255
255 255 255
255 255 255
187 187 187
255 255 255
255 255 255
255 255 255
187 187 187
255 255 255
255 255 255
255 255 255
187 187 187
255 255 255
255 255 255
255 255 255
187 187 187
255 255 255
255 255 255
255 255 255
187 187 187
255 255 255
255 255 255
255 255 255
187 187 187
255 255 255
255 255 255
255 255 255
187 187 187
255 255 255
255 255 255
255 255 255
187 187 187
255 255 255
255 255 255
255 255 255
187 187 187
255 255 255
255 255 255
255 255 255
187 187 187
255 255 255
255 255 255
255 255 255
187 187 187
255 255 255
255 255 255
255 255 255
187 187 187
255 255 255
255 255 255
255 255 255
187 187 187
255 255 255
255 255 255
255 255 255
187 187 187
255 255 255
255 255 255
255 255 255
187 187 187
255 255 255
255 255 255
255 255 255
187 187 187
255 255 255
255 255 255
255 255 255
187 187 187
255 255 255
255 255 255
255 255 255
187 187 187
255 255 255
255 255 255
255 255 255
187 187 187
255 255 255
255 255 255
255 255 255
187 187 187
255 255 255
255 255 255
255 255 255
187 187 187
255 255 255
255 255 255
255 255 255
187 187 187
255 255 255
255 255 255
255 255 255
187 187 187
255 255 255
255 255 255
255 255 255
187 187 187
255 255 255
255 255 255
255 255 255
187 187 187
255 255 255
255 255 255
255 255 255
187 187 187
255 255 255
255 255 255
255 255 255
187 187 187
255 255 255
255 255 255
255 255 255
187 187 187
255 255 255
255 255 255
255 255 255
187 187 187
255 255 255
255 255 255
255 255 255
187 187 187
255 255 255
255 255 255
255 255 255
187 187 187
255 255 255
255 255 255
255 255 255
187 187 187
255 255 255
255 255 255
255 255 255
187 187 187
255 255 255
255 255 255
255 255 255
187 187 187
255 255 255
255 255 255
255 255 255
187 187 187
255 255 255
255 255 255
255 255 255
187 187 187
255 255 255
255 255 255
255 255 255
187 187 187
255 255 255
255 255 255
255 255 255
187 187 187
255 255 255
255 255 255
255 255 255
187 187 187
255 255 255
255 255 255
255 255 255
187 187 187
255 255 255
255 255 255
255 255 255
187 187 187
255 255 255
255 255 255
255 255 255
187 187 187
255 255 255
255 255 255
255 255 255
187 187 187
255 255 255
255 255 255
255 255 255
187 187 187
255 255 255
255 255 255
255 255 255
187 187 187
255 255 255
255 255 255
255 255 255
187 187 187
255 255 255
255 255 255
255 255 255
187 187 187
255 255 255
255 255 255
255 255 255
187 187 187
255 255 255
255 255 255
255 255 255
187 187 187
255 255 255
255 255 255
255 255 255
187 187 187
255 255 255
255 255 255
255 255 255
187 187 187
255 255 255
255 255 255
255 255 255
187 187 187
255 255 255
255 255 255
255 255 255
187 187 187
255 255 255
255 255 255
255 255 255
187 187 187
255 255 255
255 255 255
255 255 255
187 187 187
255 255 255
255 255 255
255 255 255
187 187 187
255 255 255
255 255 255
255 255 255
187 187 187
255 255 255
255 255 255
255 255 255
187 187 187
255 255 255
255 255 255
255 255 255
187 187 187
255 255 255
255 255 255
255 255 255
187 187 187
255 255 255
255 255 255
255 255 255
187 187 187
255 255 255
255 255 255
255 255 255
187 187 187
255 255 255
255 255 255
255 255 255
187 187 187
255 255 255
255 255 255
255 255 255
187 187 187
255 255 255
255 255 255
255 255 255
187 187 187
255 255 255
255 255 255
255 255 255
187 187 187
255 255 255
255 255 255
255 255 255
187 187 187
255 255 255
255 255 255
255 255 255
187 187 187
255 255 255
255 255 255
255 255 255
187 187 187
255 255 255
255 255 255
255 255 255
187 187 187
255 255 255
255 255 255
255 255 255
187 187 187
255 255 255
255 255 255
255 255 255
187 187 187
255 255 255
255 255 255
255 255 255
187 187 187
255 255 255
255 255 255
255 255 255
187 187 187
255 255 255
255 255 255
255 255 255
187 187 187
255 255 255
255 255 255
255 255 255
187 187 187
255 255 255
255 255 255
255 255 255
187 187 187
255 255 255
255 255 255
255 255 255
187 187 187
255 255 255
255 255 255
255 255 255
187 187 187
255 255 255
255 255 255
255 255 255
187 187 187
255 255 255
255 255 255
255 255 255
187 187 187
255 255 255
255 255 255
255 255 255
187 187 187
255 255 255
255 255 255
255 255 255
187 187 187
255 255 255
255 255 255
255 255 255
187 187 187
255 255 255
255 255 255
255 255 255
187 187 187
255 255 255
255 255 255
255 255 255
187 187 187
255 255 255
255 255 255
255 255 255
187 187 187
255 255 255
255 255 255
255 255 255
187 187 187
255 255 255
255 255 255
255 255 255
187 187 187
255 255 255
255 255 255
255 255 255
187 187 187
255 255 255
255 255 255
255 255 255
187 187 187
255 255 255
255 255 255
255 255 255
187 187 187
255 255 255
255 255 255
255 255 255
187 187 187
255 255 255
255 255 255
255 255 255
187 187 187
255 255 255
255 255 255
255 255 255
187 187 187
255 255 255
255 255 255
255 255 255
187 187 187
255 255 255
255 255 255
255 255 255
187 187 187
255 255 255
255 255 255
255 255 255
187 187 187
255 255 255
255 255 255
255 255 255
187 187 187
255 255 255
255 255 255
255 255 255
187 187 187
255 255 255
255 255 255
255 255 255
187 187 187
255 255 255
255 255 255
255 255 255
187 187 187
255 255 255
255 255 255
255 255 255
187 187 187
255 255 255
255 255 255
255 255 255
187 187 187
255 255 255
255 255 255
255 255 255
187 187 187
255 255 255
255 255 255
255 255 255
187 187 187
255 255 255
255 255 255
255 255 255
187 187 187
255 255 255
255 255 255
255 255 255
187 187 187
255 255 255
255 255 255
255 255 255
187 187 187
255 255 255
255 255 255
255 255 255
187 187 187
255 255 255
255 255 255
255 255 255
187 187 187
255 255 255
255 255 255
255 255 255
187 187 187
255 255 255
255 255 255
255 255 255
187 187 187
255 255 255
255 255 255
255 255 255
187 187 187
255 255 255
255 255 255
255 255 255
187 187 187
255 255 255
255 255 255
255 255 255
187 187 187
255 255 255
255 255 255
255 255 255
187 187 187
255 255 255
255 255 255
255 255 255
187 187 187
255 255 255
255 255 255
255 255 255
187 187 187
255 255 255
255 255 255
255 255 255
187 187 187
255 255 255
255 255 255
255 255 255
187 187 187
255 255 255
255 255 255
255 255 255
187 187 187
255 255 255
255 255 255
255 255 255
187 187 187
255 255 255
255 255 255
255 255 255
187 187 187
255 255 255
255 255 255
255 255 255
187 187 187
255 255 255
255 255 255
255 255 255
187 187 187
255 255 255
255 255 255
255 255 255
187 187 187
255 255 255
255 255 255
255 255 255
187 187 187
255 255 255
255 255 255
255 255 255
187 187 187
255 255 255
255 255 255
255 255 255
187 187 187
255 255 255
255 255 255
255 255 255
187 187 187
255 255 255
255 255 255
255 255 255
187 187 187
255 255 255
255 255 255
255 255 255
187 187 187
255 255 255
255 255 255
255 255 255
187 187 187
255 255 255
255 255 255
255 255 255
187 187 187
255 255 255
255 255 255
255 255 255
187 187 187
255 255 255
255 255 255
255 255 255
187 187 187
255 255 255
255 255 255
255 255 255
187 187 187
255 255 255
255 255 255
255 255 255
187 187 187
255 255 255
255 255 255
255 255 255
187 187 187
255 255 255
255 255 255
255 255 255
187 187 187
255 255 255
255 255 255
255 255 255
187 187 187
255 255 255
255 255 255
255 255 255
187 187 187
255 255 255
255 255 255
255 255 255
187 187 187
255 255 255
255 255 255
255 255 255
187 187 187
255 255 255
255 255 255
255 255 255
187 187 187
255 255 255
255 255 255
255 255 255
187 187 187
255 255 255
255 255 255
255 255 255
187 187 187
255 255 255
255 255 255
255 255 255
187 187 187
255 255 255
255 255 255
255 255 255
187 187 187
255 255 255
255 255 255
255 255 255
187 187 187
255 255 255
255 255 255
255 255 255
187 187 187
255 255 255
255 255 255
255 255 255
187 187 187
255 255 255
255 255 255
255 255 255
187 187 187
255 255 255
255 255 255
255 255 255
187 187 187
255 255 255
255 255 255
255 255 255
187 187 187
255 255 255
255 255 255
255 255 255
187 187 187
255 255 255
255 255 255
255 255 255
187 187 187
255 255 255
255 255 255
255 255 255
187 187 187
255 255 255
255 255 255
255 255 255
187 187 187
255 255 255
255 255 255
255 255 255
187 187 187
255 255 255
255 255 255
255 255 255
187 187 187
255 255 255
255 255 255
255 255 255
187 187 187
255 255 255
255 255 255
255 255 255
187 187 187
255 255 255
255 255 255
255 255 255
187 187 187
255 255 255
255 255 255
255 255 255
187 187 187
255 255 255
255 255 255
255 255 255
187 187 187
255 255 255
255 255 255
255 255 255
187 187 187
255 255 255
255 255 255
255 255 255
187 187 187
255 255 255
255 255 255
255 255 255
187 187 187
255 255 255
255 255 255
255 255 255
187 187 187
255 255 255
255 255 255
255 255 255
187 187 187
255 255 255
255 255 255
255 255 255
187 187 187
255 255 255
255 255 255
255 255 255
187 187 187
255 255 255
255 255 255
255 255 255
187 187 187
255 255 255
255 255 255
255 255 255
187 187 187
255 255 255
255 255 255
255 255 255
187 187 187
255 255 255
255 255 255
255 255 255
187 187 187
255 255 255
255 255 255
255 255 255
187 187 187
255 255 255
255 255 255
255 255 255
187 187 187
255 255 255
255 255 255
255 255 255
187 187 187
255 255 255
255 255 255
255 255 255
187 187 187
255 255 255
255 255 255
255 255 255
187 187 187
255 255 255
255 255 255
255 255 255
187 187 187
255 255 255
255 255 255
255 255 255
187 187 187
255 255 255
255 255 255
255 255 255
187 187 187
255 255 255
255 255 255
255 255 255
187 187 187
255 255 255
255 255 255
255 255 255
187 187 187
255 255 255
255 255 255
255 255 255
187 187 187
255 255 255
255 255 255
255 255 255
187 187 187
255 255 255
255 255 255
255 255 255
187 187 187
255 255 255
255 255 255
255 255 255
187 187 187
255 255 255
255 255 255
255 255 255
187 187 187
255 255 255
255 255 255
255 255 255
187 187 187
255 255 255
255 255 255
255 255 255
187 187 187
255 255 255
255 255 255
255 255 255
187 187 187
255 255 255
255 255 255
255 255 255
187 187 187
255 255 255
255 255 255
255 255 255
187 187 187
255 255 255
255 255 255
255 255 255
187 187 187
255 255 255
255 255 255
255 255 255
187 187 187
255 255 255
255 255 255
255 255 255
187 187 187
255 255 255
255 255 255
255 255 255
187 187 187
255 255 255
255 255 255
255 255 255
187 187 187
255 255 255
255 255 255
255 255 255
187 187 187
255 255 255
255 255 255
255 255 255
187 187 187
255 255 255
255 255 255
255 255 255
187 187 187
255 255 255
255 255 255
255 255 255
187 187 187
255 255 255
255 255 255
255 255 255
187 187 187
255 255 255
255 255 255
255 255 255
187 187 187
255 255 255
255 255 255
255 255 255
187 187 187
255 255 255
255 255 255
255 255 255
187 187 187
255 255 255
255 255 255
255 255 255
187 187 187
255 255 255
255 255 255
255 255 255
187 187 187
255 255 255
255 255 255
255 255 255
187 187 187
255 255 255
255 255 255
255 255 255
187 187 187
255 255 255
255 255 255
255 255 255
187 187 187
255 255 255
255 255 255
255 255 255
187 187 187
255 255 255
255 255 255
255 255 255
187 187 187
255 255 255
255 255 255
255 255 255
187 187 187
255 255 255
255 255 255
255 255 255
187 187 187
255 255 255
255 255 255
255 255 255
187 187 187
255 255 255
255 255 255
255 255 255
187 187 187
255 255 255
255 255 255
255 255 255
187 187 187
255 255 255
255 255 255
255 255 255
187 187 187
255 255 255
255 255 255
255 255 255
187 187 187
255 255 255
255 255 255
255 255 255
187 187 187
255 255 255
255 255 255
255 255 255
187 187 187
255 255 255
255 255 255
255 255 255
187 187 187
255 255 255
255 255 255
255 255 255
187 187 187
255 255 255
255 255 255
255 255 255
187 187 187
255 255 255
255 255 255
255 255 255
187 187 187
255 255 255
255 255 255
255 255 255
187 187 187
255 255 255
255 255 255
255 255 255
187 187 187
255 255 255
255 255 255
255 255 255
187 187 187
255 255 255
255 255 255
255 255 255
187 187 187
255 255 255
255 255 255
255 255 255
187 187 187
255 255 255
255 255 255
255 255 255
187 187 187
255 255 255
255 255 255
255 255 255
187 187 187
255 255 255
255 255 255
255 255 255
187 187 187
255 255 255
255 255 255
255 255 255
187 187 187
255 255 255
255 255 255
255 255 255
187 187 187
255 255 255
255 255 255
255 255 255
187 187 187
255 255 255
255 255 255
255 255 255
187 187 187
255 255 255
255 255 255
255 255 255
187 187 187
255 255 255
255 255 255
255 255 255
187 187 187
255 255 255
255 255 255
255 255 255
187 187 187
255 255 255
255 255 255
255 255 255
187 187 187
255 255 255
255 255 255
255 255 255
187 187 187
255 255 255
255 255 255
255 255 255
187 187 187
255 255 255
255 255 255
255 255 255
187 187 187
255 255 255
255 255 255
255 255 255
187 187 187
255 255 255
255 255 255
255 255 255
187 187 187
255 255 255
255 255 255
255 255 255
187 187 187
255 255 255
255 255 255
255 255 255
187 187 187
255 255 255
255 255 255
255 255 255
187 187 187
255 255 255
255 255 255
255 255 255
187 187 187
255 255 255
255 255 255
255 255 255
187 187 187
255 255 255
255 255 255
255 255 255
187 187 187
255 255 255
255 255 255
255 255 255
187 187 187
255 255 255
255 255 255
255 255 255
187 187 187
255 255 255
255 255 255
255 255 255
187 187 187
255 255 255
255 255 255
255 255 255
187 187 187
255 255 255
255 255 255
255 255 255
187 187 187
255 255 255
255 255 255
255 255 255
187 187 187
255 255 255
255 255 255
255 255 255
187 187 187
255 255 255
255 255 255
255 255 255
187 187 187
255 255 255
255 255 255
255 255 255
187 187 187
255 255 255
255 255 255
255 255 255
187 187 187
255 255 255
255 255 255
255 255 255
187 187 187
255 255 255
255 255 255
255 255 255
187 187 187
255 255 255
255 255 255
255 255 255
187 187 187
255 255 255
255 255 255
255 255 255
187 187 187
255 255 255
255 255 255
255 255 255
187 187 187
255 255 255
255 255 255
255 255 255
187 187 187
255 255 255
255 255 255
255 255 255
187 187 187
255 255 255
255 255 255
255 255 255
187 187 187
255 255 255
255 255 255
255 255 255
187 187 187
255 255 255
255 255 255
255 255 255
187 187 187
255 255 255
255 255 255
255 255 255
187 187 187
255 255 255
255 255 255
255 255 255
187 187 187
255 255 255
255 255 255
255 255 255
187 187 187
255 255 255
255 255 255
255 255 255
187 187 187
255 255 255
255 255 255
255 255 255
187 187 187
255 255 255
255 255 255
255 255 255
187 187 187
255 255 255
255 255 255
255 255 255
187 187 187
255 255 255
255 255 255
255 255 255
187 187 187
255 255 255
255 255 255
255 255 255
187 187 187
255 255 255
255 255 255
255 255 255
187 187 187
255 255 255
255 255 255
255 255 255
187 187 187
255 255 255
255 255 255
255 255 255
187 187 187
255 255 255
255 255 255
255 255 255
187 187 187
255 255 255
255 255 255
255 255 255
187 187 187
255 255 255
255 255 255
255 255 255
187 187 187
255 255 255
255 255 255
255 255 255
187 187 187
255 255 255
255 255 255
255 255 255
187 187 187
255 255 255
255 255 255
255 255 255
187 187 187
255 255 255
255 255 255
255 255 255
187 187 187
255 255 255
255 255 255
255 255 255
187 187 187
255 255 255
255 255 255
255 255 255
187 187 187
255 255 255
255 255 255
255 255 255
187 187 187
255 255 255
255 255 255
255 255 255
187 187 187
255 255 255
255 255 255
255 255 255
187 187 187
255 255 255
255 255 255
255 255 255
187 187 187
255 255 255
255 255 255
255 255 255
187 187 187
255 255 255
255 255 255
255 255 255
187 187 187
255 255 255
255 255 255
255 255 255
187 187 187
255 255 255
255 255 255
255 255 255
187 187 187
255 255 255
255 255 255
255 255 255
187 187 187
255 255 255
255 255 255
255 255 255
187 187 187
255 255 255
255 255 255
255 255 255
187 187 187
255 255 255
255 255 255
255 255 255
187 187 187
255 255 255
255 255 255
255 255 255
187 187 187
255 255 255
255 255 255
255 255 255
187 187 187
255 255 255
255 255 255
255 255 255
187 187 187
255 255 255
255 255 255
255 255 255
187 187 187
255 255 255
255 255 255
255 255 255
187 187 187
255 255 255
255 255 255
255 255 255
187 187 187
255 255 255
255 255 255
255 255 255
187 187 187
255 255 255
255 255 255
255 255 255
187 187 187
255 255 255
255 255 255
255 255 255
187 187 187
255 255 255
255 255 255
255 255 255
187 187 187
255 255 255
255 255 255
255 255 255
187 187 187
255 255 255
255 255 255
255 255 255
187 187 187
255 255 255
255 255 255
255 255 255
187 187 187
255 255 255
255 255 255
255 255 255
187 187 187
255 255 255
255 255 255
255 255 255
187 187 187
255 255 255
255 255 255
255 255 255
187 187 187
255 255 255
255 255 255
255 255 255
187 187 187
255 255 255
255 255 255
255 255 255
187 187 187
255 255 255
255 255 255
255 255 255
187 187 187
255 255 255
255 255 255
255 255 255
187 187 187
255 255 255
255 255 255
255 255 255
187 187 187
255 255 255
255 255 255
255 255 255
187 187 187
255 255 255
255 255 255
255 255 255
187 187 187
255 255 255
255 255 255
255 255 255
187 187 187
255 255 255
255 255 255
255 255 255
187 187 187
255 255 255
255 255 255
255 255 255
187 187 187
255 255 255
255 255 255
255 255 255
187 187 187
255 255 255
255 255 255
255 255 255
187 187 187
255 255 255
255 255 255
255 255 255
187 187 187
255 255 255
255 255 255
255 255 255
187 187 187
255 255 255
255 255 255
255 255 255
187 187 187
255 255 255
255 255 255
255 255 255
187 187 187
255 255 255
255 255 255
255 255 255
187 187 187
255 255 255
255 255 255
255 255 255
187 187 187
255 255 255
255 255 255
255 255 255
187 187 187
255 255 255
255 255 255
255 255 255
187 187 187
255 255 255
255 255 255
255 255 255
187 187 187
255 255 255
255 255 255
255 255 255
187 187 187
255 255 255
255 255 255
255 255 255
187 187 187
255 255 255
255 255 255
255 255 255
187 187 187
255 255 255
255 255 255
255 255 255
187 187 187
255 255 255
255 255 255
255 255 255
187 187 187
255 255 255
255 255 255
255 255 255
187 187 187
255 255 255
255 255 255
255 255 255
187 187 187
255 255 255
255 255 255
255 255 255
187 187 187
255 255 255
255 255 255
255 255 255
187 187 187
255 255 255
255 255 255
255 255 255
187 187 187
255 255 255
255 255 255
255 255 255
187 187 187
255 255 255
255 255 255
255 255 255
187 187 187
255 255 255
255 255 255
255 255 255
187 187 187
255 255 255
255 255 255
255 255 255
187 187 187
255 255 255
255 255 255
255 255 255
187 187 187
255 255 255
255 255 255
255 255 255
187 187 187
255 255 255
255 255 255
255 255 255
187 187 187
255 255 255
255 255 255
255 255 255
187 187 187
255 255 255
255 255 255
255 255 255
187 187 187
255 255 255
255 255 255
255 255 255
187 187 187
255 255 255
255 255 255
255 255 255
187 187 187
255 255 255
255 255 255
255 255 255
187 187 187
255 255 255
255 255 255
255 255 255
187 187 187
255 255 255
255 255 255
255 255 255
187 187 187
255 255 255
